;FLAVOR:Marlin
;TIME:4568
;Filament used: 11.9645m
;Layer height: 0.4
;MINX:96.384
;MINY:126.62
;MINZ:0.25
;MAXX:303.616
;MAXY:293.38
;MAXZ:11.85
;Generated with Cura_SteamEngine 4.5.0
M140 S40
M105
M190 S40
M104 S210
M105
M109 S210
M82 ;absolute extrusion mode
M201 X500.00 Y500.00 Z100.00 E5000.00 ;Setup machine max acceleration
M203 X500.00 Y500.00 Z10.00 E50.00 ;Setup machine max feedrate
M204 P500.00 R1000.00 T500.00 ;Setup Print/Retract/Travel acceleration
M205 X8.00 Y8.00 Z0.40 E5.00 ;Setup Jerk
M220 S100 ;Reset Feedrate
M221 S100 ;Reset Flowrate

G28 ;Home

G1 Z2.0 F3000 ;Move Z Axis up
G29 P1 ;UBL probing
G29 S1 ;UBL MESH SAVE
G29 F10.0 ;UBL FADE
G29 A ;ACTIVATE UBL
M500 ;SAVE TO EEPROM

G92 E0 ;Reset Extruder
G1 Z2.0 F3000 ;Move Z Axis up
G1 X10.1 Y20 Z0.28 F5000.0 ;Move to start position
G1 X10.1 Y200.0 Z0.28 F1500.0 E15 ;Draw the first line
G1 X10.4 Y200.0 Z0.28 F5000.0 ;Move to side a little
G1 X10.4 Y20 Z0.28 F1500.0 E30 ;Draw the second line
G92 E0 ;Reset Extruder
G92 E0
G92 E0
G1 F2700 E-5
;LAYER_COUNT:30
;LAYER:0
M107
M204 S500
M205 X8 Y8
;MESH:FSW12.stl
G0 F6000 X97.839 Y160.072 Z0.25
;TYPE:WALL-INNER
G1 F2700 E0
G1 F900 X97.968 Y161.043 E0.08145
G1 X98.349 Y163.463 E0.28515
G1 X98.47 Y164.132 E0.34168
G1 X98.791 Y165.892 E0.49044
G1 X99.106 Y167.416 E0.61984
G1 X99.295 Y168.328 E0.69728
G1 X99.861 Y170.767 E0.90548
G1 X100.493 Y173.209 E1.11522
G1 X101.187 Y175.649 E1.32615
G1 X101.946 Y178.089 E1.53863
G1 X102.772 Y180.522 E1.75228
G1 X103.66 Y182.947 E1.96701
G1 X104.617 Y185.364 E2.18316
G1 X105.639 Y187.766 E2.40022
G1 X106.726 Y190.153 E2.61831
G1 X107.88 Y192.524 E2.83757
G1 X109.074 Y194.827 E3.05327
G1 X110.32 Y197.09 E3.26808
G1 X111.628 Y199.328 E3.48362
G1 X112.995 Y201.54 E3.69984
G1 X114.422 Y203.723 E3.9167
G1 X115.909 Y205.873 E4.13406
G1 X117.45 Y207.991 E4.35185
G1 X119.05 Y210.072 E4.57012
G1 X120.703 Y212.114 E4.78858
G1 X122.41 Y214.116 E5.00734
G1 X124.171 Y216.076 E5.22643
G1 X125.979 Y217.99 E5.44536
G1 X127.838 Y219.86 E5.66461
G1 X129.743 Y221.68 E5.88369
G1 X131.695 Y223.45 E6.10279
G1 X133.687 Y225.168 E6.32151
G1 X135.723 Y226.834 E6.54026
G1 X137.796 Y228.443 E6.75846
G1 X139.905 Y229.998 E6.97634
G1 X142.05 Y231.496 E7.19389
G1 X144.227 Y232.933 E7.41078
G1 X146.431 Y234.314 E7.62705
G1 X148.666 Y235.633 E7.84284
G1 X150.924 Y236.893 E8.05785
G1 X153.204 Y238.09 E8.27197
G1 X155.504 Y239.226 E8.48527
G1 X157.822 Y240.3 E8.6977
G1 X160.156 Y241.312 E8.90923
G1 X162.503 Y242.261 E9.11973
G1 X164.859 Y243.148 E9.32906
G1 X167.224 Y243.974 E9.53736
G1 X169.594 Y244.735 E9.74433
G1 X171.968 Y245.438 E9.9502
G1 X174.343 Y246.077 E10.15471
G1 X176.717 Y246.658 E10.35793
G1 X179.089 Y247.179 E10.55987
G1 X181.454 Y247.64 E10.76022
G1 X183.938 Y248.063 E10.96974
G1 X186.428 Y248.424 E11.17895
G1 X188.917 Y248.724 E11.38741
G1 X191.398 Y248.963 E11.59466
G1 X193.858 Y249.138 E11.79972
G1 X196.389 Y249.258 E12.01041
G1 X198.747 Y249.315 E12.20654
G1 X199.976 Y249.322 E12.30873
G1 X202.5 Y249.293 E12.51862
G1 X204.995 Y249.203 E12.72621
G1 X207.539 Y249.048 E12.93814
G1 X210.016 Y248.835 E13.14486
G1 X212.412 Y248.573 E13.34528
G1 X214.823 Y248.252 E13.54752
G1 X217.243 Y247.871 E13.75123
G1 X219.672 Y247.43 E13.9565
G1 X222.108 Y246.925 E14.16336
G1 X224.547 Y246.359 E14.37155
G1 X226.989 Y245.727 E14.5813
G1 X229.429 Y245.033 E14.79223
G1 X231.869 Y244.274 E15.00471
G1 X234.302 Y243.448 E15.21835
G1 X236.727 Y242.56 E15.43309
G1 X239.144 Y241.603 E15.64924
G1 X241.546 Y240.582 E15.86626
G1 X243.934 Y239.494 E16.08446
G1 X246.304 Y238.34 E16.30365
G1 X248.607 Y237.146 E16.51935
G1 X250.87 Y235.9 E16.73416
G1 X253.108 Y234.592 E16.9497
G1 X255.32 Y233.225 E17.16592
G1 X257.503 Y231.798 E17.38278
G1 X259.654 Y230.312 E17.60016
G1 X261.77 Y228.77 E17.81787
G1 X263.852 Y227.17 E18.03621
G1 X265.894 Y225.517 E18.25466
G1 X267.896 Y223.81 E18.47342
G1 X269.856 Y222.05 E18.69246
G1 X271.77 Y220.24 E18.9115
G1 X273.64 Y218.382 E19.1307
G1 X275.46 Y216.477 E19.34977
G1 X277.23 Y214.525 E19.56887
G1 X278.948 Y212.533 E19.7876
G1 X280.614 Y210.497 E20.00634
G1 X282.223 Y208.424 E20.22454
G1 X283.777 Y206.315 E20.44237
G1 X285.276 Y204.171 E20.6599
G1 X286.713 Y201.994 E20.8768
G1 X288.094 Y199.789 E21.09313
G1 X289.413 Y197.555 E21.30885
G1 X290.673 Y195.297 E21.52386
G1 X291.87 Y193.016 E21.73806
G1 X293.006 Y190.716 E21.95136
G1 X294.08 Y188.398 E22.16378
G1 X295.092 Y186.065 E22.37524
G1 X296.041 Y183.717 E22.58582
G1 X296.928 Y181.361 E22.79514
G1 X297.754 Y178.996 E23.00344
G1 X298.515 Y176.626 E23.21042
G1 X299.218 Y174.252 E23.41629
G1 X299.857 Y171.877 E23.6208
G1 X300.438 Y169.503 E23.82402
G1 X300.892 Y167.436 E23.99999
G1 X300.959 Y167.131 E24.02595
G1 X301.42 Y164.766 E24.22631
G1 X301.526 Y164.143 E24.27885
G1 X301.843 Y162.282 E24.43583
G1 X302.159 Y160.103 E24.61891
G1 X302.031 Y162.293 E24.64018
G1 X301.918 Y164.209 E24.69958
G1 X301.878 Y164.797 E24.72504
G1 X301.711 Y167.183 E24.87663
G1 X301.69 Y167.495 E24.90188
G1 X301.587 Y168.958 E25.02383
G1 X301.205 Y173.7 E25.41941
G1 X300.772 Y178.437 E25.81493
G1 X300.287 Y183.178 E26.2112
G1 X299.752 Y187.906 E26.60685
G1 X299.166 Y192.63 E27.00266
G1 X298.529 Y197.348 E27.39852
G1 X297.84 Y202.067 E27.79507
G1 X297.104 Y206.761 E28.19015
G1 X296.318 Y211.446 E28.58515
G1 X294.607 Y220.721 E29.36938
G1 X293.867 Y222.69 E29.54429
G1 X293 Y224.848 E29.73766
G1 X292.111 Y226.921 E29.92522
G1 X291.174 Y228.981 E30.11339
G1 X290.184 Y231.03 E30.30261
G1 X289.148 Y233.056 E30.49182
G1 X288.067 Y235.058 E30.68101
G1 X286.941 Y237.035 E30.87019
G1 X285.756 Y239.01 E31.0617
G1 X284.557 Y240.913 E31.24873
G1 X283.299 Y242.809 E31.43793
G1 X281.991 Y244.688 E31.62829
G1 X280.652 Y246.522 E31.81711
G1 X279.28 Y248.315 E32.00484
G1 X277.823 Y250.132 E32.1985
G1 X276.525 Y251.679 E32.36641
G1 X276.369 Y251.77 E32.38143
G1 X275.935 Y252.174 E32.43073
G1 X275.667 Y252.576 E32.47091
G1 X275.47 Y253.053 E32.51382
G1 X275.379 Y253.579 E32.5582
G1 X275.4 Y254.023 E32.59516
G1 X275.433 Y254.234 E32.61292
G1 X275.558 Y254.654 E32.64936
G1 X275.812 Y255.114 E32.69305
G1 X276.171 Y255.521 E32.73818
G1 X276.665 Y255.868 E32.78838
G1 X277.115 Y256.046 E32.82861
G1 X277.294 Y256.079 E32.84375
G1 X277.621 Y256.139 E32.87139
G1 X277.904 Y256.129 E32.89494
G1 X278.123 Y256.12 E32.91316
G1 X278.315 Y256.072 E32.92962
G1 X278.198 Y256.192 E32.92986
G1 X277.944 Y256.453 E32.94358
G1 X277.918 Y256.479
G1 X277.682 Y256.713 E32.96588
G1 X276.513 Y257.871 E33.1027
G1 X275.067 Y259.249 E33.26879
G1 X273.591 Y260.607 E33.43556
G1 X272.089 Y261.939 E33.60249
G1 X270.577 Y263.232 E33.76792
G1 X269.027 Y264.508 E33.93485
G1 X267.442 Y265.766 E34.10311
G1 X265.839 Y266.99 E34.27082
G1 X264.228 Y268.175 E34.43711
G1 X262.58 Y269.342 E34.60502
G1 X260.928 Y270.464 E34.77107
G1 X259.23 Y271.574 E34.93975
G1 X257.519 Y272.648 E35.10772
G1 X255.808 Y273.679 E35.27383
G1 X254.071 Y274.683 E35.44065
G1 X252.305 Y275.661 E35.60851
G1 X250.536 Y276.599 E35.775
G1 X248.726 Y277.516 E35.94371
G1 X246.92 Y278.391 E36.11058
G1 X245.12 Y279.221 E36.2754
G1 X243.277 Y280.033 E36.44286
G1 X241.447 Y280.797 E36.60775
G1 X239.586 Y281.536 E36.77425
G1 X237.718 Y282.239 E36.94021
G1 X235.839 Y282.907 E37.10603
G1 X233.982 Y283.531 E37.26892
G1 X232.088 Y284.127 E37.43402
G1 X230.048 Y284.73 E37.6109
G1 X226.745 Y285.627 E37.8955
G1 X224.43 Y286.172 E38.09325
G1 X222.54 Y286.583 E38.25408
G1 X220.687 Y286.955 E38.41123
G1 X218.791 Y287.302 E38.5715
G1 X216.869 Y287.616 E38.73344
G1 X214.97 Y287.895 E38.89303
G1 X213.085 Y288.139 E39.05108
G1 X211.182 Y288.35 E39.21028
G1 X209.284 Y288.527 E39.36879
G1 X207.4 Y288.671 E39.5259
G1 X205.518 Y288.783 E39.68267
G1 X203.652 Y288.86 E39.83796
G1 X201.681 Y288.908 E40.0019
G1 X199.92 Y288.921 E40.14833
G1 X197.976 Y288.904 E40.30998
G1 X195.994 Y288.849 E40.47484
G1 X194.011 Y288.76 E40.6399
G1 X192.076 Y288.638 E40.80111
G1 X190.156 Y288.48 E40.9613
G1 X188.235 Y288.291 E41.1218
G1 X186.302 Y288.066 E41.28362
G1 X184.381 Y287.806 E41.44481
G1 X182.463 Y287.513 E41.60614
G1 X180.517 Y287.18 E41.7703
G1 X178.586 Y286.814 E41.93372
G1 X176.595 Y286.399 E42.10284
G1 X173.3 Y285.648 E42.38384
G1 X173.3 Y285.636 E42.38484
G1 X170.847 Y284.982 E42.59593
G1 X168.9 Y284.425 E42.76432
G1 X167.039 Y283.857 E42.92611
G1 X165.114 Y283.233 E43.09437
G1 X163.22 Y282.579 E43.26099
G1 X161.332 Y281.888 E43.42816
G1 X159.486 Y281.174 E43.59273
G1 X157.632 Y280.419 E43.75919
G1 X155.788 Y279.627 E43.92606
G1 X153.962 Y278.803 E44.09264
G1 X152.162 Y277.952 E44.25819
G1 X150.368 Y277.064 E44.42464
G1 X148.568 Y276.13 E44.59326
G1 X146.811 Y275.179 E44.75938
G1 X145.054 Y274.184 E44.92728
G1 X143.32 Y273.161 E45.09468
G1 X141.613 Y272.11 E45.26136
G1 X139.917 Y271.022 E45.42891
G1 X138.229 Y269.897 E45.59758
G1 X136.587 Y268.757 E45.7638
G1 X134.949 Y267.576 E45.93171
G1 X133.341 Y266.369 E46.09889
G1 X131.76 Y265.139 E46.26545
G1 X130.188 Y263.868 E46.43354
G1 X128.667 Y262.593 E46.59857
G1 X127.141 Y261.262 E46.76694
G1 X125.654 Y259.919 E46.93355
G1 X124.214 Y258.569 E47.09768
G1 X122.768 Y257.163 E47.26538
G1 X122.315 Y256.707 E47.31883
G1 X122.026 Y256.416 E47.35293
G1 X121.769 Y256.158 E47.38321
G1 X121.691 Y256.079 E47.39244
G1 X121.81 Y256.116
G1 X122.3 Y256.143 E47.40922
G1 X122.706 Y256.085 E47.43544
G1 X122.818 Y256.068 E47.44486
G1 X123.223 Y255.911 E47.48098
G1 X123.415 Y255.818 E47.49872
G1 X123.78 Y255.563 E47.53574
G1 X124.137 Y255.183 E47.5791
G1 X124.415 Y254.716 E47.62429
G1 X124.591 Y254.141 E47.67429
G1 X124.624 Y253.658 E47.71454
G1 X124.568 Y253.242 E47.74944
G1 X124.521 Y253.036 E47.76701
G1 X124.362 Y252.628 E47.80342
G1 X124.089 Y252.213 E47.84473
G1 X123.772 Y251.895 E47.88206
G1 X123.597 Y251.749 E47.90101
G1 X123.479 Y251.681 E47.91234
G1 X122.234 Y250.199 E48.07328
G1 X120.744 Y248.343 E48.27119
G1 X119.369 Y246.548 E48.4592
G1 X118.027 Y244.712 E48.6483
G1 X116.717 Y242.83 E48.83896
G1 X115.464 Y240.942 E49.02738
G1 X114.254 Y239.025 E49.21588
G1 X113.073 Y237.059 E49.40658
G1 X111.947 Y235.081 E49.59583
G1 X110.865 Y233.079 E49.78505
G1 X109.829 Y231.054 E49.97419
G1 X109.822 Y231.038 E49.97564
G1 X108.848 Y229.024 E50.16166
G1 X107.903 Y226.95 E50.35117
G1 X107.008 Y224.865 E50.53984
G1 X106.134 Y222.692 E50.73459
G1 X105.392 Y220.717 E50.91002
G1 X104.522 Y216.138 E51.29758
G1 X103.683 Y211.447 E51.69383
G1 X102.894 Y206.752 E52.08969
G1 X102.158 Y202.058 E52.48477
G1 X101.47 Y197.338 E52.88139
G1 X100.834 Y192.625 E53.27682
G1 X100.247 Y187.896 E53.67306
G1 X99.711 Y183.17 E54.06855
G1 X99.228 Y178.429 E54.4648
G1 X98.794 Y173.692 E54.86034
G1 X98.412 Y168.943 E55.25649
G1 X98.31 Y167.485 E55.37802
G1 X98.203 Y165.933 E55.49041
G1 X98.082 Y164.203 E55.57833
G1 X98.04 Y163.482 E55.6058
G1 X97.897 Y161.048 E55.65382
G1 X97.839 Y160.072 E55.65739
G0 F6000 X99.508 Y172.596
G1 F900 X99.721 Y173.419 E55.72808
G1 X99.763 Y173.569 E55.74103
G1 X100.42 Y175.877 E55.94057
G1 X100.673 Y176.69 E56.01137
G1 X101.185 Y178.336 E56.1547
G1 X102.018 Y180.788 E56.37003
G1 X102.912 Y183.232 E56.58642
G1 X103.877 Y185.668 E56.80429
G1 X104.907 Y188.088 E57.02298
G1 X106.002 Y190.494 E57.24278
G1 X107.165 Y192.883 E57.46372
G1 X108.368 Y195.204 E57.68109
G1 X109.624 Y197.485 E57.89761
G1 X110.942 Y199.74 E58.11479
G1 X112.32 Y201.969 E58.33269
G1 X113.758 Y204.169 E58.55123
G1 X115.256 Y206.336 E58.77028
G1 X116.809 Y208.47 E58.98974
G1 X118.422 Y210.568 E59.20979
G1 X120.088 Y212.625 E59.42989
G1 X121.808 Y214.643 E59.65037
G1 X123.583 Y216.618 E59.87117
G1 X125.404 Y218.547 E60.09174
G1 X127.278 Y220.431 E60.3127
G1 X129.198 Y222.266 E60.53354
G1 X131.165 Y224.049 E60.75429
G1 X133.172 Y225.781 E60.97472
G1 X135.224 Y227.46 E61.19518
G1 X137.313 Y229.081 E61.41504
G1 X139.439 Y230.648 E61.63465
G1 X141.601 Y232.158 E61.85393
G1 X143.794 Y233.606 E62.07244
G1 X146.015 Y234.998 E62.29039
G1 X148.268 Y236.327 E62.50789
G1 X150.543 Y237.597 E62.72454
G1 X152.841 Y238.803 E62.94033
G1 X155.159 Y239.948 E63.15531
G1 X157.495 Y241.03 E63.36937
G1 X159.847 Y242.05 E63.58254
G1 X162.212 Y243.006 E63.79465
G1 X164.586 Y243.9 E64.00558
G1 X166.97 Y244.733 E64.21557
G1 X169.358 Y245.499 E64.42409
G1 X171.75 Y246.208 E64.63154
G1 X174.144 Y246.852 E64.83768
G1 X176.536 Y247.437 E65.04244
G1 X178.917 Y247.959 E65.24512
G1 X178.927 Y247.962 E65.24599
G1 X181.31 Y248.427 E65.44787
G1 X183.813 Y248.853 E65.65899
G1 X186.323 Y249.217 E65.86988
G1 X188.821 Y249.517 E66.07908
G1 X188.831 Y249.519 E66.07993
G1 X191.331 Y249.76 E66.28877
G1 X193.811 Y249.937 E66.49551
G1 X196.36 Y250.058 E66.7077
G1 X198.735 Y250.115 E66.90524
G1 X199.978 Y250.122 E67.00859
G1 X202.519 Y250.093 E67.21989
G1 X205.034 Y250.002 E67.42915
G1 X207.598 Y249.846 E67.64275
G1 X210.094 Y249.631 E67.85106
G1 X212.508 Y249.367 E68.05298
G1 X214.938 Y249.044 E68.25681
G1 X217.377 Y248.66 E68.46211
G1 X219.825 Y248.215 E68.669
G1 X222.28 Y247.706 E68.87748
G1 X224.738 Y247.136 E69.08728
G1 X227.199 Y246.499 E69.29866
G1 X229.657 Y245.8 E69.51115
G1 X232.116 Y245.035 E69.72528
G1 X234.568 Y244.202 E69.94061
G1 X237.012 Y243.308 E70.157
G1 X239.448 Y242.343 E70.37487
G1 X241.868 Y241.314 E70.59352
G1 X244.275 Y240.218 E70.81344
G1 X246.663 Y239.055 E71.0343
G1 X248.984 Y237.852 E71.25167
G1 X251.265 Y236.596 E71.46819
G1 X253.52 Y235.278 E71.68537
G1 X255.749 Y233.9 E71.90327
G1 X257.949 Y232.462 E72.12182
G1 X260.117 Y230.964 E72.34093
G1 X262.249 Y229.411 E72.56026
G1 X264.347 Y227.798 E72.7803
G1 X266.405 Y226.132 E73.00047
G1 X268.423 Y224.412 E73.22095
G1 X270.398 Y222.638 E73.44169
G1 X272.327 Y220.814 E73.66244
G1 X274.211 Y218.942 E73.88328
G1 X276.046 Y217.022 E74.10412
G1 X277.829 Y215.055 E74.32487
G1 X279.561 Y213.048 E74.5453
G1 X281.24 Y210.996 E74.76576
G1 X282.861 Y208.907 E74.98562
G1 X284.427 Y206.782 E75.20512
G1 X285.938 Y204.621 E75.42437
G1 X287.386 Y202.427 E75.64295
G1 X288.778 Y200.205 E75.86097
G1 X290.107 Y197.953 E76.0784
G1 X291.377 Y195.678 E76.29505
G1 X292.583 Y193.379 E76.51092
G1 X293.728 Y191.061 E76.72589
G1 X294.81 Y188.725 E76.93996
G1 X295.83 Y186.374 E77.15305
G1 X296.786 Y184.008 E77.36524
G1 X297.68 Y181.634 E77.57617
G1 X298.513 Y179.25 E77.78615
G1 X299.279 Y176.862 E77.99468
G1 X299.331 Y176.689 E78.0097
G1 X299.988 Y174.47 E78.20213
G1 X300.228 Y173.579 E78.27886
G1 X300.492 Y172.598 E78.36333
G1 X300.409 Y173.627 E78.37429
G1 X300.329 Y174.501 E78.39736
G1 X300.118 Y176.805 E78.53498
G1 X299.976 Y178.356 E78.66448
G1 X299.492 Y183.088 E79.06
G1 X298.958 Y187.808 E79.45498
G1 X298.373 Y192.523 E79.85004
G1 X297.737 Y197.232 E80.24515
G1 X297.048 Y201.951 E80.64169
G1 X296.315 Y206.629 E81.03542
G1 X295.531 Y211.301 E81.42933
G1 X293.833 Y220.507 E82.20772
G1 X293.118 Y222.409 E82.37668
G1 X292.265 Y224.533 E82.567
G1 X291.383 Y226.59 E82.7531
G1 X290.454 Y228.633 E82.93971
G1 X289.472 Y230.666 E83.12745
G1 X288.444 Y232.676 E83.31517
G1 X287.372 Y234.662 E83.50283
G1 X286.255 Y236.623 E83.69048
G1 X285.07 Y238.598 E83.882
G1 X283.89 Y240.471 E84.06607
G1 X282.642 Y242.352 E84.25377
G1 X281.334 Y244.231 E84.44413
G1 X280.006 Y246.05 E84.6314
G1 X278.656 Y247.815 E84.81617
G1 X277.21 Y249.618 E85.00835
G1 X276.001 Y251.058 E85.16469
G1 X275.889 Y251.124 E85.1755
G1 X275.321 Y251.652 E85.23999
G1 X274.958 Y252.198 E85.2945
G1 X274.929 Y252.27 E85.30096
G1 X274.697 Y252.829 E85.35128
G1 X274.576 Y253.529 E85.41035
G1 X274.603 Y254.104 E85.45822
G1 X274.651 Y254.411 E85.48405
G1 X274.816 Y254.965 E85.53212
G1 X275.154 Y255.577 E85.59025
G1 X275.634 Y256.121 E85.65058
G1 X276.276 Y256.572 E85.71581
G1 X276.283 Y256.577 E85.71653
G1 X276.568 Y256.69 E85.74202
G1 X276.481 Y256.776
G1 X275.961 Y257.292 E85.79276
G1 X275.955 Y257.298 E85.79346
G1 X274.525 Y258.66 E85.95767
G1 X273.06 Y260.008 E86.12321
G1 X271.558 Y261.34 E86.29013
G1 X270.069 Y262.614 E86.45308
G1 X268.53 Y263.881 E86.61884
G1 X266.956 Y265.13 E86.78591
G1 X265.353 Y266.354 E86.95362
G1 X263.766 Y267.522 E87.11746
G1 X262.131 Y268.68 E87.28406
G1 X260.49 Y269.794 E87.44898
G1 X258.792 Y270.904 E87.61766
G1 X257.094 Y271.97 E87.78437
G1 X255.408 Y272.986 E87.94804
