; generated by PrusaSlicer 2.2.0+win64 on 2020-04-23 at 23:42:05 UTC

; 

; external perimeters extrusion width = 0.90mm
; perimeters extrusion width = 0.90mm
; infill extrusion width = 0.90mm
; solid infill extrusion width = 0.90mm
; top infill extrusion width = 0.80mm
; first layer extrusion width = 0.70mm

M73 P0 R100
M201 X9000 Y9000 Z500 E10000 ; sets maximum accelerations, mm/sec^2
M203 X500 Y500 Z12 E120 ; sets maximum feedrates, mm/sec
M204 P2000 R1500 T2000 ; sets acceleration (P, T) and retract acceleration (R), mm/sec^2
M205 X10.00 Y10.00 Z0.20 E4.50 ; sets the jerk limits, mm/sec
M205 S0 T0 ; sets the minimum extruding and travel feed rate, mm/sec
M107
M862.3 P "MK2.5S" ; printer model check
M862.1 P0.8 ; nozzle diameter check
M115 U3.8.1 ; tell printer latest fw version
G90 ; use absolute coordinates
M83 ; extruder relative mode
M104 S220 ; set extruder temp
M140 S80 ; set bed temp
M190 S80 ; wait for bed temp
M109 S220 ; wait for extruder temp
G28 W ; home all without mesh bed level
G80 ; mesh bed leveling
G1 Y-3.0 F1000.0 ; go outside print area
G92 E0.0
G1 X60.0 E9.0 F1000.0 ; intro line
M73 P0 R100
G1 X100.0 E12.5 F1000.0 ; intro line
G92 E0.0
G21 ; set units to millimeters
G90 ; use absolute coordinates
M83 ; use relative distances for extrusion
M900 K30 ; Filament gcode
;BEFORE_LAYER_CHANGE
G92 E0.0
;0.35


G1 E-0.80000 F2100.00000
G1 Z0.600 F7800.000
;AFTER_LAYER_CHANGE
;0.35
G1 X24.544 Y101.846
G1 Z0.350
G1 E0.80000 F2100.00000
G1 F1800.000
G1 X24.879 Y101.795 E0.03076
G1 X25.099 Y102.646 E0.07991
G1 X25.627 Y104.500 E0.17530
G1 X26.204 Y106.352 E0.17640
G1 X26.831 Y108.201 E0.17745
G1 X27.507 Y110.043 E0.17846
G1 X28.234 Y111.878 E0.17942
G1 X29.010 Y113.702 E0.18033
G1 X29.837 Y115.515 E0.18119
G1 X30.713 Y117.315 E0.18198
G1 X31.621 Y119.064 E0.17915
G1 X32.568 Y120.782 E0.17842
G1 X33.561 Y122.482 E0.17902
G1 X34.600 Y124.161 E0.17957
G1 X35.684 Y125.819 E0.18007
G1 X36.813 Y127.452 E0.18052
G1 X37.985 Y129.060 E0.18090
G1 X39.200 Y130.640 E0.18123
G1 X40.456 Y132.191 E0.18150
G1 X41.753 Y133.711 E0.18172
G1 X43.090 Y135.199 E0.18187
G1 X44.465 Y136.653 E0.18196
G1 X45.877 Y138.071 E0.18200
G1 X47.324 Y139.453 E0.18198
G1 X48.806 Y140.797 E0.18189
G1 X50.321 Y142.102 E0.18175
G1 X51.866 Y143.366 E0.18155
G1 X53.441 Y144.588 E0.18129
G1 X55.043 Y145.768 E0.18097
G1 X56.672 Y146.905 E0.18059
G1 X58.325 Y147.997 E0.18016
G1 X60.001 Y149.045 E0.17967
G1 X61.697 Y150.047 E0.17913
G1 X63.412 Y151.002 E0.17853
G1 X65.144 Y151.911 E0.17788
G1 X66.891 Y152.774 E0.17718
G1 X68.652 Y153.589 E0.17643
G1 X70.424 Y154.357 E0.17562
G1 X72.206 Y155.077 E0.17478
G1 X73.996 Y155.750 E0.17388
G1 X75.792 Y156.376 E0.17294
G1 X77.592 Y156.955 E0.17196
G1 X79.395 Y157.488 E0.17093
G1 X81.199 Y157.974 E0.16987
G1 X83.002 Y158.414 E0.16877
G1 X84.803 Y158.808 E0.16763
G1 X86.601 Y159.158 E0.16651
G1 X88.488 Y159.479 E0.17408
G1 X90.379 Y159.753 E0.17374
G1 X92.269 Y159.981 E0.17313
G1 X94.153 Y160.161 E0.17209
G1 X96.020 Y160.294 E0.17018
G1 X97.851 Y160.381 E0.16670
G1 X100.662 Y160.432 E0.25561
G1 X102.620 Y160.407 E0.17810
G1 X104.480 Y160.339 E0.16920
G1 X106.411 Y160.221 E0.17596
G1 X108.291 Y160.060 E0.17157
G1 X110.112 Y159.860 E0.16657
G1 X111.942 Y159.616 E0.16788
G1 X113.780 Y159.326 E0.16921
G1 X115.625 Y158.990 E0.17050
G1 X117.475 Y158.606 E0.17176
G1 X119.328 Y158.175 E0.17298
G1 X121.182 Y157.696 E0.17416
G1 X123.036 Y157.168 E0.17530
G1 X124.888 Y156.591 E0.17640
G1 X126.736 Y155.964 E0.17745
G1 X128.579 Y155.288 E0.17846
G1 X130.413 Y154.561 E0.17942
G1 X132.238 Y153.784 E0.18033
G1 X134.051 Y152.958 E0.18119
G1 X135.851 Y152.081 E0.18198
G1 X137.599 Y151.174 E0.17915
G1 X139.318 Y150.227 E0.17842
G1 X141.018 Y149.234 E0.17902
G1 X142.697 Y148.195 E0.17958
G1 X144.354 Y147.111 E0.18007
G1 X145.988 Y145.982 E0.18052
G1 X147.595 Y144.810 E0.18090
G1 X149.175 Y143.595 E0.18123
G1 X150.726 Y142.339 E0.18150
G1 X152.247 Y141.042 E0.18172
G1 X153.735 Y139.705 E0.18187
G1 X155.189 Y138.330 E0.18196
G1 X156.607 Y136.918 E0.18200
G1 X157.989 Y135.470 E0.18197
G1 X159.333 Y133.989 E0.18189
G1 X160.638 Y132.474 E0.18175
G1 X161.902 Y130.929 E0.18155
G1 X163.124 Y129.354 E0.18129
G1 X164.304 Y127.751 E0.18097
G1 X165.441 Y126.123 E0.18059
G1 X166.533 Y124.470 E0.18016
G1 X167.581 Y122.794 E0.17967
G1 X168.582 Y121.098 E0.17913
G1 X169.538 Y119.383 E0.17853
G1 X170.447 Y117.651 E0.17788
G1 X171.309 Y115.903 E0.17718
G1 X172.125 Y114.143 E0.17643
G1 X172.892 Y112.371 E0.17562
G1 X173.613 Y110.589 E0.17478
G1 X174.286 Y108.799 E0.17388
G1 X174.912 Y107.003 E0.17294
G1 X175.491 Y105.203 E0.17196
G1 X176.024 Y103.400 E0.17094
G1 X176.453 Y101.805 E0.15020
G1 X176.786 Y101.857 E0.03061
G1 X176.509 Y107.582 E0.52116
G1 X176.221 Y112.727 E0.46861
G1 X175.860 Y118.337 E0.51118
G1 X175.453 Y123.944 E0.51115
G1 X175.001 Y129.525 E0.50920
G1 X174.780 Y131.483 E0.17911
G1 X174.478 Y133.625 E0.19670
G1 X174.131 Y135.665 E0.18821
G1 X173.727 Y137.700 E0.18862
G1 X173.266 Y139.726 E0.18890
G1 X172.749 Y141.736 E0.18875
G1 X172.176 Y143.733 E0.18889
G1 X171.547 Y145.714 E0.18897
G1 X170.864 Y147.676 E0.18897
G1 X170.126 Y149.618 E0.18889
G1 X169.336 Y151.537 E0.18875
G1 X168.493 Y153.432 E0.18853
G1 X167.600 Y155.299 E0.18824
G1 X166.657 Y157.138 E0.18787
G1 X165.666 Y158.945 E0.18744
G1 X164.630 Y160.716 E0.18656
G1 X163.687 Y162.217 E0.16115
G1 X162.660 Y163.721 E0.16560
G1 X161.641 Y165.106 E0.15635
G1 X160.482 Y166.565 E0.16943
G1 X160.174 Y167.019 E0.04989
G1 X159.917 Y167.619 E0.05932
G1 X159.782 Y168.230 E0.05690
G1 X159.773 Y169.015 E0.07143
G1 X159.894 Y169.633 E0.05731
G1 X160.143 Y170.249 E0.06038
G1 X160.485 Y170.776 E0.05713
G1 X160.866 Y171.185 E0.05077
G1 X161.414 Y171.599 E0.06249
G1 X162.021 Y171.886 E0.06109
G1 X162.582 Y172.026 E0.05251
G1 X161.140 Y173.521 E0.18889
G1 X159.848 Y174.805 E0.16557
G1 X158.527 Y176.061 E0.16576
G1 X157.179 Y177.290 E0.16590
G1 X155.803 Y178.491 E0.16601
G1 X154.402 Y179.662 E0.16608
G1 X152.975 Y180.803 E0.16611
G1 X151.524 Y181.913 E0.16610
G1 X150.050 Y182.991 E0.16606
G1 X148.554 Y184.037 E0.16597
G1 X147.037 Y185.049 E0.16585
G1 X145.500 Y186.028 E0.16569
G1 X143.945 Y186.973 E0.16549
G1 X142.371 Y187.882 E0.16525
G1 X140.781 Y188.757 E0.16498
G1 X139.176 Y189.595 E0.16467
G1 X137.557 Y190.398 E0.16432
G1 X135.925 Y191.164 E0.16394
G1 X134.281 Y191.893 E0.16352
G1 X132.627 Y192.586 E0.16307
G1 X130.971 Y193.239 E0.16189
G1 X126.965 Y194.679 E0.38712
G1 X124.252 Y195.490 E0.25743
G1 X122.550 Y195.963 E0.16062
G1 X120.857 Y196.396 E0.15896
G1 X119.162 Y196.793 E0.15826
G1 X117.467 Y197.153 E0.15752
G1 X115.774 Y197.477 E0.15676
G1 X114.083 Y197.765 E0.15597
G1 X112.396 Y198.018 E0.15515
G1 X110.713 Y198.236 E0.15431
G1 X109.036 Y198.419 E0.15340
G1 X107.274 Y198.575 E0.16077
G1 X105.517 Y198.693 E0.16021
G1 X103.770 Y198.775 E0.15902
G1 X102.061 Y198.821 E0.15546
G1 X100.667 Y198.832 E0.12671
G1 X99.060 Y198.817 E0.14615
G1 X97.242 Y198.763 E0.16540
G1 X95.462 Y198.673 E0.16203
G1 X93.704 Y198.546 E0.16030
G1 X91.999 Y198.389 E0.15569
G1 X90.287 Y198.195 E0.15664
G1 X88.570 Y197.966 E0.15754
G1 X86.848 Y197.700 E0.15840
G1 X85.123 Y197.397 E0.15925
G1 X83.396 Y197.057 E0.16006
G1 X81.668 Y196.679 E0.16085
G1 X79.940 Y196.264 E0.16161
G1 X78.217 Y195.811 E0.16200
G1 X74.687 Y194.783 E0.33431
G1 X71.343 Y193.608 E0.32228
G1 X69.644 Y192.962 E0.16525
G1 X67.952 Y192.277 E0.16602
G1 X66.287 Y191.560 E0.16483
G1 X64.649 Y190.814 E0.16371
G1 X63.022 Y190.031 E0.16412
G1 X61.409 Y189.212 E0.16449
G1 X59.811 Y188.356 E0.16482
G1 X58.229 Y187.466 E0.16511
G1 X56.664 Y186.540 E0.16537
G1 X55.116 Y185.579 E0.16559
G1 X53.589 Y184.585 E0.16577
G1 X52.081 Y183.557 E0.16591
G1 X50.595 Y182.496 E0.16602
G1 X49.132 Y181.403 E0.16609
G1 X47.692 Y180.278 E0.16611
G1 X46.277 Y179.123 E0.16610
G1 X44.887 Y177.938 E0.16606
G1 X43.524 Y176.724 E0.16597
G1 X42.188 Y175.482 E0.16584
G1 X40.881 Y174.213 E0.16568
G1 X39.603 Y172.918 E0.16548
G1 X38.761 Y172.029 E0.11132
G1 X39.361 Y171.866 E0.05652
G1 X39.947 Y171.580 E0.05928
G1 X40.474 Y171.176 E0.06037
G1 X40.869 Y170.747 E0.05297
G1 X41.216 Y170.194 E0.05945
G1 X41.458 Y169.560 E0.06167
G1 X41.572 Y168.888 E0.06200
G1 X41.537 Y168.153 E0.06684
G1 X41.397 Y167.572 E0.05438
G1 X41.167 Y167.045 E0.05225
G1 X40.854 Y166.571 E0.05167
G1 X39.689 Y165.105 E0.17027
G1 X38.670 Y163.720 E0.15636
G1 X37.643 Y162.216 E0.16559
G1 X36.700 Y160.716 E0.16113
G1 X35.705 Y159.016 E0.17910
G1 X34.664 Y157.120 E0.19670
G1 X33.720 Y155.278 E0.18821
G1 X32.826 Y153.406 E0.18862
G1 X31.982 Y151.508 E0.18890
G1 X31.192 Y149.588 E0.18875
G1 X30.456 Y147.646 E0.18890
G1 X29.773 Y145.683 E0.18897
G1 X29.145 Y143.702 E0.18897
G1 X28.573 Y141.705 E0.18889
G1 X28.057 Y139.694 E0.18875
G1 X27.598 Y137.672 E0.18853
G1 X27.195 Y135.642 E0.18824
G1 X26.849 Y133.605 E0.18787
G1 X26.561 Y131.564 E0.18744
G1 X26.330 Y129.525 E0.18656
G1 X25.877 Y123.938 E0.50973
G1 X25.470 Y118.325 E0.51169
G1 X25.109 Y112.709 E0.51170
G1 X24.794 Y107.091 E0.51169
G1 X24.550 Y101.966 E0.46652
G1 F6240.000
G1 X24.879 Y101.795 E-0.11841
G1 X25.099 Y102.646 E-0.28097
G1 X25.408 Y103.731 E-0.36063
G1 E-0.04000 F2100.00000
G1 Z0.950 F7800.000
G1 X23.641 Y94.578
G1 Z0.350
G1 E0.80000 F2100.00000
G1 F1800.000
G1 X23.992 Y94.546 E0.03202
G1 X24.419 Y96.970 E0.22385
G1 X24.799 Y98.805 E0.17039
G1 X25.226 Y100.643 E0.17160
G1 X25.702 Y102.482 E0.17277
G1 X26.226 Y104.322 E0.17390
G1 X26.798 Y106.159 E0.17499
G1 X27.420 Y107.993 E0.17604
G1 X28.091 Y109.820 E0.17704
G1 X28.812 Y111.640 E0.17799
G1 X29.582 Y113.450 E0.17890
G1 X30.402 Y115.249 E0.17975
G1 X31.272 Y117.034 E0.18053
G1 X32.172 Y118.769 E0.17772
G1 X33.111 Y120.474 E0.17700
G1 X34.097 Y122.160 E0.17759
G1 X35.128 Y123.826 E0.17814
G1 X36.203 Y125.470 E0.17864
G1 X37.322 Y127.090 E0.17908
G1 X38.485 Y128.685 E0.17946
G1 X39.690 Y130.253 E0.17979
G1 X40.937 Y131.791 E0.18005
G1 X42.223 Y133.299 E0.18027
G1 X43.549 Y134.775 E0.18042
G1 X44.913 Y136.218 E0.18051
G1 X46.314 Y137.625 E0.18055
G1 X47.750 Y138.996 E0.18052
G1 X49.220 Y140.329 E0.18044
G1 X50.722 Y141.623 E0.18030
G1 X52.255 Y142.877 E0.18010
G1 X53.818 Y144.090 E0.17984
G1 X55.408 Y145.261 E0.17952
G1 X57.023 Y146.388 E0.17915
G1 X58.663 Y147.472 E0.17872
G1 X60.325 Y148.511 E0.17824
G1 X62.008 Y149.505 E0.17770
G1 X63.709 Y150.453 E0.17711
G1 X65.428 Y151.354 E0.17646
G1 X67.161 Y152.210 E0.17576
G1 X68.908 Y153.018 E0.17502
G1 X70.666 Y153.780 E0.17422
G1 X72.434 Y154.495 E0.17338
G1 X74.209 Y155.163 E0.17249
G1 X75.991 Y155.784 E0.17156
G1 X77.777 Y156.358 E0.17059
G1 X79.565 Y156.886 E0.16957
G1 X81.355 Y157.368 E0.16852
G1 X83.143 Y157.805 E0.16742
G1 X84.930 Y158.196 E0.16629
G1 X86.713 Y158.544 E0.16516
G1 X88.585 Y158.862 E0.17271
G1 X90.461 Y159.134 E0.17236
G1 X92.336 Y159.359 E0.17175
G1 X94.205 Y159.538 E0.17072
G1 X96.057 Y159.670 E0.16883
G1 X97.872 Y159.757 E0.16518
G1 X100.663 Y159.807 E0.25389
G1 X102.605 Y159.782 E0.17655
G1 X104.449 Y159.715 E0.16783
G1 X106.366 Y159.598 E0.17457
G1 X108.231 Y159.438 E0.17020
G1 X110.037 Y159.240 E0.16522
G1 X111.852 Y158.997 E0.16654
G1 X113.676 Y158.710 E0.16786
G1 X115.506 Y158.376 E0.16914
G1 X117.341 Y157.996 E0.17039
G1 X119.179 Y157.569 E0.17160
G1 X121.018 Y157.093 E0.17277
G1 X122.858 Y156.569 E0.17390
G1 X124.695 Y155.997 E0.17499
G1 X126.528 Y155.375 E0.17604
G1 X128.356 Y154.704 E0.17704
G1 X130.176 Y153.983 E0.17799
G1 X131.986 Y153.213 E0.17889
G1 X133.785 Y152.393 E0.17975
G1 X135.570 Y151.523 E0.18053
G1 X137.305 Y150.623 E0.17772
G1 X139.009 Y149.683 E0.17700
G1 X140.696 Y148.698 E0.17759
G1 X142.362 Y147.667 E0.17814
G1 X144.006 Y146.592 E0.17864
G1 X145.626 Y145.473 E0.17908
G1 X147.221 Y144.310 E0.17946
G1 X148.788 Y143.105 E0.17979
G1 X150.327 Y141.858 E0.18005
G1 X151.835 Y140.571 E0.18027
G1 X153.311 Y139.245 E0.18042
G1 X154.753 Y137.881 E0.18051
G1 X156.161 Y136.481 E0.18055
G1 X157.532 Y135.045 E0.18052
G1 X158.865 Y133.575 E0.18044
G1 X160.159 Y132.073 E0.18030
G1 X161.413 Y130.540 E0.18010
G1 X162.626 Y128.977 E0.17984
G1 X163.796 Y127.387 E0.17952
G1 X164.924 Y125.772 E0.17915
G1 X166.008 Y124.132 E0.17872
G1 X167.047 Y122.470 E0.17824
G1 X168.040 Y120.787 E0.17770
G1 X168.988 Y119.086 E0.17711
G1 X169.890 Y117.367 E0.17646
G1 X170.746 Y115.634 E0.17576
G1 X171.554 Y113.887 E0.17502
G1 X172.316 Y112.129 E0.17422
G1 X173.031 Y110.361 E0.17338
G1 X173.699 Y108.586 E0.17249
G1 X174.320 Y106.804 E0.17156
G1 X174.894 Y105.018 E0.17059
G1 X175.422 Y103.230 E0.16957
G1 X175.904 Y101.440 E0.16852
G1 X176.341 Y99.652 E0.16742
G1 X176.732 Y97.865 E0.16629
G1 X177.079 Y96.082 E0.16516
G1 X177.342 Y94.540 E0.14223
G1 X177.690 Y94.575 E0.03183
G1 X177.427 Y101.525 E0.63241
G1 X177.133 Y107.614 E0.55432
G1 X176.845 Y112.765 E0.46906
G1 X176.484 Y118.380 E0.51165
G1 X176.076 Y123.992 E0.51162
G1 X175.623 Y129.586 E0.51033
G1 X175.400 Y131.561 E0.18079
G1 X175.096 Y133.721 E0.19829
G1 X174.746 Y135.779 E0.18980
G1 X174.338 Y137.830 E0.19020
G1 X173.873 Y139.873 E0.19048
G1 X173.352 Y141.900 E0.19033
G1 X172.774 Y143.913 E0.19048
G1 X172.140 Y145.911 E0.19055
G1 X171.451 Y147.890 E0.19055
G1 X170.708 Y149.848 E0.19047
G1 X169.910 Y151.783 E0.19033
G1 X169.061 Y153.694 E0.19011
G1 X168.160 Y155.577 E0.18981
G1 X167.209 Y157.431 E0.18945
G1 X166.210 Y159.253 E0.18901
G1 X165.165 Y161.040 E0.18825
G1 X164.210 Y162.559 E0.16313
G1 X163.170 Y164.082 E0.16769
G1 X162.137 Y165.485 E0.15841
G1 X160.986 Y166.935 E0.16830
G1 X160.725 Y167.320 E0.04232
G1 X160.515 Y167.811 E0.04857
G1 X160.406 Y168.302 E0.04569
G1 X160.398 Y168.958 E0.05968
G1 X160.496 Y169.455 E0.04602
G1 X160.700 Y169.959 E0.04949
G1 X160.980 Y170.390 E0.04671
G1 X161.286 Y170.719 E0.04087
G1 X161.739 Y171.061 E0.05167
G1 X162.233 Y171.295 E0.04965
G1 X162.771 Y171.430 E0.05047
G1 X163.315 Y171.456 E0.04948
G1 X163.658 Y171.404 E0.03161
G1 X163.783 Y171.639 E0.02417
G1 X162.856 Y172.642 E0.12415
G1 X161.585 Y173.960 E0.16657
G1 X160.283 Y175.253 E0.16679
G1 X158.953 Y176.519 E0.16698
G1 X157.595 Y177.757 E0.16712
G1 X156.209 Y178.966 E0.16723
G1 X154.797 Y180.146 E0.16730
G1 X153.360 Y181.295 E0.16733
G1 X151.899 Y182.413 E0.16732
G1 X150.414 Y183.499 E0.16728
G1 X148.907 Y184.553 E0.16719
G1 X147.378 Y185.573 E0.16707
G1 X145.830 Y186.559 E0.16691
G1 X144.263 Y187.510 E0.16671
G1 X142.678 Y188.427 E0.16647
G1 X141.077 Y189.307 E0.16619
G1 X139.460 Y190.152 E0.16588
G1 X137.829 Y190.961 E0.16553
G1 X136.185 Y191.732 E0.16514
G1 X134.529 Y192.467 E0.16472
G1 X132.863 Y193.165 E0.16427
G1 X131.191 Y193.824 E0.16335
G1 X127.160 Y195.273 E0.38954
G1 X124.425 Y196.090 E0.25953
G1 X122.711 Y196.567 E0.16176
G1 X121.005 Y197.003 E0.16014
G1 X119.298 Y197.403 E0.15943
G1 X117.591 Y197.766 E0.15868
G1 X115.885 Y198.092 E0.15791
G1 X114.182 Y198.382 E0.15712
G1 X112.482 Y198.637 E0.15630
G1 X110.787 Y198.856 E0.15545
G1 X109.097 Y199.040 E0.15455
G1 X107.323 Y199.198 E0.16194
G1 X105.552 Y199.317 E0.16138
G1 X103.793 Y199.400 E0.16018
G1 X102.071 Y199.446 E0.15656
G1 X100.667 Y199.457 E0.12774
G1 X99.048 Y199.441 E0.14722
G1 X97.217 Y199.388 E0.16657
G1 X95.424 Y199.296 E0.16323
G1 X93.653 Y199.169 E0.16148
G1 X91.935 Y199.010 E0.15685
G1 X90.211 Y198.816 E0.15779
G1 X88.481 Y198.585 E0.15869
G1 X86.746 Y198.317 E0.15957
G1 X85.009 Y198.012 E0.16042
G1 X83.269 Y197.669 E0.16124
G1 X81.528 Y197.288 E0.16203
G1 X79.787 Y196.870 E0.16279
G1 X78.050 Y196.413 E0.16334
G1 X74.059 Y195.252 E0.37794
G1 X74.059 Y195.225 E0.00241
G1 X71.128 Y194.195 E0.28249
G1 X69.416 Y193.544 E0.16658
G1 X67.711 Y192.853 E0.16724
G1 X66.034 Y192.132 E0.16604
G1 X64.383 Y191.380 E0.16492
G1 X62.745 Y190.591 E0.16533
G1 X61.120 Y189.766 E0.16570
G1 X59.511 Y188.904 E0.16603
G1 X57.917 Y188.007 E0.16633
G1 X56.340 Y187.074 E0.16659
G1 X54.781 Y186.107 E0.16681
G1 X53.242 Y185.105 E0.16699
G1 X51.723 Y184.069 E0.16713
G1 X50.227 Y183.000 E0.16724
G1 X48.752 Y181.899 E0.16731
G1 X47.302 Y180.767 E0.16734
G1 X45.876 Y179.603 E0.16733
G1 X44.477 Y178.409 E0.16728
G1 X43.103 Y177.187 E0.16719
G1 X41.758 Y175.936 E0.16706
G1 X40.441 Y174.657 E0.16690
G1 X39.153 Y173.352 E0.16670
