;FLAVOR:Marlin
;TIME:8759
;Filament used: 26.4961m
;Layer height: 0.5
;MINX:2.85
;MINY:0.638
;MINZ:0.32
;MAXX:231.626
;MAXY:241.316
;MAXZ:11.82
;Generated with Cura_SteamEngine 4.5.0
M140 S60
M105
M190 S60
M104 S220
M105
M109 S220
M82 ;absolute extrusion mode
; Ender 3 Custom Start G-code
G92 E0 ; Reset Extruder
G28 ; Home all axes
G1 Z2.0 F3000 ; Move Z Axis up little to prevent scratching of Heat Bed
G1 X0.1 Y20 Z0.3 F5000.0 ; Move to start position
G1 X0.1 Y200.0 Z0.3 F1500.0 E15 ; Draw the first line
G1 X0.4 Y200.0 Z0.3 F5000.0 ; Move to side a little
G1 X0.4 Y20 Z0.3 F1500.0 E30 ; Draw the second line
G92 E0 ; Reset Extruder
G1 Z2.0 F3000 ; Move Z Axis up little to prevent scratching of Heat Bed
G1 X5 Y20 Z0.3 F5000.0 ; Move over to prevent blob squish
G92 E0
G92 E0
G1 F2700 E-5
;LAYER_COUNT:24
;LAYER:0
M107
;MESH:RIGID-6IN-12MM-x3.stl
G0 F6000 X114.353 Y231.916 Z0.32
;TYPE:WALL-INNER
G1 F2700 E0
G1 F1200 X112.636 Y232.295 E0.23393
G1 X110.943 Y232.632 E0.46359
G1 X109.201 Y232.941 E0.69896
G1 X107.459 Y233.213 E0.93353
G1 X105.717 Y233.449 E1.1674
G1 X103.913 Y233.654 E1.40895
G1 X101.955 Y233.834 E1.67054
G1 X98.215 Y234.076 E2.16915
G1 X98.208 Y234.057 E2.17185
G1 X96.576 Y234.094 E2.38902
G1 X94.916 Y234.105 E2.60988
G1 X93.034 Y234.078 E2.86028
G1 X91.204 Y234.013 E3.1039
G1 X89.398 Y233.91 E3.34456
G1 X87.594 Y233.769 E3.5853
G1 X85.794 Y233.588 E3.82598
G1 X83.982 Y233.368 E4.06882
G1 X82.192 Y233.111 E4.30941
G1 X80.372 Y232.811 E4.55481
G1 X78.596 Y232.478 E4.7952
G1 X76.8 Y232.102 E5.03933
G1 X75.034 Y231.692 E5.28052
G1 X73.254 Y231.238 E5.52492
G1 X71.468 Y230.742 E5.77152
G1 X69.712 Y230.214 E6.01547
G1 X67.98 Y229.651 E6.25777
G1 X66.267 Y229.054 E6.49911
G1 X64.521 Y228.403 E6.74702
G1 X62.849 Y227.738 E6.98641
G1 X61.135 Y227.013 E7.234
G1 X59.494 Y226.277 E7.47328
G1 X57.815 Y225.481 E7.72048
G1 X56.791 Y224.969 E7.8728
G1 X56.705 Y224.926 E7.88559
G1 X56.49 Y224.818 E7.9176
G1 X56.173 Y224.659 E7.96478
G1 X56.68 Y224.436 E7.99517
G1 X57.094 Y224.147 E8.04703
G1 X57.167 Y224.084 E8.05917
G1 X57.253 Y224.011 E8.07417
G1 X57.52 Y223.732 E8.12555
G1 X57.637 Y223.586 E8.15044
G1 X57.841 Y223.279 E8.19948
G1 X57.933 Y223.107 E8.22543
G1 X58.081 Y222.758 E8.27586
G1 X58.147 Y222.553 E8.30452
G1 X58.249 Y222.033 E8.37502
G1 X58.26 Y221.5 E8.44594
G1 X58.149 Y220.864 E8.53183
G1 X57.957 Y220.369 E8.60247
G1 X57.855 Y220.179 E8.63116
G1 X57.64 Y219.85 E8.68345
G1 X57.507 Y219.684 E8.71175
G1 X57.15 Y219.326 E8.77901
G1 X56.815 Y219.087 E8.83376
G1 X55.256 Y218.131 E9.07706
G1 X53.686 Y217.085 E9.32804
G1 X52.226 Y216.031 E9.56761
G1 X50.872 Y214.979 E9.79573
G1 X49.344 Y213.712 E10.05981
G1 X47.733 Y212.299 E10.3449
G1 X46.211 Y210.888 E10.62101
G1 X44.725 Y209.432 E10.89779
G1 X43.278 Y207.93 E11.17526
G1 X41.868 Y206.387 E11.45335
G1 X40.515 Y204.818 E11.72898
G1 X39.189 Y203.192 E12.00812
G1 X37.924 Y201.549 E12.28398
G1 X36.682 Y199.84 E12.56505
G1 X35.504 Y198.12 E12.8424
G1 X34.383 Y196.383 E13.11744
G1 X33.314 Y194.617 E13.39208
G1 X32.29 Y192.821 E13.66713
G1 X31.268 Y190.9 E13.95662
G1 X30.376 Y189.108 E14.22293
G1 X28.036 Y184.008 E14.96945
G1 X25.733 Y178.868 E15.71878
G1 X23.472 Y173.711 E16.46792
G1 X21.254 Y168.538 E17.21673
G1 X19.354 Y164.006 E17.87051
G1 X19.081 Y163.353 E17.96467
G1 X18.802 Y162.67 E18.06283
G1 X18.099 Y160.948 E18.31028
G1 X17.397 Y159.23 E18.55719
G1 X17.276 Y158.935 E18.59961
G1 X17.438 Y159.212 E18.60068
G1 X18.428 Y160.813 E18.65277
G1 X19.462 Y162.4 E18.78905
G1 X19.784 Y162.869 E18.84602
G1 X20.185 Y163.452 E18.93332
G1 X20.543 Y163.973 E19.01742
G1 X21.669 Y165.528 E19.27284
G1 X22.84 Y167.066 E19.53001
G1 X24.057 Y168.583 E19.78875
G1 X25.318 Y170.076 E20.04875
G1 X26.623 Y171.546 E20.31027
G1 X27.972 Y172.99 E20.57317
G1 X29.363 Y174.405 E20.83715
G1 X30.796 Y175.791 E21.10238
G1 X32.242 Y177.119 E21.36358
G1 X33.713 Y178.405 E21.62352
G1 X35.223 Y179.659 E21.88465
G1 X36.768 Y180.876 E22.14631
G1 X38.347 Y182.058 E22.40872
G1 X39.96 Y183.202 E22.67181
G1 X41.605 Y184.308 E22.93553
G1 X43.28 Y185.373 E23.1996
G1 X44.985 Y186.397 E23.4642
G1 X46.717 Y187.377 E23.72895
G1 X48.475 Y188.315 E23.99405
G1 X50.258 Y189.208 E24.25935
G1 X52.063 Y190.055 E24.52461
G1 X53.888 Y190.856 E24.78977
G1 X55.734 Y191.608 E25.05496
G1 X57.596 Y192.314 E25.31989
G1 X59.473 Y192.97 E25.58441
G1 X61.364 Y193.578 E25.84868
G1 X63.265 Y194.137 E26.1123
G1 X65.178 Y194.647 E26.37569
G1 X67.098 Y195.106 E26.63833
G1 X69.022 Y195.515 E26.90002
G1 X70.953 Y195.875 E27.16135
G1 X72.883 Y196.185 E27.4214
G1 X74.814 Y196.446 E27.68064
G1 X76.744 Y196.658 E27.93895
G1 X78.67 Y196.822 E28.19612
G1 X80.59 Y196.935 E28.452
G1 X82.504 Y197.003 E28.7068
G1 X84.408 Y197.023 E28.96012
G1 X86.303 Y196.998 E29.21225
G1 X88.186 Y196.926 E29.46295
G1 X90.054 Y196.81 E29.71195
G1 X91.859 Y196.656 E29.95296
G1 X93.697 Y196.454 E30.19896
G1 X95.517 Y196.212 E30.44323
G1 X97.321 Y195.928 E30.68619
G1 X99.245 Y195.577 E30.94638
G1 X101.108 Y195.189 E31.19956
G1 X102.955 Y194.758 E31.45188
G1 X104.78 Y194.284 E31.70274
G1 X106.574 Y193.772 E31.95094
G1 X108.405 Y193.201 E32.20611
G1 X110.073 Y192.639 E32.44028
G1 X110.95 Y192.327 E32.56412
G1 X112.785 Y191.632 E32.82517
G1 X114.507 Y190.933 E33.07242
G1 X116.276 Y190.164 E33.32905
G1 X117.981 Y189.373 E33.5791
G1 X119.572 Y188.588 E33.81513
G1 X121.202 Y187.737 E34.05977
G1 X122.825 Y186.841 E34.30641
G1 X124.481 Y185.873 E34.5616
G1 X126.082 Y184.883 E34.81203
G1 X127.669 Y183.849 E35.06403
G1 X129.243 Y182.768 E35.31807
G1 X130.797 Y181.642 E35.57338
G1 X132.335 Y180.471 E35.83055
G1 X133.851 Y179.254 E36.08919
G1 X135.346 Y177.993 E36.34939
G1 X136.815 Y176.688 E36.61081
G1 X138.259 Y175.34 E36.87362
G1 X139.674 Y173.948 E37.13769
G1 X141.06 Y172.515 E37.40292
G1 X142.388 Y171.069 E37.66412
G1 X143.674 Y169.598 E37.92406
G1 X144.927 Y168.089 E38.18501
G1 X146.145 Y166.544 E38.44675
G1 X147.327 Y164.965 E38.70916
G1 X148.472 Y163.351 E38.97243
G1 X149.577 Y161.706 E39.23608
G1 X150.642 Y160.031 E39.50015
G1 X151.666 Y158.326 E39.76475
G1 X152.647 Y156.594 E40.02957
G1 X153.584 Y154.836 E40.2946
G1 X154.477 Y153.053 E40.5599
G1 X155.324 Y151.248 E40.82516
G1 X156.124 Y149.423 E41.09027
G1 X156.878 Y147.577 E41.35556
G1 X157.583 Y145.715 E41.62044
G1 X158.239 Y143.838 E41.88497
G1 X158.848 Y141.947 E42.14927
G1 X159.406 Y140.046 E42.41285
G1 X159.916 Y138.134 E42.67612
G1 X160.375 Y136.213 E42.93889
G1 X160.784 Y134.289 E43.20058
G1 X161.144 Y132.359 E43.46177
G1 X161.454 Y130.428 E43.72196
G1 X161.715 Y128.498 E43.98107
G1 X161.927 Y126.567 E44.23951
G1 X162.09 Y124.641 E44.49667
G1 X162.205 Y122.721 E44.75256
G1 X162.273 Y120.807 E45.00736
G1 X162.293 Y118.902 E45.26082
G1 X162.267 Y117.008 E45.51282
G1 X162.195 Y115.125 E45.76352
G1 X162.079 Y113.257 E46.01252
G1 X161.967 Y111.946 E46.18757
G1 X161.925 Y111.452 E46.25353
G1 X161.896 Y111.18 E46.28992
G1 X161.723 Y109.614 E46.49953
G1 X161.481 Y107.794 E46.74379
G1 X161.277 Y106.495 E46.91873
G1 X161.672 Y107.732 E46.93549
G1 X162.223 Y109.454 E47.02545
G1 X162.745 Y111.086 E47.18585
G1 X162.776 Y111.187 E47.19671
G1 X162.923 Y111.66 E47.25906
G1 X164.415 Y116.455 E47.92716
G1 X166.041 Y121.84 E48.67553
G1 X167.62 Y127.237 E49.42365
G1 X169.196 Y132.793 E50.19198
G1 X170.642 Y138.051 E50.91748
G1 X171.109 Y139.989 E51.18269
G1 X171.547 Y142.057 E51.46393
G1 X171.929 Y144.143 E51.74606
G1 X172.242 Y146.159 E52.01749
G1 X172.502 Y148.231 E52.29531
G1 X172.706 Y150.304 E52.57243
G1 X172.854 Y152.413 E52.85371
G1 X172.942 Y154.483 E53.12935
G1 X172.972 Y156.557 E53.4053
G1 X172.945 Y158.664 E53.68564
G1 X172.86 Y160.724 E53.95994
G1 X172.715 Y162.828 E54.24052
G1 X172.516 Y164.883 E54.5152
G1 X172.262 Y166.925 E54.78896
G1 X171.934 Y169.044 E55.07423
G1 X171.574 Y171.027 E55.34236
G1 X171.19 Y172.81 E55.58501
G1 X170.749 Y174.539 E55.8224
G1 X170.248 Y176.245 E56.05896
G1 X169.652 Y178.035 E56.30995
G1 X169.537 Y178.527 E56.37717
G1 X169.513 Y178.974 E56.43673
G1 X169.519 Y179.172 E56.46308
G1 X169.583 Y179.649 E56.52711
G1 X169.792 Y180.268 E56.61403
G1 X170.057 Y180.717 E56.68339
G1 X170.181 Y180.884 E56.71107
G1 X170.488 Y181.227 E56.77231
G1 X170.973 Y181.604 E56.85403
G1 X171.448 Y181.843 E56.92478
G1 X172.031 Y182.022 E57.00591
G1 X172.533 Y182.07 E57.073
G1 X172.649 Y182.07 E57.08844
G1 X172.739 Y182.07 E57.10041
G1 X173.212 Y182.023 E57.16365
G1 X173.727 Y181.87 E57.23512
G1 X173.596 Y182.183 E57.2383
G1 X173.508 Y182.392 E57.24062
G1 X173.395 Y182.661 E57.26003
G1 X173.359 Y182.743 E57.27194
G1 X172.65 Y184.338 E57.50416
G1 X171.876 Y185.982 E57.74591
G1 X171.053 Y187.639 E57.99205
G1 X170.213 Y189.243 E58.23294
G1 X169.324 Y190.856 E58.47797
G1 X168.399 Y192.45 E58.72315
G1 X167.45 Y194.008 E58.96586
G1 X166.47 Y195.543 E59.20815
G1 X165.438 Y197.083 E59.45478
G1 X164.399 Y198.565 E59.69557
G1 X163.303 Y200.057 E59.94187
G1 X162.202 Y201.492 E60.1825
G1 X161.04 Y202.941 E60.42961
G1 X159.889 Y204.316 E60.66817
G1 X158.675 Y205.701 E60.9132
G1 X157.464 Y207.027 E61.15211
G1 X156.199 Y208.353 E61.39592
G1 X154.929 Y209.63 E61.63553
G1 X153.617 Y210.894 E61.8779
G1 X152.304 Y212.108 E62.11581
G1 X150.812 Y213.423 E62.3804
G1 X147.677 Y216.028 E62.92268
G1 X145.415 Y217.711 E63.29778
G1 X143.964 Y218.747 E63.53497
G1 X142.539 Y219.72 E63.76454
G1 X141.104 Y220.661 E63.99284
G1 X139.603 Y221.599 E64.22832
G1 X138.143 Y222.472 E64.45463
G1 X136.65 Y223.325 E64.68339
G1 X135.145 Y224.143 E64.91128
G1 X133.623 Y224.932 E65.13936
G1 X132.099 Y225.684 E65.36545
G1 X130.482 Y226.441 E65.60299
G1 X128.894 Y227.145 E65.83409
G1 X127.124 Y227.884 E66.08927
G1 X125.623 Y228.476 E66.30393
G1 X124.341 Y228.955 E66.48601
G1 X122.711 Y229.53 E66.71596
G1 X121.04 Y230.081 E66.95005
G1 X119.408 Y230.583 E67.17721
G1 X117.686 Y231.074 E67.41543
G1 X116.032 Y231.509 E67.64297
G1 X114.353 Y231.916 E67.87281
G0 F6000 X114.423 Y232.311
G0 X114.568 Y232.893
;TYPE:WALL-OUTER
G1 F1200 X112.85 Y233.272 E68.10687
G1 X111.118 Y233.617 E68.34182
G1 X109.376 Y233.926 E68.5772
G1 X107.599 Y234.203 E68.81647
G1 X105.83 Y234.443 E69.05397
G1 X104.027 Y234.648 E69.29539
G1 X102.034 Y234.831 E69.56165
G1 X98.931 Y235.032 E69.97534
G1 X100.4 Y239.075 E70.54763
G1 X99.138 Y239.534 E70.72629
G1 X97.514 Y235.073 E71.35789
G1 X96.599 Y235.094 E71.47965
G1 X94.909 Y235.105 E71.70449
G1 X93.02 Y235.078 E71.95583
G1 X91.157 Y235.012 E72.20384
G1 X89.32 Y234.907 E72.44864
G1 X87.507 Y234.765 E72.69058
G1 X85.673 Y234.581 E72.9358
G1 X83.861 Y234.361 E73.17864
G1 X82.028 Y234.098 E73.425
G1 X80.209 Y233.798 E73.67027
G1 X78.394 Y233.458 E73.91594
G1 X76.595 Y233.081 E74.16048
G1 X74.792 Y232.662 E74.40674
G1 X72.986 Y232.202 E74.65468
G1 X71.2 Y231.706 E74.90129
G1 X69.424 Y231.172 E75.14802
G1 X67.671 Y230.602 E75.39326
G1 X65.919 Y229.991 E75.64011
G1 X64.172 Y229.34 E75.88815
G1 X62.459 Y228.659 E76.13339
G1 X60.745 Y227.934 E76.38098
G1 X59.066 Y227.181 E76.6258
G1 X57.387 Y226.385 E76.873
G1 X55.737 Y225.559 E77.11849
G1 X54.118 Y224.704 E77.36207
G1 X52.502 Y223.806 E77.60803
G1 X50.917 Y222.881 E77.85218
G1 X49.365 Y221.93 E78.09434
G1 X47.862 Y220.965 E78.33197
G1 X46.31 Y219.922 E78.58074
G1 X44.826 Y218.878 E78.82214
G1 X43.368 Y217.806 E79.0629
G1 X41.986 Y216.744 E79.29478
G1 X40.576 Y215.614 E79.53517
G1 X39.211 Y214.474 E79.77178
G1 X37.859 Y213.295 E80.01043
G1 X36.553 Y212.109 E80.24514
G1 X35.262 Y210.888 E80.48154
G1 X33.893 Y209.535 E80.73761
G1 X32.075 Y207.645 E81.08651
G1 X27.546 Y209.293 E81.7277
G1 X27.085 Y208.031 E81.90645
G1 X31.091 Y206.572 E82.47365
G1 X30.339 Y205.718 E82.62504
G1 X29.288 Y204.496 E82.83947
G1 X28.233 Y203.22 E83.05974
G1 X27.023 Y201.694 E83.31884
G1 X25.948 Y200.277 E83.55547
G1 X25.128 Y199.146 E83.74133
G1 X25.962 Y198.596 E83.87424
G1 X27.017 Y200.039 E84.11205
G1 X28.619 Y202.107 E84.46007
G1 X30.243 Y204.077 E84.79974
G1 X31.953 Y206.027 E85.14479
G1 X33.719 Y207.923 E85.4895
G1 X35.544 Y209.766 E85.83457
G1 X37.425 Y211.553 E86.17975
G1 X39.359 Y213.283 E86.52497
G1 X41.345 Y214.952 E86.8701
G1 X43.378 Y216.558 E87.21478
G1 X45.456 Y218.099 E87.55896
G1 X47.577 Y219.574 E87.90267
G1 X49.735 Y220.98 E88.24533
G1 X51.989 Y222.354 E88.59653
G1 X54.213 Y223.617 E88.93679
G1 X54.524 Y223.737 E88.98114
G1 X54.631 Y223.768 E88.99596
G1 X55.01 Y223.829 E89.04703
G1 X55.361 Y223.823 E89.09374
G1 X55.803 Y223.729 E89.15386
G1 X56.188 Y223.56 E89.20979
G1 X56.482 Y223.355 E89.25748
G1 X56.565 Y223.284 E89.27201
G1 X56.766 Y223.074 E89.31068
G1 X56.828 Y222.996 E89.32394
G1 X56.982 Y222.765 E89.36087
G1 X57.03 Y222.675 E89.37444
G1 X57.143 Y222.409 E89.41289
G1 X57.177 Y222.303 E89.4277
G1 X57.251 Y221.926 E89.47882
G1 X57.258 Y221.576 E89.52539
G1 X57.181 Y221.133 E89.58521
G1 X57.047 Y220.788 E89.63445
G1 X56.994 Y220.689 E89.64939
G1 X56.83 Y220.438 E89.68928
G1 X56.761 Y220.352 E89.70395
G1 X56.501 Y220.091 E89.75296
G1 X56.263 Y219.921 E89.79187
G1 X54.715 Y218.973 E90.03337
G1 X53.119 Y217.909 E90.28856
G1 X51.631 Y216.835 E90.53271
G1 X50.241 Y215.754 E90.76697
G1 X48.706 Y214.482 E91.0322
G1 X47.065 Y213.043 E91.32257
G1 X45.52 Y211.61 E91.60292
G1 X44.012 Y210.133 E91.88374
G1 X42.546 Y208.611 E92.16488
G1 X41.13 Y207.062 E92.44409
G1 X39.742 Y205.452 E92.7269
G1 X38.414 Y203.824 E93.00641
G1 X37.115 Y202.137 E93.28968
G1 X35.873 Y200.428 E93.57074
G1 X34.679 Y198.685 E93.85182
G1 X33.543 Y196.925 E94.13051
G1 X32.445 Y195.112 E94.4125
G1 X31.411 Y193.298 E94.69029
G1 X30.385 Y191.37 E94.98085
G1 X29.472 Y189.536 E95.25341
G1 X27.127 Y184.425 E96.00153
G1 X24.82 Y179.277 E96.75205
G1 X22.556 Y174.113 E97.5022
G1 X20.335 Y168.932 E98.25215
G1 X18.156 Y163.731 E99.00237
G1 X15.909 Y158.234 E99.79243
G1 X13.765 Y152.857 E100.56256
G1 X11.774 Y147.743 E101.29267
G1 X9.827 Y142.617 E102.02218
G1 X7.815 Y137.184 E102.79296
G1 X5.258 Y130.057 E103.80032
G1 X6.233 Y129.703 E103.93832
G1 X11.932 Y145.36 E106.15503
G1 X12.604 Y147.138 E106.40791
G1 X13.31 Y148.874 E106.65723
G1 X14.059 Y150.597 E106.90719
G1 X14.862 Y152.323 E107.16045
G1 X15.637 Y153.894 E107.3935
G1 X16.456 Y155.46 E107.62862
G1 X17.34 Y157.062 E107.87204
G1 X18.295 Y158.697 E108.12395
G1 X19.272 Y160.277 E108.3711
G1 X20.293 Y161.844 E108.61992
G1 X21.36 Y163.396 E108.87049
G1 X22.472 Y164.932 E109.12277
G1 X23.628 Y166.45 E109.37662
G1 X24.829 Y167.947 E109.63195
G1 X26.074 Y169.421 E109.88864
G1 X27.362 Y170.873 E110.14687
G1 X28.694 Y172.298 E110.40638
G1 X30.067 Y173.695 E110.66697
G1 X31.482 Y175.063 E110.92882
G1 X32.909 Y176.374 E111.18662
G1 X34.362 Y177.644 E111.44336
G1 X35.852 Y178.881 E111.701
G1 X37.377 Y180.083 E111.95934
G1 X38.936 Y181.25 E112.21842
G1 X40.528 Y182.379 E112.47807
G1 X42.152 Y183.471 E112.73843
G1 X43.806 Y184.522 E112.99915
G1 X45.489 Y185.533 E113.26035
G1 X47.199 Y186.501 E113.52177
G1 X48.934 Y187.427 E113.78342
G1 X50.694 Y188.308 E114.04526
G1 X52.476 Y189.144 E114.30714
G1 X54.278 Y189.935 E114.56895
G1 X56.1 Y190.677 E114.83068
G1 X57.938 Y191.374 E115.0922
G1 X59.791 Y192.022 E115.35337
G1 X61.658 Y192.622 E115.61427
G1 X63.535 Y193.174 E115.87456
G1 X65.423 Y193.677 E116.1345
G1 X67.318 Y194.13 E116.39372
G1 X69.218 Y194.534 E116.65214
G1 X71.124 Y194.89 E116.9101
G1 X73.029 Y195.196 E117.1668
G1 X74.936 Y195.453 E117.4228
G1 X76.841 Y195.663 E117.67777
G1 X78.742 Y195.824 E117.93159
G1 X80.637 Y195.936 E118.18414
G1 X82.527 Y196.003 E118.43575
G1 X84.407 Y196.023 E118.68588
G1 X86.277 Y195.998 E118.93468
G1 X88.136 Y195.927 E119.18219
G1 X89.981 Y195.813 E119.42812
G1 X91.762 Y195.661 E119.66592
G1 X93.576 Y195.461 E119.90872
G1 X95.373 Y195.222 E120.1499
G1 X97.153 Y194.942 E120.38962
G1 X99.053 Y194.595 E120.64658
G1 X100.893 Y194.212 E120.89662
G1 X102.716 Y193.787 E121.14566
G1 X104.517 Y193.319 E121.39322
G1 X106.288 Y192.814 E121.63823
G1 X108.096 Y192.25 E121.8902
G1 X109.746 Y191.694 E122.12184
G1 X110.605 Y191.388 E122.24316
G1 X112.42 Y190.701 E122.50135
G1 X114.12 Y190.011 E122.74544
G1 X115.866 Y189.252 E122.99872
G1 X117.549 Y188.471 E123.24556
G1 X119.119 Y187.696 E123.4785
G1 X120.729 Y186.856 E123.7201
G1 X122.331 Y185.971 E123.96359
