;FLAVOR:Marlin
;TIME:12405
;Filament used: 36.3372m
;Layer height: 0.5
;MINX:1.419
;MINY:5.667
;MINZ:0.32
;MAXX:233.58
;MAXY:236.334
;MAXZ:14.82
;Generated with Cura_SteamEngine 4.5.0
M140 S60
M105
M190 S60
M104 S220
M105
M109 S220
M82 ;absolute extrusion mode
; Ender 3 Custom Start G-code
G92 E0 ; Reset Extruder
G28 ; Home all axes
G1 Z2.0 F3000 ; Move Z Axis up little to prevent scratching of Heat Bed
G1 X0.1 Y20 Z0.3 F5000.0 ; Move to start position
G1 X0.1 Y200.0 Z0.3 F1500.0 E15 ; Draw the first line
G1 X0.4 Y200.0 Z0.3 F5000.0 ; Move to side a little
G1 X0.4 Y20 Z0.3 F1500.0 E30 ; Draw the second line
G92 E0 ; Reset Extruder
G1 Z2.0 F3000 ; Move Z Axis up little to prevent scratching of Heat Bed
G1 X5 Y20 Z0.3 F5000.0 ; Move over to prevent blob squish
G92 E0
G92 E0
G1 F2700 E-5
;LAYER_COUNT:30
;LAYER:0
M107
;MESH:CE3_Faceshield_V8_ender3-x3 (1).stl
G0 F6000 X112.611 Y230.454 Z0.32
;TYPE:WALL-INNER
G1 F2700 E0
G1 F1200 X109.446 Y229.713 E0.43246
G1 X107.29 Y229.147 E0.72901
G1 X105.131 Y228.51 E1.02849
G1 X102.957 Y227.801 E1.33271
G1 X100.789 Y227.022 E1.6392
G1 X98.65 Y226.185 E1.94478
G1 X96.514 Y225.279 E2.25346
G1 X94.365 Y224.295 E2.56792
G1 X92.204 Y223.234 E2.8882
G1 X90.065 Y222.11 E3.20967
G1 X87.903 Y220.9 E3.53929
G1 X85.789 Y219.642 E3.86657
G1 X83.743 Y218.349 E4.18857
G1 X81.743 Y217.009 E4.50885
G1 X79.807 Y215.632 E4.82492
G1 X77.965 Y214.243 E5.13185
G1 X76.149 Y212.79 E5.44126
G1 X74.404 Y211.312 E5.7455
G1 X72.698 Y209.781 E6.05047
G1 X71.081 Y208.242 E6.34745
G1 X69.364 Y206.504 E6.67248
G1 X67.298 Y204.294 E7.07497
G1 X67.302 Y204.287 E7.07604
G1 X66.407 Y203.236 E7.2597
G1 X65.023 Y201.57 E7.54785
G1 X63.654 Y199.821 E7.84334
G1 X62.299 Y197.98 E8.14746
G1 X61.008 Y196.116 E8.44912
G1 X59.773 Y194.217 E8.75049
G1 X58.584 Y192.269 E9.05411
G1 X57.439 Y190.267 E9.36094
G1 X56.322 Y188.181 E9.67575
G1 X55.282 Y186.101 E9.98514
G1 X54.269 Y183.923 E10.30471
G1 X53.318 Y181.723 E10.62357
G1 X52.428 Y179.501 E10.94202
G1 X51.573 Y177.189 E11.26997
G1 X50.786 Y174.873 E11.59539
G1 X50.05 Y172.498 E11.92619
G1 X49.385 Y170.14 E12.25214
G1 X48.76 Y167.683 E12.58943
G1 X48.213 Y165.27 E12.9186
G1 X47.746 Y162.933 E13.23566
G1 X47.739 Y162.898 E13.24041
G1 X47.72 Y162.806 E13.25291
G1 X47.703 Y162.705 E13.26653
G1 X47.676 Y162.549 E13.2876
G1 X47.647 Y162.385 E13.30975
G1 X47.615 Y162.205 E13.33408
G1 X47.814 Y162.355 E13.34273
G1 X47.942 Y162.431 E13.3478
G1 X48.034 Y162.486 E13.35091
G1 X48.292 Y162.604 E13.37497
G1 X48.667 Y162.712 E13.42023
G1 X48.702 Y162.716 E13.42482
G1 X48.948 Y162.745 E13.45777
G1 X49.176 Y162.75 E13.48811
G1 X49.413 Y162.734 E13.51971
G1 X49.65 Y162.691 E13.55176
G1 X49.825 Y162.641 E13.57597
G1 X50.017 Y162.571 E13.60316
G1 X50.218 Y162.476 E13.63274
G1 X50.407 Y162.364 E13.66197
G1 X50.598 Y162.225 E13.69339
G1 X50.762 Y162.077 E13.72278
G1 X50.907 Y161.925 E13.75073
G1 X51.075 Y161.714 E13.78661
G1 X51.287 Y161.346 E13.84312
G1 X51.422 Y160.995 E13.89315
G1 X51.497 Y160.717 E13.93146
G1 X51.548 Y160.419 E13.97168
G1 X51.57 Y160.215 E13.99898
G1 X51.585 Y159.969 E14.03177
G1 X51.591 Y159.679 E14.07036
G1 X51.586 Y159.304 E14.12025
G1 X51.549 Y158.519 E14.2248
G1 X51.439 Y156.443 E14.50138
G1 X51.391 Y155.013 E14.69174
G1 X51.37 Y153.299 E14.91979
G1 X51.392 Y151.439 E15.16726
G1 X51.462 Y149.523 E15.42233
G1 X51.584 Y147.531 E15.68785
G1 X51.762 Y145.466 E15.9636
G1 X51.996 Y143.353 E16.24643
G1 X52.3 Y141.115 E16.54691
G1 X52.642 Y138.997 E16.83234
G1 X53.048 Y136.82 E17.12696
G1 X53.491 Y134.726 E17.41171
G1 X53.995 Y132.61 E17.7011
G1 X54.557 Y130.487 E17.99328
G1 X55.166 Y128.399 E18.28264
G1 X55.824 Y126.344 E18.56971
G1 X56.554 Y124.253 E18.86436
G1 X57.363 Y122.111 E19.16898
G1 X58.247 Y119.944 E19.48035
G1 X59.224 Y117.712 E19.8045
G1 X60.329 Y115.345 E20.15203
G1 X61.681 Y112.624 E20.55626
G1 X63.085 Y109.94 E20.95924
G1 X64.674 Y107.01 E21.40268
G1 X64.682 Y106.939 E21.41219
G1 X66.473 Y103.746 E21.89925
G1 X66.485 Y103.751 E21.90098
G1 X67.214 Y102.489 E22.09488
G1 X71.079 Y95.709 E23.13316
G1 X71.129 Y95.641 E23.14439
G1 X72.242 Y93.71 E23.44091
G1 X72.504 Y93.255 E23.51076
G1 X73.618 Y91.323 E23.80747
G1 X74.771 Y89.323 E24.1146
G1 X75.945 Y87.286 E24.42739
G1 X74.994 Y89.451 E24.46901
G1 X74.105 Y91.603 E24.59701
G1 X73.289 Y93.707 E24.818
G1 X73.112 Y94.201 E24.88453
G1 X72.493 Y95.927 E25.12848
G1 X71.816 Y97.968 E25.41457
G1 X71.202 Y99.987 E25.69532
G1 X70.646 Y101.989 E25.97175
G1 X70.15 Y103.974 E26.24395
G1 X69.712 Y105.945 E26.51257
G1 X69.33 Y107.901 E26.77772
G1 X69.005 Y109.844 E27.03981
G1 X68.71 Y111.986 E27.32747
G1 X68.484 Y114.114 E27.61217
G1 X68.325 Y116.225 E27.89382
G1 X68.231 Y118.328 E28.17388
G1 X68.204 Y120.424 E28.45276
G1 X68.241 Y122.519 E28.73152
G1 X68.345 Y124.613 E29.01045
G1 X68.512 Y126.712 E29.29058
G1 X68.746 Y128.817 E29.57236
G1 X69.044 Y130.927 E29.85586
G1 X69.41 Y133.045 E30.14182
G1 X69.843 Y135.172 E30.4306
G1 X70.343 Y137.306 E30.7222
G1 X70.912 Y139.449 E31.01718
G1 X71.549 Y141.6 E31.31563
G1 X72.254 Y143.749 E31.61653
G1 X73.032 Y145.911 E31.92222
G1 X73.879 Y148.074 E32.23126
G1 X74.795 Y150.236 E32.54365
G1 X75.778 Y152.385 E32.85804
G1 X76.824 Y154.515 E33.17375
G1 X77.929 Y156.611 E33.48898
G1 X79.086 Y158.665 E33.80261
G1 X80.293 Y160.667 E34.11362
G1 X81.543 Y162.611 E34.42111
G1 X82.835 Y164.492 E34.7247
G1 X84.166 Y166.312 E35.02468
G1 X85.539 Y168.068 E35.32123
G1 X86.95 Y169.763 E35.61464
G1 X88.405 Y171.403 E35.90632
G1 X89.905 Y172.99 E36.19684
G1 X91.458 Y174.531 E36.48791
G1 X93.068 Y176.029 E36.78048
G1 X94.739 Y177.492 E37.07596
G1 X96.482 Y178.927 E37.37632
G1 X98.304 Y180.336 E37.68275
G1 X100.213 Y181.726 E37.99692
G1 X102.22 Y183.103 E38.32073
G1 X104.339 Y184.474 E38.65651
G1 X106.576 Y185.84 E39.00522
G1 X107.754 Y186.53 E39.18685
G1 X108.94 Y187.206 E39.36846
G1 X111.242 Y188.46 E39.71721
G1 X113.489 Y189.609 E40.05297
G1 X115.685 Y190.659 E40.37681
G1 X117.844 Y191.618 E40.6911
G1 X119.975 Y192.491 E40.99748
G1 X122.088 Y193.283 E41.2977
G1 X124.191 Y194 E41.59329
G1 X126.294 Y194.643 E41.88586
G1 X128.405 Y195.217 E42.17691
G1 X130.531 Y195.723 E42.46765
G1 X132.677 Y196.164 E42.75913
G1 X134.852 Y196.538 E43.05274
G1 X137.057 Y196.847 E43.34896
G1 X139.298 Y197.093 E43.64889
G1 X141.575 Y197.27 E43.95274
G1 X143.883 Y197.382 E44.26016
G1 X146.221 Y197.425 E44.57126
G1 X148.578 Y197.401 E44.88485
G1 X150.945 Y197.309 E45.2
G1 X153.312 Y197.15 E45.51561
G1 X155.666 Y196.926 E45.8302
G1 X157.996 Y196.639 E46.14253
G1 X160.293 Y196.291 E46.45161
G1 X162.555 Y195.884 E46.75738
G1 X164.767 Y195.42 E47.05807
G1 X166.949 Y194.897 E47.35659
G1 X169.089 Y194.318 E47.65153
G1 X171.188 Y193.683 E47.94329
G1 X173.245 Y192.996 E48.23181
G1 X175.263 Y192.253 E48.5179
G1 X177.241 Y191.456 E48.80162
G1 X179.179 Y190.606 E49.08316
G1 X181.08 Y189.701 E49.36327
G1 X182.946 Y188.742 E49.64239
G1 X184.779 Y187.728 E49.92108
G1 X186.58 Y186.656 E50.19992
G1 X188.354 Y185.525 E50.47982
G1 X190.103 Y184.331 E50.76155
G1 X191.833 Y183.072 E51.04621
G1 X193.541 Y181.744 E51.33405
G1 X195.061 Y180.492 E51.59604
G1 X196.564 Y179.184 E51.86111
G1 X198.052 Y177.819 E52.12976
G1 X199.523 Y176.396 E52.40204
G1 X200.979 Y174.914 E52.67844
G1 X202.42 Y173.372 E52.95923
G1 X203.85 Y171.766 E53.24531
G1 X205.037 Y170.363 E53.48981
G1 X205.373 Y169.966 E53.55901
G1 X206.788 Y168.208 E53.85924
G1 X208.208 Y166.361 E54.16919
G1 X209.609 Y164.452 E54.48422
G1 X208.431 Y166.489 E54.52403
G1 X207.275 Y168.489 E54.65217
G1 X206.158 Y170.419 E54.87208
G1 X205.898 Y170.87 E54.93813
G1 X204.729 Y172.889 E55.24851
G1 X200.745 Y179.723 E56.30093
G1 X198.025 Y184.298 E57.00904
G1 X196.233 Y187.221 E57.46518
G1 X194.697 Y189.634 E57.84573
G1 X193.136 Y191.979 E58.22051
G1 X191.632 Y194.129 E58.56958
G1 X190.182 Y196.1 E58.89512
G1 X188.746 Y197.951 E59.2068
G1 X187.304 Y199.713 E59.50971
G1 X185.851 Y201.399 E59.80582
G1 X184.399 Y202.998 E60.09317
G1 X182.881 Y204.586 E60.38544
G1 X181.338 Y206.119 E60.67481
G1 X179.777 Y207.596 E60.96072
G1 X178.139 Y209.068 E61.2537
G1 X176.485 Y210.484 E61.54338
G1 X174.8 Y211.856 E61.83247
G1 X173.047 Y213.214 E62.12748
G1 X171.337 Y214.472 E62.40991
G1 X169.644 Y215.654 E62.68461
G1 X167.959 Y216.77 E62.95349
G1 X166.314 Y217.803 E63.21192
G1 X164.756 Y218.727 E63.45291
G1 X163.241 Y219.578 E63.68408
G1 X161.959 Y220.261 E63.87734
G1 X159.419 Y221.559 E64.25683
G1 X159.092 Y221.743 E64.30675
G1 X158.842 Y221.892 E64.34547
G1 X158.623 Y222.038 E64.38048
G1 X158.341 Y222.252 E64.42758
G1 X158.034 Y222.544 E64.48395
G1 X157.771 Y222.885 E64.54124
G1 X157.672 Y223.046 E64.56638
G1 X157.572 Y223.244 E64.5959
G1 X157.488 Y223.455 E64.62611
G1 X157.427 Y223.662 E64.65482
G1 X157.381 Y223.882 E64.68472
G1 X157.359 Y224.097 E64.71348
G1 X157.352 Y224.325 E64.74382
G1 X157.373 Y224.562 E64.77548
G1 X157.417 Y224.804 E64.8082
G1 X157.489 Y225.043 E64.84141
G1 X157.582 Y225.262 E64.87306
G1 X157.694 Y225.47 E64.90449
G1 X157.832 Y225.671 E64.93693
G1 X157.926 Y225.782 E64.95628
G1 X157.988 Y225.856 E64.96912
G1 X158.138 Y226.001 E64.99688
G1 X158.328 Y226.154 E65.02933
G1 X158.545 Y226.292 E65.06355
G1 X158.781 Y226.408 E65.09853
G1 X158.895 Y226.448 E65.11461
G1 X158.808 Y226.479
G1 X158.637 Y226.542 E65.1162
G1 X158.49 Y226.596 E65.11771
G1 X158.373 Y226.639 E65.11906
G1 X158.306 Y226.664
G1 X158.266 Y226.677
G1 X158.175 Y226.708 E65.13115
G1 X155.961 Y227.457 E65.4421
G1 X153.536 Y228.208 E65.77984
G1 X151.171 Y228.875 E66.10675
G1 X148.736 Y229.493 E66.44098
G1 X146.333 Y230.037 E66.76876
G1 X143.929 Y230.514 E67.09483
G1 X141.501 Y230.93 E67.42256
G1 X139.109 Y231.273 E67.74404
G1 X136.736 Y231.548 E68.06186
G1 X134.365 Y231.758 E68.37854
G1 X132.017 Y231.899 E68.69148
G1 X129.696 Y231.973 E69.00042
G1 X127.391 Y231.983 E69.30708
G1 X125.076 Y231.925 E69.61517
G1 X122.802 Y231.804 E69.91813
G1 X120.545 Y231.618 E70.21942
G1 X118.298 Y231.367 E70.52022
G1 X115.95 Y231.032 E70.83577
G1 X112.611 Y230.454 E71.28659
G1 F2700 E66.28659
G0 F6000 X112.753 Y230.977
G0 X110.91 Y234.252
G0 X110.975 Y234.93
;TYPE:WALL-OUTER
G1 F2700 E71.28659
G1 F1200 X110.904 Y234.976 E71.29785
G1 X110.823 Y235.007 E71.30939
G1 X110.737 Y235.02 E71.32096
G1 X110.635 Y235.019 E71.33453
G1 X110.568 Y235.01 E71.34352
G1 X110.516 Y234.994 E71.35076
G1 X110.465 Y234.971 E71.35821
G1 X110.425 Y234.945 E71.36455
G1 X110.37 Y234.892 E71.37471
G1 X110.339 Y234.851 E71.38155
G1 X110.284 Y234.746 E71.39732
G1 X110.264 Y234.667 E71.40816
G1 X110.262 Y234.601 E71.41695
G1 X110.27 Y234.535 E71.42579
G1 X110.312 Y234.357 E71.45012
G1 X110.408 Y234.102 E71.48637
G1 X110.517 Y233.868 E71.52072
G1 X110.788 Y233.357 E71.59767
G1 X111.95 Y231.326 E71.90897
G1 X109.218 Y230.687 E72.28225
G1 X107.019 Y230.109 E72.58474
G1 X104.822 Y229.461 E72.88948
G1 X102.647 Y228.752 E73.19383
G1 X100.451 Y227.963 E73.50427
G1 X98.272 Y227.111 E73.81554
G1 X96.11 Y226.193 E74.12803
G1 X93.924 Y225.193 E74.44784
G1 X91.763 Y224.132 E74.76813
G1 X89.577 Y222.983 E75.09668
G1 X87.415 Y221.773 E75.4263
G1 X85.263 Y220.492 E75.75948
G1 X83.186 Y219.18 E76.08632
G1 X81.186 Y217.84 E76.4066
G1 X79.227 Y216.447 E76.7264
G1 X77.34 Y215.024 E77.04083
G1 X75.524 Y213.571 E77.35025
G1 X73.743 Y212.063 E77.66072
G1 X72.03 Y210.525 E77.967
G1 X70.371 Y208.946 E78.27171
G1 X68.633 Y207.187 E78.60069
G1 X66.864 Y205.294 E78.94538
G1 X65.533 Y207.564 E79.29547
G1 X65.232 Y208.012 E79.36728
G1 X65.036 Y208.25 E79.4083
G1 X64.944 Y208.338 E79.42523
G1 X64.88 Y208.386 E79.43588
G1 X64.82 Y208.42 E79.44505
G1 X64.749 Y208.444 E79.45502
G1 X64.702 Y208.452 E79.46136
G1 X64.652 Y208.452 E79.46802
G1 X64.491 Y208.425 E79.48974
G1 X64.438 Y208.396 E79.49777
G1 X64.38 Y208.351 E79.50754
G1 X64.335 Y208.3 E79.51659
G1 X64.28 Y208.215 E79.53006
G1 X64.244 Y208.127 E79.54271
G1 X64.233 Y208.086 E79.54835
G1 X64.225 Y208.024 E79.55667
G1 X64.226 Y207.989 E79.56133
G1 X64.251 Y207.823 E79.58366
G1 X64.278 Y207.725 E79.59719
G1 X64.313 Y207.625 E79.61128
G1 X64.435 Y207.346 E79.65179
G1 X64.75 Y206.738 E79.74289
G1 X65.305 Y205.752 E79.89343
G1 X66.084 Y204.399 E80.10113
G1 X65.646 Y203.885 E80.19098
G1 X64.254 Y202.209 E80.48083
G1 X62.849 Y200.414 E80.78409
G1 X61.494 Y198.573 E81.08821
G1 X60.186 Y196.685 E81.39378
G1 X58.935 Y194.762 E81.69899
G1 X57.716 Y192.766 E82.01014
G1 X56.561 Y190.747 E82.3196
G1 X55.44 Y188.653 E82.6356
G1 X54.375 Y186.523 E82.95242
G1 X53.362 Y184.345 E83.27199
G1 X52.4 Y182.12 E83.59449
G1 X51.49 Y179.849 E83.91998
G1 X50.635 Y177.536 E84.24805
G1 X49.839 Y175.195 E84.57701
G1 X49.095 Y172.794 E84.91143
G1 X48.416 Y170.387 E85.24415
G1 X47.791 Y167.93 E85.58144
G1 X47.232 Y165.466 E85.91758
G1 X46.739 Y163.002 E86.25189
G1 X46.316 Y160.562 E86.58135
G1 X45.948 Y158.065 E86.91714
G1 X45.645 Y155.575 E87.25086
G1 X45.405 Y153.052 E87.58804
G1 X45.231 Y150.543 E87.92264
G1 X45.12 Y147.995 E88.26194
G1 X45.074 Y145.45 E88.60059
G1 X45.094 Y142.863 E88.94477
G1 X45.195 Y139.964 E89.33069
G1 X45.335 Y137.514 E89.65717
G1 X45.46 Y135.872 E89.87626
G1 X45.156 Y135.661 E89.92549
G1 X42.613 Y133.964 E90.33223
G1 X42.122 Y133.629 E90.4113
G1 X41.681 Y133.291 E90.48523
G1 X41.598 Y133.195 E90.50211
G1 X41.574 Y133.158 E90.50798
G1 X41.54 Y133.086 E90.51857
G1 X41.525 Y133.012 E90.52862
G1 X41.525 Y132.96 E90.53553
G1 X41.539 Y132.85 E90.55029
G1 X41.589 Y132.692 E90.57233
G1 X41.667 Y132.539 E90.59518
G1 X41.731 Y132.449 E90.60987
G1 X41.83 Y132.349 E90.62859
G1 X41.927 Y132.286 E90.64398
G1 X42.008 Y132.254 E90.65557
G1 X42.092 Y132.236 E90.667
G1 X42.158 Y132.231 E90.6758
G1 X42.234 Y132.233 E90.68592
G1 X42.326 Y132.248 E90.69832
G1 X42.426 Y132.293 E90.71291
G1 X42.774 Y132.511 E90.76754
G1 X45.59 Y134.405 E91.21904
G1 X45.822 Y132.286 E91.50264
G1 X45.961 Y131.126 E91.65807
G1 X46.146 Y129.743 E91.8437
G1 X46.317 Y128.546 E92.00457
G1 X46.571 Y126.941 E92.22076
G1 X47.843 Y127.121 E92.39167
G1 X47.68 Y128.1 E92.52371
G1 X47.328 Y130.47 E92.84247
G1 X47.034 Y132.788 E93.15333
G1 X46.799 Y135.059 E93.45708
G1 X46.619 Y137.294 E93.75539
G1 X46.492 Y139.501 E94.04949
G1 X46.417 Y141.695 E94.34156
G1 X46.393 Y143.887 E94.6332
G1 X46.418 Y146.098 E94.92737
G1 X46.491 Y148.342 E95.22607
G1 X46.611 Y150.635 E95.53155
G1 X46.791 Y153.173 E95.87006
G1 X47.006 Y155.61 E96.19553
G1 X47.258 Y157.884 E96.49992
G1 X47.468 Y159.351 E96.69708
G1 X47.59 Y159.996 E96.78441
G1 X47.672 Y160.34 E96.83146
G1 X47.738 Y160.567 E96.86291
G1 X47.833 Y160.827 E96.89974
G1 X47.961 Y161.08 E96.93746
G1 X48.055 Y161.22 E96.9599
G1 X48.153 Y161.337 E96.9802
G1 X48.258 Y161.437 E96.99949
G1 X48.374 Y161.525 E97.01886
G1 X48.498 Y161.599 E97.03807
G1 X48.639 Y161.663 E97.05867
G1 X48.865 Y161.728 E97.08996
G1 X49.018 Y161.746 E97.11046
G1 X49.154 Y161.749 E97.12855
G1 X49.29 Y161.74 E97.14669
G1 X49.422 Y161.716 E97.16454
G1 X49.516 Y161.689 E97.17755
G1 X49.632 Y161.647 E97.19396
G1 X49.748 Y161.592 E97.21104
G1 X49.858 Y161.527 E97.22804
G1 X49.967 Y161.448 E97.24595
G1 X50.064 Y161.36 E97.26337
G1 X50.153 Y161.267 E97.2805
G1 X50.246 Y161.15 E97.30038
G1 X50.382 Y160.914 E97.33662
G1 X50.47 Y160.685 E97.36926
G1 X50.519 Y160.502 E97.39446
G1 X50.557 Y160.281 E97.4243
G1 X50.573 Y160.13 E97.4445
G1 X50.586 Y159.927 E97.47156
G1 X50.591 Y159.676 E97.50496
G1 X50.586 Y159.335 E97.55033
G1 X50.55 Y158.569 E97.65235
G1 X50.44 Y156.496 E97.92853
G1 X50.391 Y155.025 E98.12435
G1 X50.37 Y153.287 E98.35559
G1 X50.392 Y151.427 E98.60306
G1 X50.464 Y149.462 E98.86466
G1 X50.588 Y147.445 E99.13351
G1 X50.768 Y145.356 E99.41246
G1 X51.005 Y143.218 E99.69864
G1 X51.309 Y140.98 E99.99912
G1 X51.659 Y138.814 E100.29103
G1 X52.065 Y136.637 E100.58565
G1 X52.518 Y134.494 E100.87706
G1 X53.028 Y132.354 E101.16974
G1 X53.59 Y130.231 E101.46191
G1 X54.206 Y128.119 E101.7546
G1 X54.88 Y126.014 E102.04865
G1 X55.618 Y123.9 E102.34655
G1 X56.427 Y121.758 E102.65117
G1 X57.321 Y119.566 E102.96612
G1 X58.318 Y117.289 E103.29681
G1 X59.433 Y114.9 E103.64756
G1 X60.785 Y112.179 E104.05179
G1 X62.206 Y109.463 E104.45959
G1 X63.703 Y106.703 E104.87732
G1 X63.712 Y106.625 E104.88777
