;FLAVOR:Marlin
;TIME:3515
;Filament used: 10.8661m
;Layer height: 0.5
;MINX:13.984
;MINY:37.72
;MINZ:0.32
;MAXX:221.016
;MAXY:204.28
;MAXZ:11.82
;Generated with Cura_SteamEngine 4.5.0
M140 S60
M105
M190 S60
M104 S220
M105
M109 S220
M82 ;absolute extrusion mode
; Ender 3 Custom Start G-code
G92 E0 ; Reset Extruder
G28 ; Home all axes
G1 Z2.0 F3000 ; Move Z Axis up little to prevent scratching of Heat Bed
G1 X0.1 Y20 Z0.3 F5000.0 ; Move to start position
G1 X0.1 Y200.0 Z0.3 F1500.0 E15 ; Draw the first line
G1 X0.4 Y200.0 Z0.3 F5000.0 ; Move to side a little
G1 X0.4 Y20 Z0.3 F1500.0 E30 ; Draw the second line
G92 E0 ; Reset Extruder
G1 Z2.0 F3000 ; Move Z Axis up little to prevent scratching of Heat Bed
G1 X5 Y20 Z0.3 F5000.0 ; Move over to prevent blob squish
G92 E0
G92 E0
G1 F2700 E-5
;LAYER_COUNT:24
;LAYER:0
M107
;MESH:FSW12.stl
G0 F6000 X50.262 Y65.455 Z0.32
;TYPE:WALL-INNER
G1 F2700 E0
G1 F1200 X51.871 Y64.227 E0.26928
G1 X53.488 Y63.039 E0.53623
G1 X55.111 Y61.891 E0.80071
G1 X56.779 Y60.757 E1.06905
G1 X58.454 Y59.664 E1.33514
G1 X60.162 Y58.592 E1.60342
G1 X61.889 Y57.552 E1.87163
G1 X63.619 Y56.553 E2.13741
G1 X65.366 Y55.586 E2.40306
G1 X67.153 Y54.64 E2.67206
G1 X68.94 Y53.735 E2.93855
G1 X70.733 Y52.868 E3.20352
G1 X72.555 Y52.028 E3.47044
G1 X74.372 Y51.229 E3.73451
G1 X76.203 Y50.465 E3.99846
G1 X78.069 Y49.725 E4.26553
G1 X79.935 Y49.023 E4.53077
G1 X81.793 Y48.363 E4.79309
G1 X83.65 Y47.741 E5.05364
G1 X85.548 Y47.144 E5.31834
G1 X87.554 Y46.553 E5.59656
G1 X90.787 Y45.673 E6.04233
G1 X93.16 Y45.117 E6.36659
G1 X95.025 Y44.71 E6.62055
G1 X96.9 Y44.333 E6.87499
G1 X98.814 Y43.984 E7.13383
G1 X100.697 Y43.674 E7.38772
G1 X102.62 Y43.394 E7.64625
G1 X104.516 Y43.15 E7.90058
G1 X106.38 Y42.944 E8.15007
G1 X108.283 Y42.767 E8.40434
G1 X110.173 Y42.623 E8.65652
G1 X112.024 Y42.514 E8.9032
G1 X113.897 Y42.437 E9.1526
G1 X115.868 Y42.39 E9.4149
G1 X117.566 Y42.379 E9.6408
G1 X119.557 Y42.397 E9.9057
G1 X121.546 Y42.453 E10.17042
G1 X123.497 Y42.541 E10.43025
G1 X125.448 Y42.667 E10.69035
G1 X127.366 Y42.823 E10.94636
G1 X129.289 Y43.014 E11.20346
G1 X131.181 Y43.236 E11.4569
G1 X133.129 Y43.499 E11.71841
G1 X135.027 Y43.789 E11.97385
G1 X136.98 Y44.125 E12.2375
G1 X138.89 Y44.487 E12.49613
G1 X140.901 Y44.907 E12.76945
G1 X143.935 Y45.6 E13.18349
G1 X143.935 Y45.603 E13.18389
G1 X146.56 Y46.303 E13.54532
G1 X148.5 Y46.858 E13.81378
G1 X150.403 Y47.439 E14.07849
G1 X152.307 Y48.057 E14.34481
G1 X154.203 Y48.713 E14.61172
G1 X156.088 Y49.403 E14.87878
G1 X157.95 Y50.124 E15.14442
G1 X159.801 Y50.879 E15.41038
G1 X161.626 Y51.662 E15.67458
G1 X163.437 Y52.481 E15.93901
G1 X165.253 Y53.34 E16.20628
G1 X167.047 Y54.229 E16.47265
G1 X168.809 Y55.144 E16.73679
G1 X170.587 Y56.108 E17.00587
G1 X172.341 Y57.102 E17.27409
G1 X174.046 Y58.108 E17.53746
G1 X175.756 Y59.162 E17.8047
G1 X177.462 Y60.257 E18.0744
G1 X179.133 Y61.372 E18.34166
G1 X180.775 Y62.512 E18.6076
G1 X182.394 Y63.681 E18.87327
G1 X184.02 Y64.901 E19.14372
G1 X185.579 Y66.115 E19.4066
G1 X187.149 Y67.387 E19.67542
G1 X188.668 Y68.662 E19.93926
G1 X190.181 Y69.981 E20.2063
G1 X191.656 Y71.314 E20.4708
G1 X193.122 Y72.688 E20.73811
G1 X194.522 Y74.049 E20.99787
G1 X194.535 Y74.062 E21.00032
G1 X194.678 Y74.206 E21.02732
G1 X194.857 Y74.386 E21.06109
G1 X195.04 Y74.571 E21.09571
G1 X194.631 Y74.638 E21.11749
G1 X194.598 Y74.644
G1 X194.007 Y74.873 E21.18415
G1 X193.992 Y74.883 E21.18655
G1 X193.59 Y75.16 E21.2515
G1 X193.414 Y75.315 E21.2827
G1 X193.17 Y75.585 E21.33112
G1 X193.036 Y75.764 E21.36087
G1 X192.812 Y76.162 E21.42163
G1 X192.618 Y76.764 E21.50577
G1 X192.574 Y77.343 E21.58303
G1 X192.659 Y77.964 E21.66641
G1 X192.864 Y78.499 E21.74264
G1 X193.218 Y79.04 E21.82865
G1 X193.672 Y79.461 E21.91103
G1 X193.822 Y79.549 E21.93416
G1 X195.052 Y81.013 E22.18855
G1 X196.503 Y82.819 E22.49676
G1 X197.893 Y84.635 E22.80102
G1 X199.224 Y86.455 E23.10099
G1 X200.527 Y88.327 E23.40443
G1 X201.787 Y90.226 E23.70763
G1 X202.981 Y92.115 E24.00494
G1 X204.149 Y94.061 E24.30689
G1 X205.273 Y96.032 E24.60876
G1 X206.352 Y98.029 E24.91074
G1 X207.396 Y100.068 E25.2155
G1 X208.372 Y102.086 E25.51373
G1 X209.316 Y104.156 E25.81641
G1 X210.204 Y106.223 E26.1157
G1 X211.084 Y108.413 E26.4297
G1 X211.819 Y110.368 E26.70757
G1 X212.683 Y114.91 E27.32268
G1 X213.52 Y119.591 E27.95532
G1 X214.307 Y124.281 E28.588
G1 X215.043 Y128.98 E29.22078
G1 X215.732 Y133.699 E29.85526
G1 X216.368 Y138.409 E30.48756
G1 X216.954 Y143.125 E31.11981
G1 X217.489 Y147.857 E31.75337
G1 X217.972 Y152.586 E32.38579
G1 X218.406 Y157.329 E33.01944
G1 X218.492 Y158.393 E33.16145
G1 X218.63 Y160.112 E33.39089
G1 X218.788 Y162.065 E33.65156
G1 X218.824 Y162.593 E33.72197
G1 X218.992 Y164.995 E34.04232
G1 X218.5 Y162.616 E34.09651
G1 X218.394 Y162.157 E34.11702
G1 X217.931 Y160.169 E34.26997
G1 X217.5 Y158.499 E34.46533
G1 X217.299 Y157.72 E34.57236
G1 X216.603 Y155.272 E34.91095
G1 X215.842 Y152.825 E35.25188
G1 X215.015 Y150.385 E35.59464
G1 X214.123 Y147.953 E35.93927
G1 X213.164 Y145.529 E36.28608
G1 X212.138 Y143.119 E36.63456
G1 X211.048 Y140.725 E36.98451
G1 X209.892 Y138.349 E37.33605
G1 X208.694 Y136.038 E37.68236
G1 X207.444 Y133.769 E38.027
G1 X206.133 Y131.523 E38.37299
G1 X204.762 Y129.305 E38.7199
G1 X203.331 Y127.116 E39.06783
G1 X201.842 Y124.959 E39.41653
G1 X200.294 Y122.835 E39.7662
G1 X198.691 Y120.748 E40.1163
G1 X197.033 Y118.7 E40.46687
G1 X195.321 Y116.691 E40.81803
G1 X193.556 Y114.726 E41.16943
G1 X191.741 Y112.806 E41.52093
G1 X189.877 Y110.932 E41.87258
G1 X187.967 Y109.106 E42.22413
G1 X186.01 Y107.33 E42.57572
G1 X184.011 Y105.607 E42.92683
G1 X181.971 Y103.937 E43.27757
G1 X179.891 Y102.321 E43.628
G1 X177.775 Y100.762 E43.97767
G1 X175.625 Y99.261 E44.32652
G1 X173.443 Y97.818 E44.67455
G1 X171.231 Y96.435 E45.02162
G1 X168.99 Y95.11 E45.36798
G1 X166.726 Y93.848 E45.71281
G1 X164.439 Y92.646 E46.05654
G1 X162.132 Y91.507 E46.39884
G1 X159.808 Y90.429 E46.73967
G1 X157.466 Y89.415 E47.0792
G1 X155.114 Y88.462 E47.41682
G1 X152.751 Y87.573 E47.75271
G1 X150.379 Y86.745 E48.08695
G1 X148.002 Y85.979 E48.4192
G1 X145.621 Y85.276 E48.74949
G1 X143.238 Y84.633 E49.07787
G1 X140.858 Y84.052 E49.4038
G1 X138.48 Y83.529 E49.72773
G1 X136.107 Y83.066 E50.04939
G1 X133.616 Y82.642 E50.38556
G1 X131.119 Y82.28 E50.72124
G1 X128.623 Y81.979 E51.05571
G1 X126.135 Y81.739 E51.38825
G1 X123.667 Y81.563 E51.71743
G1 X121.093 Y81.442 E52.06026
G1 X118.758 Y81.385 E52.371
G1 X117.53 Y81.378 E52.53437
G1 X114.993 Y81.407 E52.87192
G1 X112.498 Y81.498 E53.20408
G1 X109.948 Y81.653 E53.54396
G1 X107.463 Y81.865 E53.87576
G1 X105.058 Y82.129 E54.19765
G1 X102.641 Y82.45 E54.52203
G1 X100.215 Y82.832 E54.84876
G1 X97.778 Y83.274 E55.17827
G1 X95.335 Y83.78 E55.51019
G1 X92.889 Y84.349 E55.84429
G1 X90.44 Y84.981 E56.18079
G1 X87.992 Y85.677 E56.51938
G1 X85.545 Y86.438 E56.86031
G1 X83.105 Y87.265 E57.20306
G1 X80.673 Y88.157 E57.5477
G1 X78.249 Y89.116 E57.89451
G1 X75.839 Y90.141 E58.24293
G1 X73.445 Y91.232 E58.59294
G1 X71.069 Y92.388 E58.94447
G1 X68.758 Y93.586 E59.29079
G1 X66.489 Y94.836 E59.63543
G1 X64.243 Y96.147 E59.98142
G1 X62.025 Y97.518 E60.32833
G1 X59.836 Y98.949 E60.67626
G1 X57.679 Y100.437 E61.02489
G1 X55.556 Y101.986 E61.37452
G1 X53.468 Y103.589 E61.72473
G1 X51.42 Y105.247 E62.0753
G1 X49.411 Y106.959 E62.42646
G1 X47.446 Y108.723 E62.77777
G1 X45.526 Y110.539 E63.12936
G1 X43.652 Y112.403 E63.48101
G1 X41.826 Y114.313 E63.83256
G1 X40.05 Y116.27 E64.18415
G1 X38.327 Y118.269 E64.53526
G1 X36.657 Y120.309 E64.886
G1 X35.041 Y122.389 E65.23643
G1 X33.483 Y124.505 E65.58602
G1 X31.981 Y126.655 E65.93494
G1 X30.538 Y128.837 E66.28298
G1 X29.155 Y131.049 E66.63005
G1 X27.83 Y133.289 E66.97629
G1 X26.567 Y135.553 E67.32119
G1 X25.366 Y137.841 E67.66498
G1 X24.227 Y140.148 E68.00727
G1 X23.15 Y142.472 E68.34804
G1 X22.135 Y144.813 E68.68751
G1 X21.182 Y147.166 E69.02525
G1 X20.293 Y149.529 E69.36114
G1 X19.465 Y151.901 E69.69538
G1 X18.699 Y154.278 E70.02764
G1 X17.996 Y156.659 E70.35793
G1 X17.502 Y158.489 E70.6101
G1 X17.353 Y159.042 E70.6863
G1 X16.772 Y161.422 E71.01223
G1 X16.613 Y162.146 E71.11085
G1 X16.249 Y163.8 E71.33617
G1 X16.004 Y165.055 E71.50628
G1 X16.092 Y163.79 E71.51923
G1 X16.213 Y162.059 E71.58706
G1 X16.267 Y161.382 E71.62631
G1 X16.461 Y158.971 E71.85399
G1 X16.507 Y158.4 E71.92621
G1 X16.594 Y157.331 E72.0689
G1 X17.026 Y152.594 E72.70173
G1 X17.51 Y147.86 E73.33482
G1 X18.047 Y143.122 E73.96921
G1 X18.631 Y138.41 E74.60089
G1 X19.269 Y133.694 E75.23402
G1 X19.957 Y128.977 E75.86822
G1 X20.692 Y124.29 E76.4994
G1 X21.488 Y119.545 E77.1395
G1 X23.182 Y110.362 E78.38182
G1 X23.909 Y108.43 E78.65645
G1 X24.786 Y106.249 E78.96919
G1 X25.66 Y104.207 E79.2647
G1 X26.593 Y102.156 E79.56447
G1 X27.58 Y100.113 E79.86633
G1 X28.613 Y98.092 E80.16829
G1 X29.689 Y96.097 E80.46985
G1 X30.814 Y94.124 E80.77201
G1 X31.98 Y92.178 E81.07383
G1 X33.203 Y90.24 E81.37871
G1 X34.45 Y88.359 E81.67895
G1 X35.749 Y86.49 E81.98177
G1 X37.071 Y84.681 E82.27985
G1 X38.444 Y82.886 E82.58051
G1 X39.896 Y81.076 E82.88922
G1 X41.175 Y79.553 E83.15381
G1 X41.292 Y79.486 E83.17175
G1 X41.769 Y79.052 E83.25755
G1 X42.05 Y78.641 E83.32379
G1 X42.16 Y78.436 E83.35474
G1 X42.292 Y78.093 E83.40363
G1 X42.353 Y77.879 E83.43324
G1 X42.421 Y77.427 E83.49405
G1 X42.389 Y76.796 E83.57811
G1 X42.241 Y76.299 E83.6471
G1 X42.147 Y76.086 E83.67807
G1 X41.961 Y75.762 E83.72777
G1 X41.832 Y75.588 E83.75659
G1 X41.535 Y75.259 E83.81556
G1 X41.03 Y74.895 E83.89838
G1 X41.015 Y74.884 E83.90085
G1 X40.546 Y74.693 E83.96822
G1 X40.325 Y74.632 E83.99873
G1 X39.956 Y74.572 E84.04846
G1 X40.112 Y74.418
G1 X40.193 Y74.337
G1 X40.335 Y74.197 E84.05378
G1 X40.348 Y74.184 E84.05622
G1 X41.232 Y73.311 E84.22151
G1 X42.673 Y71.937 E84.48641
G1 X44.148 Y70.581 E84.75296
G1 X45.627 Y69.269 E85.01599
G1 X47.147 Y67.971 E85.28192
G1 X48.694 Y66.699 E85.54837
G1 X50.262 Y65.455 E85.81465
G0 F6000 X38.228 Y75.924
G0 X30.309 Y84.464
G0 X29.403 Y85.179
G1 F1200 X29.414 Y85.179 E85.81612
G1 X29.408 Y85.188 E85.8162
G1 X29.403 Y85.179 E85.81634
G1 F2700 E80.81634
G0 F6000 X30.688 Y84.671
G0 X33.567 Y81.111
G0 X36.68 Y77.573
G0 X38.477 Y75.694
G0 X38.936 Y75.421
G0 X39.373 Y75.293
G0 X39.845 Y75.274
G0 X40.316 Y75.367
G0 X40.668 Y75.511
G0 X41.058 Y75.792
G0 X41.512 Y76.408
G0 X41.683 Y76.918
G0 X41.658 Y77.728
G0 X41.442 Y78.272
G0 X32.377 Y92.43
G0 X30.098 Y96.331
G0 X27.999 Y100.328
G0 X26.093 Y104.392
G0 X24.345 Y108.606
G0 X23.639 Y110.485
G0 X21.951 Y119.632
G0 X20.423 Y129.044
G0 X19.102 Y138.459
G0 X17.99 Y147.888
G0 X17.063 Y157.374
G0 X17.022 Y158.327
G0 X28.753 Y130.804
G0 X49.101 Y106.605
G0 X75.649 Y89.71
G0 X93.058 Y85.039
G0 X97.914 Y83.972
G0 X102.744 Y83.154
G0 X107.533 Y82.572
G0 X112.533 Y82.208
G0 X117.532 Y82.088
G0 X121.067 Y82.152
G0 X126.075 Y82.448
G0 X131.025 Y82.984
G0 X148.141 Y85.53
G0 X175.89 Y98.872
G0 X199.06 Y120.456
G0 X214.563 Y147.785
G0 X217.978 Y158.328
G0 X217.503 Y152.629
G0 X216.486 Y143.178
G0 X215.253 Y133.743
G0 X213.842 Y124.354
G0 X212.22 Y114.993
G0 X211.364 Y110.494
G0 X209.771 Y106.409
G0 X207.944 Y102.281
G0 X205.933 Y98.243
G0 X197.067 Y82.387
G0 X193.766 Y78.577
G0 X193.5 Y78.174
G0 X193.352 Y77.785
G0 X193.289 Y77.322
G0 X193.32 Y76.902
G0 X193.467 Y76.448
G0 X193.913 Y75.822
G0 X194.342 Y75.506
G0 X194.786 Y75.333
G0 X195.265 Y75.271
G0 X195.633 Y75.295
G0 X196.067 Y75.422
G0 X196.487 Y75.662
G0 X198.339 Y77.593
G0 X201.465 Y81.148
G0 X203.292 Y83.432
G0 X205.588 Y85.179
G1 F2700 E85.81634
G1 F1200 X205.596 Y85.179 E85.8174
G1 X205.593 Y85.186 E85.81748
G1 X205.588 Y85.179 E85.81763
G1 F2700 E80.81763
G0 F6000 X202.953 Y82.952
G0 X199.942 Y79.376
G0 X196.75 Y75.901
G0 X196.487 Y75.662
G0 X196.067 Y75.422
G0 X195.633 Y75.295
G0 X195.119 Y75.279
G0 X194.786 Y75.333
G0 X194.342 Y75.506
G0 X193.913 Y75.822
G0 X193.467 Y76.448
G0 X193.32 Y76.902
G0 X193.289 Y77.322
G0 X193.352 Y77.785
G0 X193.5 Y78.174
G0 X207.22 Y98.109
G0 X211.364 Y110.494
G0 X213.056 Y119.669
G0 X214.577 Y129.049
G0 X215.901 Y138.467
G0 X217.009 Y147.885
G0 X219.915 Y177.246
G0 X220.16 Y182.225
G0 X220.222 Y201.12
G0 X219.902 Y201.44
;TYPE:WALL-OUTER
G1 F2700 E85.81763
G1 F1200 X219.902 Y184.777 E88.03448
G1 X219.871 Y182.231 E88.37323
G1 X219.78 Y179.792 E88.69794
G1 X219.627 Y177.266 E89.03461
G1 X219.42 Y174.84 E89.35854
G1 X219.158 Y172.459 E89.67722
G1 X218.84 Y170.065 E89.99852
G1 X218.462 Y167.661 E90.32228
G1 X218.023 Y165.249 E90.64845
G1 X217.523 Y162.83 E90.97707
G1 X216.96 Y160.407 E91.30802
G1 X216.334 Y157.982 E91.64122
G1 X215.644 Y155.557 E91.97665
G1 X214.891 Y153.134 E92.31421
G1 X214.072 Y150.718 E92.6536
G1 X213.188 Y148.309 E92.995
G1 X212.239 Y145.909 E93.33835
G1 X211.223 Y143.522 E93.68349
G1 X210.143 Y141.151 E94.03011
G1 X208.998 Y138.798 E94.37825
G1 X207.812 Y136.509 E94.72123
G1 X206.574 Y134.262 E95.06254
G1 X205.276 Y132.038 E95.40513
G1 X203.918 Y129.842 E95.74864
G1 X202.501 Y127.674 E96.09321
G1 X201.026 Y125.538 E96.43856
G1 X199.493 Y123.434 E96.78489
G1 X197.906 Y121.367 E97.13159
G1 X196.264 Y119.339 E97.47875
G1 X194.568 Y117.35 E97.8265
G1 X192.82 Y115.404 E98.17451
G1 X191.023 Y113.502 E98.52263
G1 X189.177 Y111.646 E98.87089
G1 X187.285 Y109.838 E99.21906
G1 X185.347 Y108.079 E99.56726
G1 X183.368 Y106.373 E99.91487
G1 X181.347 Y104.719 E100.26231
G1 X179.288 Y103.119 E100.60922
G1 X177.192 Y101.575 E100.95557
G1 X175.063 Y100.088 E101.30106
G1 X172.902 Y98.659 E101.64573
G1 X170.711 Y97.289 E101.98952
G1 X168.492 Y95.977 E102.33248
G1 X166.25 Y94.727 E102.67398
G1 X163.985 Y93.537 E103.01438
G1 X161.7 Y92.409 E103.3534
G1 X159.399 Y91.342 E103.69083
G1 X157.08 Y90.337 E104.02708
G1 X154.75 Y89.394 E104.36149
G1 X152.41 Y88.513 E104.69414
G1 X150.061 Y87.693 E105.02515
G1 X147.707 Y86.935 E105.35416
G1 X145.349 Y86.238 E105.68129
G1 X142.989 Y85.602 E106.00646
G1 X140.632 Y85.026 E106.32927
G1 X138.277 Y84.508 E106.65007
G1 X135.927 Y84.05 E106.9686
G1 X133.46 Y83.63 E107.30153
G1 X130.987 Y83.271 E107.63399
G1 X128.515 Y82.973 E107.96524
G1 X126.051 Y82.736 E108.29457
G1 X123.608 Y82.561 E108.62042
G1 X121.057 Y82.441 E108.96018
G1 X118.743 Y82.385 E109.26813
G1 X117.533 Y82.378 E109.42911
G1 X115.017 Y82.407 E109.76386
G1 X112.546 Y82.497 E110.09282
G1 X110.021 Y82.65 E110.42937
G1 X107.56 Y82.86 E110.75797
G1 X105.179 Y83.122 E111.07665
G1 X102.785 Y83.44 E111.39795
G1 X100.382 Y83.818 E111.72158
G1 X97.969 Y84.256 E112.04785
G1 X95.55 Y84.757 E112.3765
G1 X93.127 Y85.32 E112.70745
G1 X90.702 Y85.946 E113.04065
G1 X88.277 Y86.636 E113.37608
G1 X85.854 Y87.389 E113.71364
G1 X83.438 Y88.208 E114.05303
G1 X81.029 Y89.092 E114.39443
G1 X78.629 Y90.041 E114.73778
G1 X76.242 Y91.056 E115.08286
G1 X73.871 Y92.137 E115.42954
G1 X71.518 Y93.282 E115.77768
G1 X69.229 Y94.468 E116.12066
G1 X66.982 Y95.706 E116.46197
G1 X64.758 Y97.004 E116.80456
G1 X62.562 Y98.362 E117.14807
G1 X60.394 Y99.779 E117.49264
G1 X58.258 Y101.253 E117.83791
G1 X56.155 Y102.787 E118.18422
G1 X54.087 Y104.374 E118.53103
G1 X52.059 Y106.016 E118.87818
G1 X50.07 Y107.712 E119.22594
G1 X48.124 Y109.459 E119.57386
G1 X46.222 Y111.257 E119.92207
G1 X44.366 Y113.103 E120.27033
G1 X42.558 Y114.995 E120.61849
G1 X40.799 Y116.933 E120.96669
G1 X39.093 Y118.912 E121.3143
G1 X37.439 Y120.933 E121.66174
G1 X35.839 Y122.992 E122.00866
G1 X34.296 Y125.088 E122.35492
G1 X32.808 Y127.217 E122.70049
G1 X31.379 Y129.378 E123.04517
G1 X30.009 Y131.569 E123.38895
G1 X28.697 Y133.787 E123.73179
G1 X27.447 Y136.029 E124.0733
G1 X26.257 Y138.295 E124.41381
G1 X25.129 Y140.58 E124.75283
G1 X24.062 Y142.881 E125.09027
G1 X23.057 Y145.199 E125.4264
G1 X22.114 Y147.53 E125.76093
G1 X21.233 Y149.87 E126.09358
G1 X20.413 Y152.219 E126.42458
G1 X19.655 Y154.573 E126.7536
G1 X18.958 Y156.931 E127.08072
G1 X18.322 Y159.291 E127.4059
G1 X17.746 Y161.648 E127.72871
G1 X17.228 Y164.003 E128.04951
G1 X16.77 Y166.353 E128.36803
G1 X16.35 Y168.82 E128.70097
G1 X15.991 Y171.293 E129.03342
G1 X15.693 Y173.765 E129.36468
G1 X15.457 Y176.229 E129.69399
G1 X15.276 Y178.737 E130.02853
