; generated by PrusaSlicer 2.2.0+win64 on 2020-04-30 at 15:31:30 UTC


;
;

;
;
; 

; external perimeters extrusion width = 1.13mm
; perimeters extrusion width = 1.13mm
; infill extrusion width = 1.13mm
; solid infill extrusion width = 1.13mm
; top infill extrusion width = 1.00mm
; first layer extrusion width = 0.70mm

M73 P0 R26
M201 X1250 Y1250 Z400 E5000 ; sets maximum accelerations, mm/sec^2
M203 X180 Y180 Z12 E80 ; sets maximum feedrates, mm/sec
M204 P1250 R1250 T1250 ; sets acceleration (P, T) and retract acceleration (R), mm/sec^2
M205 X8.00 Y8.00 Z2.00 E10.00 ; sets the jerk limits, mm/sec
M205 S0 T0 ; sets the minimum extruding and travel feed rate, mm/sec
M107
G90 ; use absolute coordinates
M83 ; extruder relative mode
M104 S170 ; set extruder temp for bed leveling
M140 S80 ; set bed temp
M109 R170 ; wait for bed leveling temp
M190 S80 ; wait for bed temp
G28 ; home all without mesh bed level
G29 ; mesh bed leveling 
M104 S220 ; set extruder temp
G92 E0.0
G1 Y-2.0 X179 F2400
G1 Z3 F720
M109 S220 ; wait for extruder temp

; intro line
G1 X170 F1000
G1 Z0.2 F720
G1 X110.0 E8.0 F900
M73 P0 R26
G1 X40.0 E10.0 F700
G92 E0.0

M221 S95 ; set flow
G21 ; set units to millimeters
G90 ; use absolute coordinates
M83 ; use relative distances for extrusion
M900 K0.2 ; Filament gcode
;BEFORE_LAYER_CHANGE
G92 E0.0
;0.35


G1 Z0.350 F7800.000
;AFTER_LAYER_CHANGE
;0.35
G1 E-3.50000 F4200.00000
G1 Z0.550 F7800.000
G1 X29.049 Y49.638
G1 Z0.350
G1 E3.50000 F2400.00000
G1 F1800.000
G1 X29.088 Y49.192 E0.04076
G1 X29.190 Y48.804 E0.03645
G1 X29.398 Y48.345 E0.04586
G1 X29.656 Y47.982 E0.04048
G1 X31.134 Y46.527 E0.18859
G1 X33.152 Y44.662 E0.24980
G1 X34.275 Y43.675 E0.13597
G1 X36.358 Y41.933 E0.24691
G1 X37.465 Y41.052 E0.12866
G1 X39.570 Y39.457 E0.24015
G1 X41.745 Y37.912 E0.24261
G1 X42.913 Y37.124 E0.12810
G1 X45.193 Y35.666 E0.24608
G1 X46.414 Y34.925 E0.12992
G1 X48.794 Y33.561 E0.24945
G1 X50.067 Y32.871 E0.13163
G1 X52.542 Y31.611 E0.25255
G1 X53.863 Y30.978 E0.13316
G1 X55.199 Y30.367 E0.13356
G1 X57.752 Y29.275 E0.25248
G1 X59.172 Y28.710 E0.13902
G1 X61.844 Y27.724 E0.25893
G1 X63.263 Y27.242 E0.13625
G1 X65.952 Y26.403 E0.25616
G1 X68.664 Y25.654 E0.25589
G1 X70.099 Y25.296 E0.13445
G1 X71.500 Y24.972 E0.13079
G1 X74.278 Y24.403 E0.25777
G1 X75.787 Y24.134 E0.13944
G1 X78.560 Y23.712 E0.25504
G1 X80.043 Y23.524 E0.13590
G1 X81.530 Y23.362 E0.13604
G1 X84.336 Y23.129 E0.25602
G1 X85.833 Y23.042 E0.13637
G1 X87.332 Y22.982 E0.13639
G1 X90.110 Y22.941 E0.25260
G1 X91.653 Y22.957 E0.14035
G1 X93.153 Y22.999 E0.13639
G1 X95.967 Y23.150 E0.25632
G1 X97.506 Y23.272 E0.14030
G1 X100.303 Y23.566 E0.25580
G1 X101.786 Y23.759 E0.13600
G1 X104.599 Y24.200 E0.25890
G1 X106.107 Y24.476 E0.13938
G1 X108.839 Y25.048 E0.25378
G1 X110.280 Y25.388 E0.13463
G1 X111.712 Y25.752 E0.13434
G1 X114.419 Y26.513 E0.25573
G1 X117.087 Y27.358 E0.25446
G1 X118.467 Y27.834 E0.13276
G1 X119.835 Y28.332 E0.13233
G1 X122.410 Y29.341 E0.25147
G1 X123.740 Y29.901 E0.13122
G1 X126.237 Y31.025 E0.24903
G1 X127.524 Y31.643 E0.12981
G1 X129.936 Y32.874 E0.24625
G1 X131.178 Y33.545 E0.12835
G1 X133.501 Y34.875 E0.24338
G1 X135.762 Y36.264 E0.24130
G1 X136.955 Y37.037 E0.12924
G1 X139.170 Y38.550 E0.24393
G1 X140.303 Y39.364 E0.12685
G1 X142.483 Y41.011 E0.24844
G1 X143.632 Y41.925 E0.13348
G1 X145.673 Y43.630 E0.24183
G1 X146.753 Y44.578 E0.13070
G1 X148.701 Y46.370 E0.24072
G1 X149.678 Y47.313 E0.12341
G1 X150.361 Y48.005 E0.08844
G1 X150.576 Y48.307 E0.03368
G1 X150.703 Y48.539 E0.02406
G1 X150.822 Y48.835 E0.02904
G1 X150.928 Y49.284 E0.04191
G1 X150.949 Y49.761 E0.04342
G1 X150.882 Y50.226 E0.04272
G1 X150.732 Y50.669 E0.04255
G1 X150.518 Y51.056 E0.04022
G1 X150.084 Y51.587 E0.06232
G1 X149.902 Y51.852 E0.02921
G1 X149.666 Y52.320 E0.04769
G1 X149.559 Y52.634 E0.03019
G1 X149.486 Y52.968 E0.03102
G1 X149.454 Y53.234 E0.02436
G1 X149.447 Y53.543 E0.02816
G1 X149.470 Y53.844 E0.02742
G1 X149.516 Y54.107 E0.02430
G1 X149.614 Y54.457 E0.03306
G1 X149.821 Y54.928 E0.04681
G1 X149.981 Y55.189 E0.02776
G1 X151.634 Y57.308 E0.24442
G1 X152.482 Y58.483 E0.13171
G1 X153.270 Y59.647 E0.12782
G1 X154.024 Y60.831 E0.12764
G1 X154.744 Y62.032 E0.12735
G1 X155.440 Y63.244 E0.12710
G1 X156.092 Y64.429 E0.12298
G1 X156.762 Y65.703 E0.13087
G1 X157.389 Y66.954 E0.12725
G1 X157.994 Y68.217 E0.12736
G1 X158.558 Y69.454 E0.12358
G1 X159.134 Y70.779 E0.13137
G1 X159.684 Y72.116 E0.13150
G1 X160.648 Y74.658 E0.24719
G1 X161.124 Y76.025 E0.13163
G1 X161.559 Y77.359 E0.12758
G1 X161.958 Y78.660 E0.12373
G1 X162.355 Y80.050 E0.13143
G1 X162.725 Y81.446 E0.13131
G1 X163.050 Y82.766 E0.12362
G1 X163.358 Y84.131 E0.12729
G1 X163.641 Y85.500 E0.12711
G1 X163.898 Y86.873 E0.12700
G1 X164.129 Y88.249 E0.12687
G1 X164.334 Y89.626 E0.12658
G1 X164.513 Y91.005 E0.12641
G1 X164.666 Y92.387 E0.12645
G1 X165.225 Y99.318 E0.63229
G1 X165.711 Y106.268 E0.63350
G1 X165.704 Y106.674 E0.03693
G1 X165.621 Y107.109 E0.04025
G1 X165.455 Y107.543 E0.04224
G1 X165.180 Y107.978 E0.04683
G1 X164.913 Y108.275 E0.03631
G1 X164.516 Y108.578 E0.04542
G1 X164.183 Y108.755 E0.03423
G1 X163.841 Y108.874 E0.03292
G1 X163.374 Y108.958 E0.04314
G1 X162.930 Y108.956 E0.04041
G1 X162.538 Y108.886 E0.03623
G1 X162.048 Y108.710 E0.04735
G1 X161.656 Y108.473 E0.04162
G1 X161.321 Y108.178 E0.04058
G1 X161.050 Y107.842 E0.03925
G1 X160.878 Y107.540 E0.03162
G1 X159.657 Y105.000 E0.25626
G1 X159.008 Y103.737 E0.12911
G1 X157.739 Y101.419 E0.24024
G1 X156.341 Y99.060 E0.24939
G1 X154.889 Y96.797 E0.24448
G1 X154.099 Y95.632 E0.12802
G1 X153.307 Y94.509 E0.12493
G1 X151.653 Y92.291 E0.25153
G1 X149.912 Y90.122 E0.25294
G1 X148.110 Y88.033 E0.25087
G1 X147.139 Y86.967 E0.13109
G1 X146.172 Y85.944 E0.12798
G1 X145.190 Y84.941 E0.12767
G1 X144.197 Y83.964 E0.12669
G1 X143.185 Y83.002 E0.12692
G1 X142.155 Y82.058 E0.12712
G1 X141.106 Y81.130 E0.12731
G1 X140.039 Y80.221 E0.12747
G1 X138.955 Y79.330 E0.12762
G1 X137.853 Y78.457 E0.12774
G1 X136.736 Y77.604 E0.12785
G1 X135.602 Y76.771 E0.12793
G1 X134.453 Y75.958 E0.12800
G1 X133.289 Y75.165 E0.12804
G1 X132.111 Y74.394 E0.12802
G1 X130.919 Y73.644 E0.12810
G1 X129.714 Y72.916 E0.12800
G1 X128.497 Y72.210 E0.12800
G1 X127.267 Y71.526 E0.12794
G1 X126.026 Y70.865 E0.12789
G1 X124.774 Y70.226 E0.12775
G1 X123.512 Y69.612 E0.12763
G1 X122.241 Y69.020 E0.12748
G1 X120.961 Y68.453 E0.12728
G1 X119.673 Y67.909 E0.12717
G1 X118.379 Y67.390 E0.12678
G1 X115.767 Y66.422 E0.25325
G1 X113.134 Y65.553 E0.25213
G1 X110.522 Y64.790 E0.24747
G1 X107.827 Y64.106 E0.25280
G1 X105.159 Y63.529 E0.24817
G1 X102.493 Y63.048 E0.24640
G1 X99.830 Y62.663 E0.24463
G1 X97.176 Y62.372 E0.24274
G1 X94.536 Y62.173 E0.24073
G1 X91.850 Y62.063 E0.24449
G1 X89.309 Y62.044 E0.23103
G1 X87.903 Y62.069 E0.12789
G1 X86.526 Y62.118 E0.12533
G1 X83.792 Y62.288 E0.24901
G1 X81.106 Y62.550 E0.24543
G1 X78.408 Y62.907 E0.24742
G1 X75.705 Y63.362 E0.24928
G1 X73.001 Y63.917 E0.25100
G1 X70.301 Y64.571 E0.25259
G1 X67.648 Y65.314 E0.25056
G1 X66.272 Y65.740 E0.13098
G1 X64.975 Y66.167 E0.12417
G1 X63.571 Y66.658 E0.13518
G1 X60.998 Y67.636 E0.25035
G1 X59.707 Y68.167 E0.12688
G1 X58.388 Y68.738 E0.13069
G1 X55.879 Y69.905 E0.25161
G1 X54.624 Y70.530 E0.12755
G1 X53.377 Y71.179 E0.12780
G1 X52.141 Y71.851 E0.12790
G1 X50.917 Y72.546 E0.12797
G1 X49.706 Y73.263 E0.12802
G1 X48.507 Y74.001 E0.12801
G1 X47.289 Y74.783 E0.13159
G1 X44.993 Y76.346 E0.25258
G1 X42.756 Y77.989 E0.25237
G1 X41.586 Y78.898 E0.13477
G1 X39.446 Y80.656 E0.25175
G1 X37.376 Y82.484 E0.25114
G1 X36.298 Y83.490 E0.13409
G1 X35.324 Y84.431 E0.12320
G1 X34.313 Y85.445 E0.13016
G1 X33.351 Y86.445 E0.12618
G1 X31.534 Y88.434 E0.24493
G1 X30.607 Y89.505 E0.12887
G1 X29.726 Y90.560 E0.12496
G1 X28.024 Y92.711 E0.24938
G1 X27.185 Y93.832 E0.12729
G1 X25.637 Y96.015 E0.24339
G1 X24.155 Y98.268 E0.24520
G1 X23.429 Y99.436 E0.12506
G1 X22.100 Y101.703 E0.23892
G1 X20.841 Y104.026 E0.24032
G1 X20.247 Y105.193 E0.11900
G1 X19.103 Y107.581 E0.24075
G1 X18.850 Y107.976 E0.04270
G1 X18.592 Y108.265 E0.03520
G1 X18.283 Y108.514 E0.03611
G1 X17.834 Y108.764 E0.04676
G1 X17.392 Y108.905 E0.04218
G1 X16.949 Y108.964 E0.04064
G1 X16.515 Y108.947 E0.03949
G1 X16.060 Y108.845 E0.04236
G1 X15.715 Y108.708 E0.03380
G1 X15.384 Y108.512 E0.03499
G1 X15.035 Y108.222 E0.04123
G1 X14.706 Y107.823 E0.04703
G1 X14.487 Y107.416 E0.04202
G1 X14.348 Y106.990 E0.04072
G1 X14.287 Y106.514 E0.04364
G1 X14.295 Y106.178 E0.03059
G1 X14.578 Y102.009 E0.37997
G1 X15.106 Y95.081 E0.63173
G1 X15.342 Y92.304 E0.25347
G1 X15.498 Y90.912 E0.12732
G1 X15.680 Y89.528 E0.12692
G1 X15.881 Y88.190 E0.12310
G1 X16.121 Y86.769 E0.13096
G1 X16.380 Y85.394 E0.12725
G1 X16.666 Y84.022 E0.12749
G1 X16.987 Y82.612 E0.13149
G1 X17.664 Y79.982 E0.24694
G1 X18.063 Y78.592 E0.13149
G1 X18.475 Y77.250 E0.12762
G1 X18.913 Y75.918 E0.12750
G1 X19.361 Y74.632 E0.12381
G1 X19.878 Y73.237 E0.13535
G1 X20.893 Y70.717 E0.24697
G1 X21.469 Y69.392 E0.13137
G1 X22.070 Y68.080 E0.13121
G1 X23.265 Y65.652 E0.24609
G1 X23.935 Y64.380 E0.13076
G1 X24.607 Y63.161 E0.12658
G1 X25.279 Y61.992 E0.12257
G1 X26.019 Y60.761 E0.13056
G1 X26.775 Y59.578 E0.12769
G1 X27.565 Y58.416 E0.12783
G1 X28.415 Y57.243 E0.13167
G1 X30.051 Y55.140 E0.24229
G1 X30.209 Y54.872 E0.02827
G1 X30.343 Y54.575 E0.02965
G1 X30.429 Y54.324 E0.02409
G1 X30.501 Y54.025 E0.02801
G1 X30.542 Y53.726 E0.02747
G1 X30.554 Y53.424 E0.02741
G1 X30.535 Y53.117 E0.02800
G1 X30.479 Y52.789 E0.03026
G1 X30.399 Y52.499 E0.02733
G1 X30.193 Y52.018 E0.04756
G1 X30.016 Y51.727 E0.03100
G1 X29.639 Y51.264 E0.05425
G1 X29.406 Y50.937 E0.03656
G1 X29.212 Y50.533 E0.04071
G1 X29.084 Y50.042 E0.04616
G1 X29.062 Y49.788 E0.02322
G1 X28.660 Y49.415 F7800.000
G1 X28.497 Y48.768
G1 F1800.000
G1 X28.422 Y49.638 E0.07947
G1 X28.466 Y50.149 E0.04661
G1 X28.658 Y50.885 E0.06914
G1 X27.894 Y50.693 E0.07162
G1 X27.351 Y50.667 E0.04948
G1 X27.007 Y50.719 E0.03161
G1 X26.882 Y50.484 E0.02417
G1 X28.393 Y48.876 E0.20063
G1 E-2.45000 F4200.00000
G1 F6240.000
G1 X28.422 Y49.638 E-0.48808
G1 X28.466 Y50.149 E-0.32776
G1 X28.538 Y50.424 E-0.18166
G1 E-0.05250 F4200.00000
G1 Z0.550 F7800.000
G1 X14.444 Y109.408
G1 Z0.350
G1 E3.50000 F2400.00000
G1 F1800.000
G1 X15.163 Y109.833 E0.07603
G1 X15.691 Y110.043 E0.05162
G1 X16.352 Y110.191 E0.06156
G1 X17.007 Y110.217 E0.05962
G1 X17.618 Y110.136 E0.05605
G1 X17.052 Y111.534 E0.13712
G1 X16.379 Y113.324 E0.17388
G1 X15.753 Y115.120 E0.17294
G1 X15.174 Y116.920 E0.17196
G1 X14.642 Y118.723 E0.17094
G1 X14.212 Y120.318 E0.15020
G1 X13.880 Y120.266 E0.03061
G1 X14.156 Y114.541 E0.52116
G1 X14.435 Y109.557 E0.45385
G1 E-2.45000 F4200.00000
G1 F6240.000
G1 X15.163 Y109.833 E-0.49787
G1 X15.691 Y110.043 E-0.36302
G1 X15.899 Y110.089 E-0.13661
G1 E-0.05250 F4200.00000
G1 Z0.550 F7800.000
G1 X13.917 Y107.850
G1 Z0.350
G1 E3.50000 F2400.00000
G1 F1800.000
G1 X14.590 Y108.665 E0.09613
G1 X15.023 Y109.024 E0.05110
G1 X15.439 Y109.271 E0.04399
G1 X15.876 Y109.444 E0.04271
G1 X16.433 Y109.569 E0.05196
G1 X16.978 Y109.591 E0.04955
G1 X17.530 Y109.517 E0.05061
G1 X18.083 Y109.340 E0.05288
G1 X18.442 Y109.140 E0.03728
G1 X18.641 Y109.321 E0.02444
G1 X18.349 Y109.993 E0.06665
G1 X17.635 Y111.761 E0.17338
G1 X16.967 Y113.537 E0.17249
G1 X16.346 Y115.318 E0.17156
G1 X15.771 Y117.104 E0.17059
G1 X15.243 Y118.893 E0.16957
G1 X14.761 Y120.682 E0.16852
G1 X14.325 Y122.471 E0.16742
G1 X13.933 Y124.257 E0.16629
G1 X13.586 Y126.040 E0.16516
G1 X13.324 Y127.582 E0.14223
G1 X12.976 Y127.547 E0.03183
G1 X13.238 Y120.597 E0.63241
G1 X13.532 Y114.508 E0.55432
G1 X13.908 Y107.999 E0.59285
G1 E-2.45000 F4200.00000
G1 F6240.000
G1 X14.590 Y108.665 E-0.60968
G1 X15.023 Y109.024 E-0.35936
G1 X15.061 Y109.047 E-0.02846
G1 E-0.05250 F4200.00000
G1 Z0.550 F7800.000
G1 X151.313 Y50.901
G1 Z0.350
G1 E3.50000 F2400.00000
G1 F1800.000
G1 X151.492 Y50.372 E0.05082
G1 X151.576 Y49.792 E0.05328
G1 X151.531 Y48.790 E0.09114
G1 X152.770 Y50.100 E0.16394
G1 X153.373 Y50.766 E0.08168
G1 X152.600 Y50.664 E0.07093
G1 X152.047 Y50.703 E0.05034
G1 X151.458 Y50.862 E0.05553
G1 E-2.45000 F4200.00000
G1 F6240.000
G1 X151.492 Y50.372 E-0.31427
G1 X151.576 Y49.792 E-0.37467
G1 X151.554 Y49.310 E-0.30856
G1 E-0.05250 F4200.00000
G1 Z0.550 F7800.000
G1 X165.554 Y109.358
G1 Z0.350
G1 E3.50000 F2400.00000
G1 F1800.000
G1 X165.871 Y115.032 E0.51674
G1 X166.121 Y120.277 E0.47744
G1 X165.787 Y120.327 E0.03076
G1 X165.567 Y119.476 E0.07991
G1 X165.039 Y117.622 E0.17530
G1 X164.462 Y115.770 E0.17640
G1 X163.835 Y113.922 E0.17745
G1 X163.158 Y112.080 E0.17846
G1 X162.385 Y110.129 E0.19080
G1 X162.817 Y110.205 E0.03983
G1 X163.483 Y110.209 E0.06059
G1 X164.160 Y110.086 E0.06257
G1 X164.685 Y109.903 E0.05051
G1 X165.192 Y109.634 E0.05227
G1 X165.435 Y109.449 E0.02769
G1 X166.103 Y108.172 F7800.000
G1 F1800.000
G1 X166.495 Y115.000 E0.62185
G1 X166.763 Y120.626 E0.51218
G1 X167.024 Y127.544 E0.62952
G1 X166.674 Y127.577 E0.03202
G1 X166.247 Y125.153 E0.22385
G1 X165.866 Y123.318 E0.17039
G1 X165.439 Y121.480 E0.17160
G1 X164.964 Y119.640 E0.17277
G1 X164.440 Y117.801 E0.17390
G1 X163.867 Y115.963 E0.17499
G1 X163.245 Y114.130 E0.17604
G1 X162.574 Y112.302 E0.17704
G1 X161.853 Y110.482 E0.17799
G1 X161.363 Y109.330 E0.11393
G1 X161.569 Y109.151 E0.02484
G1 X161.777 Y109.277 E0.02211
G1 X162.376 Y109.492 E0.05790
G1 X162.873 Y109.580 E0.04591
G1 X163.429 Y109.584 E0.05050
G1 X164.001 Y109.480 E0.05285
G1 X164.434 Y109.329 E0.04172
G1 X164.854 Y109.106 E0.04325
G1 X165.338 Y108.736 E0.05537
G1 X165.680 Y108.357 E0.04642
G1 X165.839 Y108.105 E0.02715
G1 X165.958 Y108.135 E0.01114
G1 E-2.45000 F4200.00000
G1 F6240.000
G1 X166.080 Y109.690 E-0.99750
G1 E-0.05250 F4200.00000
G1 Z0.550 F7800.000
G1 X64.043 Y26.037
G1 Z0.350
G1 E3.50000 F2400.00000
G1 F1800.000
G1 X66.067 Y25.432 E0.19209
G1 X67.793 Y24.952 E0.16289
G1 X69.512 Y24.512 E0.16131
G1 X71.231 Y24.110 E0.16059
G1 X72.951 Y23.744 E0.15984
G1 X74.669 Y23.416 E0.15907
G1 X76.385 Y23.123 E0.15826
G1 X78.097 Y22.867 E0.15744
G1 X79.805 Y22.646 E0.15658
G1 X81.507 Y22.460 E0.15569
G1 X83.294 Y22.302 E0.16311
G1 X85.077 Y22.181 E0.16256
G1 X86.850 Y22.098 E0.16135
G1 X88.583 Y22.052 E0.15766
G1 X89.999 Y22.041 E0.12877
G1 X91.630 Y22.056 E0.14829
G1 X93.474 Y22.111 E0.16773
G1 X95.280 Y22.202 E0.16444
G1 X97.064 Y22.331 E0.16265
G1 X98.794 Y22.491 E0.15801
G1 X100.531 Y22.687 E0.15895
G1 X102.274 Y22.919 E0.15985
G1 X104.021 Y23.189 E0.16074
G1 X105.771 Y23.496 E0.16159
G1 X107.524 Y23.842 E0.16242
G1 X109.277 Y24.225 E0.16322
G1 X111.031 Y24.647 E0.16398
G1 X112.782 Y25.107 E0.16467
G1 X115.957 Y26.031 E0.30068
G1 X115.957 Y21.704 E0.39345
G1 X117.231 Y21.704 E0.11584
G1 X117.231 Y26.455 E0.43195
G1 X119.752 Y27.341 E0.24296
G1 X121.478 Y27.997 E0.16791
G1 X123.195 Y28.693 E0.16846
G1 X124.885 Y29.419 E0.16725
G1 X126.547 Y30.177 E0.16613
G1 X128.197 Y30.971 E0.16654
G1 X129.834 Y31.803 E0.16691
G1 X131.456 Y32.671 E0.16725
G1 X133.061 Y33.575 E0.16754
G1 X134.650 Y34.514 E0.16780
G1 X136.220 Y35.489 E0.16803
G1 X137.770 Y36.498 E0.16821
G1 X139.300 Y37.541 E0.16836
G1 X140.807 Y38.617 E0.16846
G1 X142.292 Y39.727 E0.16853
G1 X143.753 Y40.868 E0.16856
G1 X145.189 Y42.040 E0.16855
G1 X146.599 Y43.242 E0.16850
G1 X147.983 Y44.474 E0.16841
G1 X149.338 Y45.734 E0.16828
G1 X150.665 Y47.022 E0.16812
G1 X151.962 Y48.336 E0.16792
G1 X153.229 Y49.676 E0.16767
G1 X154.464 Y51.040 E0.16739
G1 X155.669 Y52.428 E0.16708
G1 X156.840 Y53.838 E0.16672
G1 X157.979 Y55.270 E0.16633
G1 X159.085 Y56.721 E0.16590
G1 X160.156 Y58.192 E0.16544
G1 X161.194 Y59.680 E0.16494
G1 X162.196 Y61.185 E0.16441
G1 X163.163 Y62.705 E0.16385
G1 X164.095 Y64.240 E0.16325
G1 X164.992 Y65.787 E0.16262
G1 X165.852 Y67.347 E0.16196
G1 X166.677 Y68.917 E0.16127
G1 X167.466 Y70.496 E0.16055
G1 X168.218 Y72.084 E0.15977
G1 X169.339 Y74.608 E0.25111
G1 X174.162 Y74.608 E0.43855
G1 X174.162 Y75.882 E0.11584
G1 X169.870 Y75.882 E0.39028
G1 X170.871 Y78.497 E0.25461
G1 X171.445 Y80.110 E0.15564
G1 X172.012 Y81.812 E0.16310
G1 X172.542 Y83.519 E0.16258
G1 X172.942 Y84.911 E0.13169
