; generated by PrusaSlicer 2.2.0+win64 on 2020-04-30 at 15:45:10 UTC

; 

; external perimeters extrusion width = 0.90mm
; perimeters extrusion width = 0.90mm
; infill extrusion width = 0.90mm
; solid infill extrusion width = 0.90mm
; top infill extrusion width = 0.80mm
; first layer extrusion width = 0.70mm

M73 P0 R73
M201 X9000 Y9000 Z500 E10000 ; sets maximum accelerations, mm/sec^2
M203 X500 Y500 Z12 E120 ; sets maximum feedrates, mm/sec
M204 P2000 R1500 T2000 ; sets acceleration (P, T) and retract acceleration (R), mm/sec^2
M205 X10.00 Y10.00 Z0.20 E4.50 ; sets the jerk limits, mm/sec
M205 S0 T0 ; sets the minimum extruding and travel feed rate, mm/sec
M107
M862.3 P "MK2.5S" ; printer model check
M862.1 P0.8 ; nozzle diameter check
M115 U3.8.1 ; tell printer latest fw version
G90 ; use absolute coordinates
M83 ; extruder relative mode
M104 S220 ; set extruder temp
M140 S80 ; set bed temp
M190 S80 ; wait for bed temp
M109 S220 ; wait for extruder temp
G28 W ; home all without mesh bed level
G80 ; mesh bed leveling
G1 Y-3.0 F1000.0 ; go outside print area
G92 E0.0
G1 X60.0 E9.0 F1000.0 ; intro line
M73 P0 R73
G1 X100.0 E12.5 F1000.0 ; intro line
G92 E0.0
G21 ; set units to millimeters
G90 ; use absolute coordinates
M83 ; use relative distances for extrusion
M900 K30 ; Filament gcode
;BEFORE_LAYER_CHANGE
G92 E0.0
;0.35


G1 E-0.80000 F2100.00000
G1 Z0.600 F7800.000
;AFTER_LAYER_CHANGE
;0.35
G1 X41.983 Y171.870
G1 Z0.350
G1 E0.80000 F2100.00000
G1 F1800.000
G1 X42.854 Y171.945 E0.07947
G1 X43.365 Y171.901 E0.04661
G1 X44.100 Y171.709 E0.06914
G1 X43.909 Y172.473 E0.07162
G1 X43.882 Y173.016 E0.04948
G1 X43.934 Y173.360 E0.03161
G1 X43.699 Y173.485 E0.02417
G1 X42.070 Y171.953 E0.20336
G1 F6240.000
G1 X42.854 Y171.945 E-0.25078
G1 X43.365 Y171.901 E-0.16388
G1 X44.100 Y171.709 E-0.24308
G1 X44.022 Y172.019 E-0.10225
G1 E-0.04000 F2100.00000
G1 Z0.950 F7800.000
G1 X102.609 Y185.923
G1 Z0.350
G1 E0.80000 F2100.00000
G1 F1800.000
G1 X103.073 Y185.153 E0.08175
G1 X103.281 Y184.606 E0.05322
G1 X103.407 Y184.003 E0.05596
G1 X103.433 Y183.366 E0.05798
G1 X103.355 Y182.751 E0.05639
G1 X104.750 Y183.315 E0.13676
G1 X106.539 Y183.988 E0.17388
G1 X108.335 Y184.614 E0.17294
G1 X110.136 Y185.193 E0.17196
G1 X111.939 Y185.725 E0.17094
G1 X113.534 Y186.155 E0.15020
G1 X113.481 Y186.488 E0.03061
G1 X107.757 Y186.211 E0.52116
G1 X102.729 Y185.930 E0.45787
G1 F6240.000
G1 X103.073 Y185.153 E-0.27163
G1 X103.281 Y184.606 E-0.18713
G1 X103.407 Y184.003 E-0.19676
G1 X103.420 Y183.677 E-0.10448
G1 E-0.04000 F2100.00000
G1 Z0.950 F7800.000
G1 X101.052 Y186.449
G1 Z0.350
G1 E0.80000 F2100.00000
G1 F1800.000
G1 X101.821 Y185.837 E0.08937
G1 X102.165 Y185.450 E0.04711
G1 X102.509 Y184.878 E0.06065
G1 X102.680 Y184.430 E0.04364
G1 X102.785 Y183.926 E0.04675
G1 X102.806 Y183.393 E0.04855
G1 X102.745 Y182.902 E0.04495
G1 X102.562 Y182.299 E0.05730
G1 X102.362 Y181.925 E0.03859
G1 X102.543 Y181.729 E0.02420
G1 X103.209 Y182.018 E0.06603
G1 X104.977 Y182.732 E0.17338
G1 X106.752 Y183.400 E0.17249
G1 X108.534 Y184.021 E0.17156
G1 X110.320 Y184.596 E0.17059
G1 X112.108 Y185.124 E0.16957
G1 X113.898 Y185.606 E0.16852
G1 X115.687 Y186.042 E0.16742
G1 X117.473 Y186.434 E0.16629
G1 X119.256 Y186.781 E0.16516
G1 X120.798 Y187.043 E0.14223
G1 X120.763 Y187.392 E0.03183
G1 X113.813 Y187.129 E0.63241
G1 X107.724 Y186.835 E0.55432
G1 X101.171 Y186.456 E0.59683
G1 F6240.000
G1 X101.821 Y185.837 E-0.28697
G1 X102.165 Y185.450 E-0.16565
G1 X102.509 Y184.878 E-0.21326
G1 X102.614 Y184.603 E-0.09413
G1 E-0.04000 F2100.00000
G1 Z0.950 F7800.000
G1 X44.117 Y49.054
G1 Z0.350
G1 E0.80000 F2100.00000
G1 F1800.000
G1 X43.587 Y48.875 E0.05082
G1 X43.007 Y48.792 E0.05328
G1 X42.006 Y48.836 E0.09114
G1 X43.316 Y47.597 E0.16394
G1 X43.982 Y46.994 E0.08168
G1 X43.880 Y47.767 E0.07093
G1 X43.918 Y48.320 E0.05034
G1 X44.085 Y48.938 E0.05826
G1 F6240.000
G1 X43.587 Y48.875 E-0.16054
G1 X43.007 Y48.792 E-0.18733
G1 X42.006 Y48.836 E-0.32046
G1 X42.214 Y48.639 E-0.09167
G1 E-0.04000 F2100.00000
G1 Z0.950 F7800.000
G1 X41.753 Y49.665
G1 Z0.350
G1 E0.80000 F2100.00000
G1 F1800.000
G1 X42.007 Y49.561 E0.02495
G1 X42.497 Y49.440 E0.04595
G1 X42.977 Y49.418 E0.04361
G1 X43.442 Y49.485 E0.04272
G1 X43.885 Y49.635 E0.04255
G1 X44.272 Y49.849 E0.04022
G1 X44.803 Y50.283 E0.06232
G1 X45.067 Y50.465 E0.02921
G1 X45.536 Y50.701 E0.04769
G1 X45.850 Y50.808 E0.03019
G1 X46.183 Y50.881 E0.03102
G1 X46.449 Y50.913 E0.02436
G1 X46.759 Y50.920 E0.02816
G1 X47.060 Y50.897 E0.02742
G1 X47.323 Y50.851 E0.02430
G1 X47.673 Y50.753 E0.03306
G1 X48.144 Y50.546 E0.04681
G1 X48.405 Y50.386 E0.02776
G1 X50.524 Y48.733 E0.24442
G1 X51.699 Y47.885 E0.13171
G1 X52.862 Y47.097 E0.12782
G1 X54.046 Y46.343 E0.12764
G1 X55.248 Y45.623 E0.12735
G1 X56.460 Y44.927 E0.12710
G1 X57.645 Y44.276 E0.12298
G1 X58.919 Y43.606 E0.13087
G1 X60.170 Y42.978 E0.12725
G1 X61.433 Y42.373 E0.12736
G1 X62.669 Y41.809 E0.12358
G1 X63.994 Y41.233 E0.13136
G1 X65.292 Y40.699 E0.12754
G1 X66.639 Y40.174 E0.13152
G1 X69.199 Y39.258 E0.24725
G1 X70.575 Y38.808 E0.13159
G1 X71.917 Y38.397 E0.12765
G1 X73.266 Y38.012 E0.12751
G1 X74.580 Y37.662 E0.12366
G1 X75.982 Y37.317 E0.13126
G1 X77.305 Y37.018 E0.12340
G1 X78.757 Y36.718 E0.13482
G1 X80.089 Y36.469 E0.12320
G1 X81.465 Y36.238 E0.12686
G1 X82.842 Y36.033 E0.12658
G1 X84.220 Y35.854 E0.12641
G1 X85.602 Y35.701 E0.12641
G1 X89.762 Y35.356 E0.37956
G1 X93.960 Y35.036 E0.38286
G1 X99.484 Y34.656 E0.50343
G1 X99.890 Y34.663 E0.03691
G1 X100.325 Y34.746 E0.04025
G1 X100.756 Y34.911 E0.04195
G1 X101.146 Y35.148 E0.04158
G1 X101.526 Y35.496 E0.04680
G1 X101.765 Y35.804 E0.03545
G1 X101.970 Y36.184 E0.03928
G1 X102.105 Y36.577 E0.03778
G1 X102.174 Y36.995 E0.03854
G1 X102.171 Y37.437 E0.04018
G1 X102.102 Y37.829 E0.03623
G1 X101.926 Y38.319 E0.04735
G1 X101.689 Y38.710 E0.04151
G1 X101.434 Y39.004 E0.03544
G1 X101.060 Y39.315 E0.04421
G1 X100.755 Y39.489 E0.03188
G1 X98.216 Y40.710 E0.25626
G1 X96.953 Y41.359 E0.12911
G1 X94.602 Y42.646 E0.24371
G1 X92.276 Y44.026 E0.24592
G1 X90.012 Y45.478 E0.24449
G1 X88.847 Y46.268 E0.12802
G1 X87.725 Y47.060 E0.12493
G1 X85.507 Y48.714 E0.25153
G1 X83.337 Y50.456 E0.25308
G1 X82.272 Y51.358 E0.12687
G1 X81.220 Y52.283 E0.12734
G1 X80.183 Y53.228 E0.12761
G1 X79.160 Y54.195 E0.12799
G1 X78.157 Y55.177 E0.12767
G1 X77.153 Y56.198 E0.13015
G1 X75.299 Y58.184 E0.24711
G1 X74.372 Y59.232 E0.12717
G1 X73.437 Y60.328 E0.13109
G1 X71.673 Y62.514 E0.25535
G1 X70.820 Y63.631 E0.12784
G1 X69.987 Y64.765 E0.12793
G1 X69.173 Y65.914 E0.12800
G1 X68.381 Y67.078 E0.12804
G1 X67.610 Y68.256 E0.12802
G1 X66.859 Y69.448 E0.12810
G1 X66.132 Y70.651 E0.12786
G1 X64.759 Y73.067 E0.25266
G1 X64.063 Y74.376 E0.13478
G1 X62.827 Y76.856 E0.25202
G1 X62.236 Y78.126 E0.12734
G1 X61.669 Y79.406 E0.12728
G1 X61.125 Y80.694 E0.12717
G1 X60.605 Y81.988 E0.12678
G1 X59.638 Y84.600 E0.25325
G1 X58.768 Y87.233 E0.25213
G1 X57.996 Y89.882 E0.25088
G1 X57.322 Y92.542 E0.24953
G1 X56.744 Y95.208 E0.24803
G1 X56.264 Y97.874 E0.24640
G1 X55.878 Y100.537 E0.24463
G1 X55.587 Y103.191 E0.24274
G1 X55.388 Y105.831 E0.24073
G1 X55.278 Y108.517 E0.24449
G1 X55.259 Y111.058 E0.23103
G1 X55.284 Y112.464 E0.12789
G1 X55.334 Y113.842 E0.12533
G1 X55.504 Y116.575 E0.24901
G1 X55.765 Y119.261 E0.24543
G1 X56.117 Y121.922 E0.24404
G1 X56.578 Y124.661 E0.25252
G1 X57.124 Y127.329 E0.24771
G1 X57.456 Y128.754 E0.13299
G1 X58.151 Y131.414 E0.25002
G1 X58.541 Y132.756 E0.12705
G1 X58.955 Y134.095 E0.12751
G1 X59.395 Y135.430 E0.12777
G1 X59.860 Y136.761 E0.12818
G1 X60.851 Y139.366 E0.25349
G1 X61.923 Y141.909 E0.25091
G1 X62.517 Y143.220 E0.13087
G1 X63.103 Y144.451 E0.12392
G1 X63.763 Y145.778 E0.13479
G1 X65.068 Y148.227 E0.25234
G1 X65.761 Y149.450 E0.12783
G1 X66.478 Y150.662 E0.12802
G1 X67.217 Y151.860 E0.12801
G1 X67.978 Y153.046 E0.12814
G1 X68.759 Y154.217 E0.12797
G1 X69.562 Y155.374 E0.12806
G1 X70.384 Y156.516 E0.12797
G1 X71.227 Y157.642 E0.12789
G1 X72.090 Y158.752 E0.12780
G1 X72.996 Y159.874 E0.13116
G1 X74.790 Y161.980 E0.25161
G1 X75.725 Y163.019 E0.12707
G1 X76.705 Y164.069 E0.13063
G1 X77.647 Y165.043 E0.12320
G1 X78.661 Y166.054 E0.13016
G1 X79.660 Y167.016 E0.12618
G1 X81.650 Y168.833 E0.24493
G1 X82.721 Y169.761 E0.12887
G1 X83.776 Y170.641 E0.12496
G1 X85.926 Y172.342 E0.24925
G1 X88.120 Y173.956 E0.24766
G1 X90.353 Y175.482 E0.24595
G1 X92.621 Y176.919 E0.24415
G1 X94.918 Y178.267 E0.24222
G1 X97.275 Y179.543 E0.24371
G1 X98.408 Y180.120 E0.11561
G1 X100.794 Y181.263 E0.24050
G1 X101.147 Y181.481 E0.03777
G1 X101.481 Y181.775 E0.04043
G1 X101.767 Y182.137 E0.04197
G1 X101.982 Y182.539 E0.04146
G1 X102.131 Y183.033 E0.04691
G1 X102.180 Y183.420 E0.03544
G1 X102.163 Y183.849 E0.03913
G1 X102.078 Y184.254 E0.03754
G1 X101.945 Y184.604 E0.03405
G1 X101.659 Y185.078 E0.05032
G1 X101.389 Y185.382 E0.03696
G1 X101.036 Y185.663 E0.04108
G1 X100.633 Y185.879 E0.04162
G1 X100.261 Y186.003 E0.03561
G1 X99.726 Y186.081 E0.04921
G1 X96.613 Y185.886 E0.28363
G1 X91.068 Y185.481 E0.50554
G1 X85.563 Y185.029 E0.50223
G1 X84.128 Y184.869 E0.13128
G1 X82.744 Y184.687 E0.12693
G1 X81.363 Y184.480 E0.12696
G1 X79.985 Y184.246 E0.12711
G1 X78.652 Y183.995 E0.12338
G1 X77.237 Y183.702 E0.13134
G1 X75.870 Y183.390 E0.12750
G1 X74.467 Y183.043 E0.13144
G1 X71.849 Y182.317 E0.24703
G1 X70.466 Y181.892 E0.13159
G1 X69.092 Y181.440 E0.13152
G1 X66.534 Y180.520 E0.24719
G1 X65.187 Y179.993 E0.13153
G1 X63.852 Y179.440 E0.13137
G1 X61.375 Y178.334 E0.24665
G1 X60.075 Y177.710 E0.13111
G1 X58.828 Y177.082 E0.12696
G1 X57.595 Y176.432 E0.12673
G1 X56.413 Y175.780 E0.12278
G1 X55.172 Y175.067 E0.13015
G1 X53.977 Y174.348 E0.12678
G1 X52.794 Y173.592 E0.12768
G1 X51.631 Y172.802 E0.12783
G1 X50.459 Y171.952 E0.13167
G1 X48.356 Y170.316 E0.24229
G1 X48.088 Y170.158 E0.02827
G1 X47.791 Y170.024 E0.02965
G1 X47.540 Y169.938 E0.02409
G1 X47.241 Y169.866 E0.02801
G1 X46.941 Y169.825 E0.02747
G1 X46.640 Y169.813 E0.02741
G1 X46.333 Y169.833 E0.02800
G1 X46.005 Y169.888 E0.03026
G1 X45.715 Y169.968 E0.02733
G1 X45.234 Y170.174 E0.04756
G1 X44.943 Y170.351 E0.03100
G1 X44.480 Y170.728 E0.05425
G1 X44.152 Y170.961 E0.03656
G1 X43.749 Y171.155 E0.04071
G1 X43.258 Y171.283 E0.04616
G1 X42.854 Y171.318 E0.03685
G1 X42.407 Y171.280 E0.04076
G1 X42.020 Y171.177 E0.03645
G1 X41.561 Y170.969 E0.04586
G1 X41.198 Y170.711 E0.04048
G1 X39.743 Y169.233 E0.18859
G1 X37.878 Y167.215 E0.24980
G1 X36.891 Y166.092 E0.13597
G1 X35.149 Y164.009 E0.24691
G1 X34.268 Y162.902 E0.12866
G1 X32.672 Y160.797 E0.24015
G1 X31.128 Y158.622 E0.24261
G1 X30.340 Y157.454 E0.12810
G1 X28.881 Y155.174 E0.24608
G1 X28.141 Y153.953 E0.12992
G1 X26.776 Y151.573 E0.24945
G1 X26.087 Y150.300 E0.13163
G1 X24.826 Y147.825 E0.25255
G1 X24.194 Y146.504 E0.13316
G1 X23.583 Y145.168 E0.13356
G1 X22.491 Y142.615 E0.25248
G1 X21.925 Y141.195 E0.13902
G1 X20.940 Y138.523 E0.25893
G1 X20.458 Y137.105 E0.13625
G1 X19.618 Y134.415 E0.25616
G1 X18.869 Y131.703 E0.25589
G1 X18.512 Y130.268 E0.13445
G1 X18.188 Y128.867 E0.13079
G1 X17.619 Y126.090 E0.25777
G1 X17.349 Y124.580 E0.13944
G1 X16.927 Y121.807 E0.25504
G1 X16.740 Y120.324 E0.13590
G1 X16.578 Y118.837 E0.13604
G1 X16.345 Y116.031 E0.25602
G1 X16.258 Y114.534 E0.13637
G1 X16.198 Y113.035 E0.13639
G1 X16.156 Y110.170 E0.26054
G1 X16.211 Y107.305 E0.26056
G1 X16.278 Y105.806 E0.13641
G1 X16.369 Y104.353 E0.13240
G1 X16.618 Y101.505 E0.25992
G1 X16.787 Y100.019 E0.13601
G1 X16.981 Y98.538 E0.13586
G1 X17.416 Y95.768 E0.25495
G1 X17.692 Y94.260 E0.13938
G1 X18.264 Y91.528 E0.25378
G1 X18.603 Y90.087 E0.13463
G1 X18.967 Y88.655 E0.13434
G1 X19.728 Y85.948 E0.25573
G1 X20.574 Y83.280 E0.25446
G1 X21.050 Y81.900 E0.13276
G1 X21.547 Y80.532 E0.13233
G1 X22.557 Y77.958 E0.25147
G1 X23.117 Y76.628 E0.13122
G1 X24.241 Y74.130 E0.24903
G1 X24.859 Y72.843 E0.12981
G1 X26.089 Y70.431 E0.24625
G1 X26.761 Y69.189 E0.12835
G1 X28.090 Y66.866 E0.24338
G1 X29.480 Y64.605 E0.24130
G1 X30.253 Y63.413 E0.12924
G1 X31.765 Y61.197 E0.24393
G1 X33.434 Y58.916 E0.25699
G1 X35.113 Y56.768 E0.24789
G1 X36.845 Y54.694 E0.24570
G1 X37.793 Y53.614 E0.13070
G1 X39.587 Y51.665 E0.24080
G1 X41.082 Y50.130 E0.19486
G1 X41.483 Y49.814 E0.04642
G1 X41.648 Y49.723 E0.01714
G1 X41.770 Y49.391 F7800.000
G1 F6240.000
G1 X42.007 Y49.561 E-0.12592
G1 X42.497 Y49.440 E-0.16156
G1 X42.977 Y49.418 E-0.15334
G1 X43.442 Y49.485 E-0.15021
G1 X43.885 Y49.635 E-0.14960
G1 X43.938 Y49.664 E-0.01938
G1 E-0.04000 F2100.00000
G1 Z0.950 F7800.000
G1 X102.578 Y34.813
G1 Z0.350
G1 E0.80000 F2100.00000
G1 F1800.000
G1 X108.248 Y34.496 E0.51632
G1 X113.492 Y34.246 E0.47744
G1 X113.543 Y34.581 E0.03076
G1 X112.692 Y34.800 E0.07991
G1 X110.838 Y35.328 E0.17530
G1 X108.986 Y35.906 E0.17640
G1 X107.138 Y36.532 E0.17745
G1 X105.295 Y37.209 E0.17846
G1 X103.344 Y37.982 E0.19080
G1 X103.421 Y37.550 E0.03983
G1 X103.424 Y36.896 E0.05952
G1 X103.321 Y36.271 E0.05759
G1 X103.120 Y35.682 E0.05661
G1 X102.816 Y35.119 E0.05819
G1 X102.652 Y34.908 E0.02428
G1 F6240.000
G1 X105.023 Y34.733 E-0.76000
G1 E-0.04000 F2100.00000
G1 Z0.950 F7800.000
G1 X101.398 Y34.263
G1 Z0.350
G1 E0.80000 F2100.00000
G1 F1800.000
G1 X108.215 Y33.872 E0.62088
G1 X113.841 Y33.604 E0.51218
G1 X120.760 Y33.343 E0.62952
G1 X120.793 Y33.693 E0.03202
G1 X118.368 Y34.120 E0.22385
G1 X116.533 Y34.501 E0.17039
G1 X114.695 Y34.928 E0.17160
G1 X112.856 Y35.403 E0.17277
G1 X111.016 Y35.927 E0.17390
G1 X109.179 Y36.500 E0.17499
G1 X107.346 Y37.122 E0.17604
G1 X105.518 Y37.793 E0.17704
G1 X103.698 Y38.514 E0.17799
G1 X102.545 Y39.004 E0.11393
G1 X102.366 Y38.798 E0.02484
G1 X102.492 Y38.590 E0.02211
G1 X102.708 Y37.991 E0.05790
G1 X102.796 Y37.494 E0.04591
G1 X102.799 Y36.946 E0.04985
G1 X102.713 Y36.424 E0.04807
G1 X102.545 Y35.933 E0.04719
G1 X102.290 Y35.461 E0.04873
G1 X101.987 Y35.071 E0.04497
G1 X101.523 Y34.646 E0.05718
G1 X101.333 Y34.530 E0.02026
G1 X101.370 Y34.380 E0.01410
G1 F6240.000
G1 X103.740 Y34.204 E-0.76000
G1 E-0.04000 F2100.00000
G1 Z0.950 F7800.000
G1 X69.098 Y30.497
G1 Z0.350
G1 E0.80000 F2100.00000
G1 F1800.000
G1 X71.713 Y29.496 E0.25461
G1 X73.325 Y28.922 E0.15564
G1 X75.027 Y28.355 E0.16310
G1 X76.735 Y27.825 E0.16258
G1 X78.127 Y27.425 E0.13169
G1 X78.336 Y28.302 E0.08194
G1 X76.618 Y28.801 E0.16270
G1 X74.158 Y29.589 E0.23487
G1 X71.716 Y30.454 E0.23556
G1 X69.298 Y31.395 E0.23597
G1 X66.911 Y32.408 E0.23575
G1 X64.554 Y33.494 E0.23597
G1 X62.230 Y34.652 E0.23608
G1 X59.943 Y35.880 E0.23608
G1 X57.695 Y37.176 E0.23597
G1 X55.489 Y38.540 E0.23575
G1 X53.329 Y39.967 E0.23542
G1 X51.218 Y41.457 E0.23499
G1 X49.157 Y43.006 E0.23444
G1 X47.150 Y44.612 E0.23373
G1 X45.174 Y46.292 E0.23581
G1 X44.912 Y46.595 E0.03644
G1 X44.703 Y46.956 E0.03797
G1 X44.563 Y47.365 E0.03926
G1 X44.508 Y47.787 E0.03870
G1 X44.537 Y48.215 E0.03907
G1 X44.647 Y48.621 E0.03824
G1 X44.826 Y48.988 E0.03709
G1 X45.088 Y49.330 E0.03918
G1 X45.353 Y49.573 E0.03265
G1 X45.705 Y49.794 E0.03785
G1 X46.109 Y49.948 E0.03926
G1 X46.526 Y50.019 E0.03848
G1 X47.008 Y49.996 E0.04387
G1 X47.367 Y49.910 E0.03363
G1 X47.694 Y49.767 E0.03240
G1 X48.032 Y49.543 E0.03689
G1 X49.474 Y48.398 E0.16739
G1 X50.895 Y47.352 E0.16047
G1 X52.437 Y46.299 E0.16976
G1 X53.974 Y45.333 E0.16507
G1 X55.706 Y44.319 E0.18247
G1 X57.633 Y43.262 E0.19988
G1 X59.506 Y42.302 E0.19139
G1 X61.409 Y41.392 E0.19178
G1 X63.339 Y40.535 E0.19205
G1 X65.291 Y39.732 E0.19191
G1 X67.266 Y38.983 E0.19206
G1 X69.261 Y38.289 E0.19213
G1 X71.275 Y37.651 E0.19213
G1 X73.306 Y37.069 E0.19205
G1 X75.350 Y36.544 E0.19191
G1 X77.406 Y36.077 E0.19168
G1 X79.470 Y35.668 E0.19139
G1 X81.541 Y35.316 E0.19102
G1 X83.617 Y35.023 E0.19058
G1 X85.692 Y34.788 E0.18995
G1 X91.305 Y34.333 E0.51202
G1 X96.928 Y33.924 E0.51263
G1 X102.554 Y33.563 E0.51264
G1 X108.183 Y33.248 E0.51264
G1 X113.814 Y32.979 E0.51265
G1 X119.448 Y32.758 E0.51265
G1 X125.083 Y32.584 E0.51266
G1 X130.883 Y32.453 E0.52750
G1 X136.356 Y32.376 E0.49769
G1 X141.911 Y32.342 E0.50516
G1 X149.834 Y32.375 E0.72040
G1 X149.834 Y33.315 E0.08540
G1 X133.183 Y33.315 E1.51404
G1 X131.334 Y33.337 E0.16816
