; generated by PrusaSlicer 2.2.0+win64 on 2020-04-21 at 20:39:10 UTC

; 

; external perimeters extrusion width = 0.90mm
; perimeters extrusion width = 0.90mm
; infill extrusion width = 0.90mm
; solid infill extrusion width = 0.90mm
; top infill extrusion width = 0.80mm
; first layer extrusion width = 0.70mm

M73 P0 R62
M201 X9000 Y9000 Z500 E10000 ; sets maximum accelerations, mm/sec^2
M203 X500 Y500 Z12 E120 ; sets maximum feedrates, mm/sec
M204 P2000 R1500 T2000 ; sets acceleration (P, T) and retract acceleration (R), mm/sec^2
M205 X10.00 Y10.00 Z0.20 E4.50 ; sets the jerk limits, mm/sec
M205 S0 T0 ; sets the minimum extruding and travel feed rate, mm/sec
M107
M862.3 P "MK2.5S" ; printer model check
M862.1 P0.8 ; nozzle diameter check
M115 U3.8.1 ; tell printer latest fw version
G90 ; use absolute coordinates
M83 ; extruder relative mode
M104 S220 ; set extruder temp
M140 S80 ; set bed temp
M190 S80 ; wait for bed temp
M109 S220 ; wait for extruder temp
G28 W ; home all without mesh bed level
G80 ; mesh bed leveling
G1 Y-3.0 F1000.0 ; go outside print area
G92 E0.0
G1 X60.0 E9.0 F1000.0 ; intro line
M73 P0 R61
G1 X100.0 E12.5 F1000.0 ; intro line
G92 E0.0
G21 ; set units to millimeters
G90 ; use absolute coordinates
M83 ; use relative distances for extrusion
M900 K30 ; Filament gcode
;BEFORE_LAYER_CHANGE
G92 E0.0
;0.35


G1 E-0.80000 F2100.00000
G1 Z0.600 F7800.000
;AFTER_LAYER_CHANGE
;0.35
G1 X43.541 Y45.545
G1 Z0.350
G1 E0.80000 F2100.00000
G1 F1800.000
G1 X44.413 Y44.684 E0.11140
G1 X45.849 Y43.314 E0.18049
G1 X47.313 Y41.969 E0.18078
G1 X48.803 Y40.649 E0.18105
G1 X50.319 Y39.354 E0.18128
G1 X51.860 Y38.086 E0.18149
G1 X53.426 Y36.845 E0.18166
G1 X55.015 Y35.632 E0.18181
G1 X56.628 Y34.447 E0.18192
G1 X58.262 Y33.292 E0.18201
G1 X59.918 Y32.166 E0.18206
G1 X61.595 Y31.071 E0.18208
G1 X63.291 Y30.007 E0.18208
G1 X65.006 Y28.974 E0.18204
G1 X66.739 Y27.974 E0.18197
G1 X68.489 Y27.005 E0.18187
G1 X70.255 Y26.070 E0.18174
G1 X72.037 Y25.168 E0.18158
G1 X73.833 Y24.299 E0.18139
G1 X75.642 Y23.465 E0.18117
G1 X77.464 Y22.665 E0.18092
G1 X79.297 Y21.899 E0.18064
G1 X81.140 Y21.168 E0.18033
G1 X82.994 Y20.472 E0.18000
G1 X84.855 Y19.810 E0.17963
G1 X86.724 Y19.184 E0.17924
G1 X88.600 Y18.593 E0.17882
G1 X90.479 Y18.038 E0.17816
G1 X94.096 Y17.053 E0.34093
G1 X98.047 Y16.166 E0.36813
G1 X99.938 Y15.787 E0.17537
G1 X101.832 Y15.441 E0.17512
G1 X103.726 Y15.131 E0.17450
G1 X105.618 Y14.854 E0.17384
G1 X107.507 Y14.611 E0.17317
G1 X109.392 Y14.403 E0.17247
G1 X111.273 Y14.227 E0.17176
G1 X113.148 Y14.085 E0.17102
G1 X115.017 Y13.975 E0.17026
G1 X116.879 Y13.898 E0.16944
G1 X118.829 Y13.852 E0.17732
G1 X120.585 Y13.839 E0.15974
G1 X122.533 Y13.859 E0.17717
G1 X124.490 Y13.913 E0.17800
G1 X126.456 Y14.004 E0.17890
G1 X128.399 Y14.128 E0.17708
G1 X130.303 Y14.283 E0.17367
G1 X132.212 Y14.473 E0.17444
G1 X134.125 Y14.697 E0.17517
G1 X136.042 Y14.956 E0.17588
G1 X137.961 Y15.250 E0.17656
G1 X139.882 Y15.579 E0.17723
G1 X141.804 Y15.944 E0.17786
G1 X143.726 Y16.345 E0.17849
G1 X146.743 Y17.033 E0.28138
G1 X149.462 Y17.759 E0.25595
G1 X151.389 Y18.309 E0.18216
G1 X153.294 Y18.890 E0.18111
G1 X155.193 Y19.508 E0.18157
G1 X157.084 Y20.162 E0.18200
G1 X158.955 Y20.847 E0.18114
G1 X160.803 Y21.562 E0.18021
G1 X162.642 Y22.312 E0.18054
G1 X164.469 Y23.097 E0.18083
G1 X166.284 Y23.916 E0.18109
G1 X168.087 Y24.770 E0.18133
G1 X169.875 Y25.657 E0.18153
G1 X171.649 Y26.577 E0.18171
G1 X173.407 Y27.531 E0.18185
G1 X175.148 Y28.517 E0.18196
G1 X176.872 Y29.535 E0.18204
G1 X178.577 Y30.585 E0.18210
G1 X180.263 Y31.667 E0.18212
G1 X181.928 Y32.779 E0.18211
G1 X183.573 Y33.921 E0.18207
G1 X185.196 Y35.092 E0.18200
G1 X186.796 Y36.293 E0.18190
G1 X188.372 Y37.522 E0.18176
G1 X189.925 Y38.778 E0.18160
G1 X191.453 Y40.061 E0.18141
G1 X192.955 Y41.370 E0.18119
G1 X194.431 Y42.705 E0.18094
G1 X195.880 Y44.064 E0.18066
G1 X197.400 Y45.542 E0.19277
G1 X196.821 Y45.777 E0.05682
G1 X196.263 Y46.167 E0.06196
G1 X195.815 Y46.660 E0.06058
G1 X195.481 Y47.248 E0.06145
G1 X195.288 Y47.886 E0.06055
G1 X195.241 Y48.573 E0.06267
G1 X195.344 Y49.225 E0.06002
G1 X195.590 Y49.852 E0.06124
G1 X195.969 Y50.409 E0.06128
G1 X196.460 Y50.862 E0.06072
G1 X196.593 Y50.941 E0.01405
G1 X197.792 Y52.369 E0.16954
G1 X199.267 Y54.205 E0.21415
G1 X200.638 Y55.997 E0.20518
G1 X201.971 Y57.822 E0.20548
G1 X203.263 Y59.679 E0.20568
G1 X204.513 Y61.563 E0.20557
G1 X205.720 Y63.476 E0.20568
G1 X206.884 Y65.416 E0.20573
G1 X208.004 Y67.382 E0.20573
G1 X209.079 Y69.372 E0.20568
G1 X210.108 Y71.385 E0.20557
G1 X211.090 Y73.419 E0.20542
G1 X212.026 Y75.473 E0.20521
G1 X212.914 Y77.544 E0.20494
G1 X213.754 Y79.632 E0.20463
G1 X214.497 Y81.608 E0.19197
G1 X215.357 Y86.135 E0.41894
G1 X216.194 Y90.812 E0.43204
G1 X216.981 Y95.499 E0.43217
G1 X217.717 Y100.196 E0.43229
G1 X218.404 Y104.901 E0.43236
G1 X219.040 Y109.612 E0.43226
G1 X219.625 Y114.330 E0.43230
G1 X220.160 Y119.054 E0.43233
G1 X220.643 Y123.784 E0.43234
G1 X221.185 Y129.865 E0.55513
G1 X220.846 Y129.922 E0.03127
G1 X220.548 Y128.770 E0.10821
G1 X219.849 Y126.314 E0.23216
G1 X219.084 Y123.862 E0.23362
G1 X218.254 Y121.414 E0.23502
G1 X217.358 Y118.974 E0.23635
G1 X216.396 Y116.544 E0.23762
G1 X215.367 Y114.127 E0.23883
G1 X214.272 Y111.726 E0.23997
G1 X213.112 Y109.343 E0.24102
G1 X211.910 Y107.027 E0.23726
G1 X210.656 Y104.751 E0.23630
G1 X209.340 Y102.500 E0.23709
G1 X207.964 Y100.276 E0.23783
G1 X206.528 Y98.081 E0.23849
G1 X205.034 Y95.918 E0.23907
G1 X203.482 Y93.789 E0.23958
G1 X201.873 Y91.696 E0.24002
G1 X200.209 Y89.642 E0.24038
G1 X198.491 Y87.628 E0.24066
G1 X196.720 Y85.658 E0.24087
G1 X194.899 Y83.732 E0.24099
G1 X193.029 Y81.853 E0.24104
G1 X191.112 Y80.023 E0.24101
G1 X189.150 Y78.243 E0.24090
G1 X187.144 Y76.516 E0.24070
G1 X185.098 Y74.842 E0.24044
G1 X183.012 Y73.222 E0.24009
G1 X180.889 Y71.660 E0.23967
G1 X178.732 Y70.154 E0.23917
G1 X176.543 Y68.708 E0.23860
G1 X174.324 Y67.321 E0.23795
G1 X172.078 Y65.994 E0.23723
G1 X169.806 Y64.728 E0.23644
G1 X167.512 Y63.524 E0.23558
G1 X165.198 Y62.382 E0.23465
G1 X162.866 Y61.303 E0.23366
G1 X160.519 Y60.286 E0.23259
G1 X158.159 Y59.331 E0.23147
G1 X155.789 Y58.440 E0.23028
G1 X153.410 Y57.611 E0.22904
G1 X151.026 Y56.844 E0.22774
G1 X148.638 Y56.139 E0.22638
G1 X146.249 Y55.495 E0.22497
G1 X143.861 Y54.912 E0.22351
G1 X141.476 Y54.390 E0.22201
G1 X139.096 Y53.926 E0.22051
G1 X136.596 Y53.501 E0.23057
G1 X134.092 Y53.138 E0.23011
G1 X131.588 Y52.837 E0.22929
G1 X129.093 Y52.599 E0.22791
G1 X126.621 Y52.422 E0.22539
G1 X124.202 Y52.307 E0.22017
G1 X121.731 Y52.247 E0.22472
G1 X120.463 Y52.240 E0.11535
G1 X117.954 Y52.270 E0.22813
G1 X115.417 Y52.363 E0.23088
G1 X112.858 Y52.519 E0.23305
G1 X110.369 Y52.733 E0.22722
G1 X107.957 Y52.997 E0.22059
G1 X105.534 Y53.321 E0.22234
G1 X103.099 Y53.705 E0.22410
G1 X100.656 Y54.150 E0.22581
G1 X98.206 Y54.657 E0.22747
G1 X95.753 Y55.228 E0.22909
G1 X93.297 Y55.863 E0.23065
G1 X90.841 Y56.562 E0.23216
G1 X88.388 Y57.326 E0.23362
G1 X85.940 Y58.156 E0.23502
G1 X83.501 Y59.053 E0.23635
G1 X81.071 Y60.015 E0.23762
G1 X78.654 Y61.043 E0.23883
G1 X76.253 Y62.138 E0.23997
G1 X73.870 Y63.299 E0.24102
G1 X71.554 Y64.501 E0.23726
G1 X69.278 Y65.755 E0.23630
G1 X67.027 Y67.070 E0.23709
G1 X64.802 Y68.446 E0.23783
G1 X62.607 Y69.882 E0.23849
G1 X60.444 Y71.377 E0.23907
G1 X58.315 Y72.929 E0.23959
G1 X56.223 Y74.538 E0.24002
G1 X54.168 Y76.202 E0.24038
G1 X52.155 Y77.920 E0.24066
G1 X50.185 Y79.690 E0.24087
G1 X48.259 Y81.511 E0.24099
G1 X46.380 Y83.381 E0.24104
G1 X44.550 Y85.298 E0.24100
G1 X42.770 Y87.260 E0.24089
G1 X41.042 Y89.266 E0.24070
G1 X39.368 Y91.313 E0.24044
G1 X37.749 Y93.399 E0.24009
G1 X36.186 Y95.521 E0.23967
G1 X34.681 Y97.678 E0.23917
G1 X33.234 Y99.867 E0.23860
G1 X31.847 Y102.086 E0.23795
G1 X30.520 Y104.333 E0.23723
G1 X29.255 Y106.604 E0.23644
G1 X28.051 Y108.898 E0.23558
G1 X26.909 Y111.212 E0.23465
G1 X25.829 Y113.544 E0.23366
G1 X24.812 Y115.891 E0.23259
G1 X23.858 Y118.251 E0.23147
G1 X22.966 Y120.622 E0.23029
G1 X22.137 Y123.000 E0.22904
G1 X21.370 Y125.385 E0.22774
G1 X20.665 Y127.772 E0.22638
G1 X20.091 Y129.905 E0.20081
G1 X19.754 Y129.846 E0.03111
G1 X20.294 Y123.776 E0.55411
G1 X20.778 Y119.046 E0.43239
G1 X21.313 Y114.321 E0.43239
G1 X21.899 Y109.602 E0.43236
G1 X22.535 Y104.890 E0.43231
G1 X23.221 Y100.187 E0.43224
G1 X23.958 Y95.491 E0.43215
G1 X24.744 Y90.810 E0.43165
G1 X26.441 Y81.604 E0.85118
G1 X27.163 Y79.685 E0.18648
G1 X28.029 Y77.531 E0.21105
G1 X28.918 Y75.457 E0.20518
G1 X29.855 Y73.401 E0.20548
G1 X30.840 Y71.364 E0.20568
G1 X31.869 Y69.351 E0.20557
G1 X32.944 Y67.361 E0.20568
G1 X34.065 Y65.396 E0.20573
G1 X35.229 Y63.456 E0.20573
G1 X36.437 Y61.543 E0.20568
G1 X37.687 Y59.659 E0.20557
G1 X38.978 Y57.806 E0.20542
G1 X40.309 Y55.983 E0.20521
G1 X41.680 Y54.194 E0.20495
G1 X43.088 Y52.438 E0.20469
G1 X44.346 Y50.939 E0.17790
G1 X44.491 Y50.852 E0.01539
G1 X44.965 Y50.409 E0.05899
G1 X45.315 Y49.904 E0.05591
G1 X45.593 Y49.237 E0.06568
G1 X45.697 Y48.551 E0.06311
G1 X45.649 Y47.887 E0.06048
G1 X45.450 Y47.236 E0.06196
G1 X45.120 Y46.657 E0.06058
G1 X44.664 Y46.158 E0.06146
G1 X44.118 Y45.778 E0.06048
G1 X43.653 Y45.590 E0.04565
G1 F6240.000
G1 X44.413 Y44.684 E-0.37813
G1 X45.277 Y43.860 E-0.38187
G1 E-0.04000 F2100.00000
G1 Z0.950 F7800.000
G1 X42.122 Y46.086
G1 Z0.350
G1 E0.80000 F2100.00000
G1 F1800.000
G1 X43.977 Y44.236 E0.23829
G1 X45.422 Y42.858 E0.18152
G1 X46.894 Y41.505 E0.18182
G1 X48.393 Y40.177 E0.18208
G1 X49.918 Y38.875 E0.18232
G1 X51.468 Y37.600 E0.18252
G1 X53.042 Y36.351 E0.18270
G1 X54.641 Y35.131 E0.18285
G1 X56.262 Y33.940 E0.18296
G1 X57.906 Y32.778 E0.18305
G1 X59.572 Y31.646 E0.18310
G1 X61.258 Y30.545 E0.18313
G1 X62.964 Y29.474 E0.18312
G1 X64.688 Y28.436 E0.18308
G1 X66.431 Y27.429 E0.18301
G1 X68.192 Y26.456 E0.18291
G1 X69.968 Y25.515 E0.18278
G1 X71.760 Y24.608 E0.18262
G1 X73.566 Y23.734 E0.18243
G1 X75.386 Y22.895 E0.18221
G1 X77.218 Y22.090 E0.18196
G1 X79.061 Y21.320 E0.18168
G1 X80.915 Y20.585 E0.18137
G1 X82.779 Y19.885 E0.18103
G1 X84.651 Y19.220 E0.18066
G1 X86.531 Y18.590 E0.18026
G1 X88.417 Y17.996 E0.17984
G1 X90.308 Y17.437 E0.17927
G1 X93.693 Y16.503 E0.31928
G1 X97.917 Y15.555 E0.39361
G1 X99.820 Y15.173 E0.17652
G1 X101.726 Y14.826 E0.17613
G1 X103.630 Y14.513 E0.17549
G1 X105.533 Y14.235 E0.17484
G1 X107.432 Y13.991 E0.17416
G1 X109.328 Y13.781 E0.17346
G1 X111.220 Y13.605 E0.17274
G1 X113.106 Y13.461 E0.17200
G1 X114.986 Y13.351 E0.17123
G1 X116.859 Y13.274 E0.17043
G1 X118.819 Y13.227 E0.17830
G1 X120.586 Y13.214 E0.16070
G1 X122.545 Y13.234 E0.17816
G1 X124.513 Y13.289 E0.17902
G1 X126.490 Y13.380 E0.17992
G1 X128.444 Y13.504 E0.17809
G1 X130.359 Y13.661 E0.17467
G1 X132.279 Y13.851 E0.17544
G1 X134.203 Y14.077 E0.17618
G1 X136.131 Y14.337 E0.17689
G1 X138.062 Y14.633 E0.17758
G1 X139.994 Y14.964 E0.17824
G1 X141.926 Y15.331 E0.17888
G1 X143.859 Y15.734 E0.17953
G1 X147.244 Y16.506 E0.31570
G1 X147.244 Y16.520 E0.00125
G1 X149.629 Y17.157 E0.22444
G1 X151.566 Y17.709 E0.18316
G1 X153.482 Y18.294 E0.18215
G1 X155.391 Y18.915 E0.18261
G1 X157.294 Y19.573 E0.18304
G1 X159.175 Y20.262 E0.18218
G1 X161.034 Y20.981 E0.18125
G1 X162.883 Y21.736 E0.18157
G1 X164.721 Y22.525 E0.18187
G1 X166.546 Y23.349 E0.18213
G1 X168.359 Y24.207 E0.18237
G1 X170.158 Y25.099 E0.18257
G1 X171.942 Y26.025 E0.18275
G1 X173.710 Y26.984 E0.18289
G1 X175.461 Y27.976 E0.18300
G1 X177.194 Y29.000 E0.18309
G1 X178.909 Y30.056 E0.18314
G1 X180.605 Y31.144 E0.18316
G1 X182.280 Y32.262 E0.18315
G1 X183.934 Y33.411 E0.18311
G1 X185.566 Y34.589 E0.18304
G1 X187.175 Y35.797 E0.18294
G1 X188.761 Y37.032 E0.18280
G1 X190.323 Y38.296 E0.18264
G1 X191.859 Y39.586 E0.18245
G1 X193.370 Y40.903 E0.18223
G1 X194.854 Y42.245 E0.18197
G1 X196.312 Y43.612 E0.18169
G1 X197.742 Y45.002 E0.18138
G1 X198.814 Y46.084 E0.13848
G1 X198.137 Y46.044 E0.06165
G1 X197.608 Y46.132 E0.04878
G1 X197.122 Y46.330 E0.04774
G1 X196.678 Y46.640 E0.04921
G1 X196.324 Y47.029 E0.04790
G1 X196.059 Y47.496 E0.04878
G1 X195.907 Y47.999 E0.04778
G1 X195.869 Y48.546 E0.04984
G1 X195.950 Y49.060 E0.04737
G1 X196.146 Y49.558 E0.04865
G1 X196.446 Y49.999 E0.04843
G1 X196.836 Y50.359 E0.04826
G1 X197.003 Y50.458 E0.01772
G1 X198.275 Y51.972 E0.17980
G1 X199.758 Y53.820 E0.21545
G1 X201.139 Y55.623 E0.20647
G1 X202.480 Y57.459 E0.20676
G1 X203.780 Y59.327 E0.20696
G1 X205.037 Y61.223 E0.20686
G1 X206.252 Y63.148 E0.20696
G1 X207.423 Y65.100 E0.20702
G1 X208.550 Y67.079 E0.20702
G1 X209.632 Y69.081 E0.20696
G1 X210.667 Y71.107 E0.20686
G1 X211.656 Y73.154 E0.20670
G1 X212.598 Y75.220 E0.20649
G1 X213.491 Y77.305 E0.20622
G1 X214.336 Y79.406 E0.20591
G1 X215.101 Y81.439 E0.19752
G1 X215.972 Y86.021 E0.42415
G1 X216.810 Y90.705 E0.43265
G1 X217.597 Y95.399 E0.43278
G1 X218.335 Y100.102 E0.43289
G1 X219.023 Y104.814 E0.43297
G1 X219.659 Y109.531 E0.43287
G1 X220.246 Y114.256 E0.43291
G1 X220.781 Y118.987 E0.43294
G1 X221.265 Y123.724 E0.43295
G1 X221.699 Y128.465 E0.43293
G1 X222.081 Y133.211 E0.43290
G1 X222.457 Y138.729 E0.50292
G1 X222.107 Y138.771 E0.03208
G1 X221.647 Y136.249 E0.23311
G1 X221.143 Y133.814 E0.22610
G1 X220.576 Y131.375 E0.22771
G1 X219.945 Y128.934 E0.22926
G1 X219.250 Y126.493 E0.23077
G1 X218.490 Y124.055 E0.23221
G1 X217.665 Y121.622 E0.23360
G1 X216.774 Y119.197 E0.23493
G1 X215.818 Y116.782 E0.23619
G1 X214.795 Y114.379 E0.23739
G1 X213.707 Y111.993 E0.23852
G1 X212.553 Y109.624 E0.23957
G1 X211.359 Y107.322 E0.23583
G1 X210.112 Y105.060 E0.23487
G1 X208.805 Y102.822 E0.23566
G1 X207.437 Y100.611 E0.23639
G1 X206.010 Y98.430 E0.23705
G1 X204.524 Y96.279 E0.23763
G1 X202.981 Y94.163 E0.23814
G1 X201.382 Y92.083 E0.23858
G1 X199.728 Y90.041 E0.23893
G1 X198.021 Y88.040 E0.23921
G1 X196.261 Y86.082 E0.23941
G1 X194.451 Y84.167 E0.23954
G1 X192.592 Y82.300 E0.23958
G1 X190.687 Y80.481 E0.23955
G1 X188.736 Y78.712 E0.23944
G1 X186.743 Y76.994 E0.23925
G1 X184.708 Y75.330 E0.23899
G1 X182.635 Y73.721 E0.23865
G1 X180.525 Y72.168 E0.23823
G1 X178.381 Y70.671 E0.23773
G1 X176.205 Y69.233 E0.23716
G1 X174.000 Y67.855 E0.23652
G1 X171.767 Y66.536 E0.23580
G1 X169.509 Y65.278 E0.23502
G1 X167.229 Y64.081 E0.23416
G1 X164.929 Y62.946 E0.23324
G1 X162.611 Y61.873 E0.23225
G1 X160.278 Y60.862 E0.23119
G1 X157.932 Y59.914 E0.23008
G1 X155.576 Y59.027 E0.22890
G1 X153.212 Y58.203 E0.22766
G1 X150.842 Y57.441 E0.22637
G1 X148.468 Y56.740 E0.22502
G1 X146.094 Y56.101 E0.22362
G1 X143.720 Y55.521 E0.22217
G1 X141.350 Y55.002 E0.22067
G1 X138.984 Y54.541 E0.21916
G1 X136.499 Y54.119 E0.22920
G1 X134.010 Y53.758 E0.22872
G1 X131.521 Y53.459 E0.22791
G1 X129.041 Y53.222 E0.22654
G1 X126.583 Y53.046 E0.22404
G1 X124.180 Y52.931 E0.21883
G1 X121.722 Y52.872 E0.22354
G1 X120.465 Y52.865 E0.11433
G1 X117.969 Y52.895 E0.22692
G1 X115.447 Y52.987 E0.22949
G1 X112.904 Y53.142 E0.23166
G1 X110.430 Y53.355 E0.22585
G1 X108.033 Y53.617 E0.21924
G1 X105.624 Y53.939 E0.22100
G1 X103.204 Y54.321 E0.22275
G1 X100.775 Y54.763 E0.22445
G1 X98.341 Y55.268 E0.22610
G1 X95.902 Y55.835 E0.22771
G1 X93.460 Y56.466 E0.22926
G1 X91.020 Y57.161 E0.23077
G1 X88.581 Y57.921 E0.23221
G1 X86.149 Y58.746 E0.23360
G1 X83.723 Y59.636 E0.23493
G1 X81.308 Y60.593 E0.23619
G1 X78.906 Y61.615 E0.23739
G1 X76.519 Y62.703 E0.23852
G1 X74.151 Y63.857 E0.23957
G1 X71.849 Y65.052 E0.23583
G1 X69.586 Y66.298 E0.23487
G1 X67.349 Y67.606 E0.23566
G1 X65.138 Y68.974 E0.23639
G1 X62.956 Y70.401 E0.23705
G1 X60.806 Y71.886 E0.23763
G1 X58.690 Y73.429 E0.23814
G1 X56.610 Y75.028 E0.23857
G1 X54.568 Y76.682 E0.23893
G1 X52.567 Y78.390 E0.23921
G1 X50.608 Y80.150 E0.23942
G1 X48.694 Y81.960 E0.23954
G1 X46.827 Y83.818 E0.23959
G1 X45.007 Y85.724 E0.23955
G1 X43.238 Y87.674 E0.23944
G1 X41.521 Y89.668 E0.23925
G1 X39.857 Y91.702 E0.23899
G1 X38.248 Y93.775 E0.23865
G1 X36.694 Y95.885 E0.23823
G1 X35.198 Y98.029 E0.23773
G1 X33.760 Y100.205 E0.23716
G1 X32.381 Y102.411 E0.23652
G1 X31.062 Y104.644 E0.23580
G1 X29.804 Y106.901 E0.23502
G1 X28.608 Y109.182 E0.23416
G1 X27.472 Y111.482 E0.23324
G1 X26.399 Y113.800 E0.23225
G1 X25.389 Y116.133 E0.23119
