;FLAVOR:Marlin
;TIME:6914
;Filament used: 20.7956m
;Layer height: 0.5
;MINX:2.85
;MINY:0.638
;MINZ:0.32
;MAXX:231.626
;MAXY:241.316
;MAXZ:11.82
;Generated with Cura_SteamEngine 4.5.0
M140 S60
M105
M190 S60
M104 S220
M105
M109 S220
M82 ;absolute extrusion mode
; Ender 3 Custom Start G-code
G92 E0 ; Reset Extruder
G28 ; Home all axes
G1 Z2.0 F3000 ; Move Z Axis up little to prevent scratching of Heat Bed
G1 X0.1 Y20 Z0.3 F5000.0 ; Move to start position
G1 X0.1 Y200.0 Z0.3 F1500.0 E15 ; Draw the first line
G1 X0.4 Y200.0 Z0.3 F5000.0 ; Move to side a little
G1 X0.4 Y20 Z0.3 F1500.0 E30 ; Draw the second line
G92 E0 ; Reset Extruder
G1 Z2.0 F3000 ; Move Z Axis up little to prevent scratching of Heat Bed
G1 X5 Y20 Z0.3 F5000.0 ; Move over to prevent blob squish
G92 E0
G92 E0
G1 F2700 E-5
;LAYER_COUNT:24
;LAYER:0
M107
;MESH:3x-6IN-FLEX-01.stl
G0 F6000 X162.192 Y122.939 Z0.32
;TYPE:WALL-INNER
G1 F2700 E0
G1 F1200 X162.205 Y122.721 E0.02905
G1 X162.207 Y122.649 E0.03864
G1 X162.211 Y122.528 E0.05474
G1 X162.218 Y122.335 E0.08044
G1 X162.221 Y122.226 E0.09494
G1 X162.273 Y120.807 E0.28386
G1 X162.293 Y118.902 E0.53731
G1 X162.267 Y117.008 E0.78931
G1 X162.195 Y115.125 E1.04001
G1 X162.079 Y113.257 E1.28901
G1 X161.967 Y111.946 E1.46406
G1 X161.925 Y111.452 E1.53002
G1 X161.896 Y111.18 E1.56641
G1 X161.723 Y109.614 E1.77602
G1 X161.481 Y107.794 E2.02029
G1 X161.277 Y106.495 E2.19523
G1 X161.672 Y107.732 E2.21198
G1 X162.223 Y109.454 E2.30194
G1 X162.745 Y111.086 E2.46234
G1 X162.776 Y111.187 E2.4732
G1 X162.923 Y111.66 E2.53555
G1 X164.415 Y116.455 E3.20365
G1 X165.974 Y121.617 E3.92105
G1 X166.041 Y121.84 E3.95202
G1 X166.076 Y121.962 E3.96891
G1 X166.109 Y122.074 E3.98444
G1 X166.197 Y122.377 E4.02642
G1 X166.233 Y122.5 E4.04347
G1 X166.086 Y122.41
G1 X165.853 Y122.319 E4.05087
G1 X165.606 Y122.221 E4.0666
G1 X165.399 Y122.159 E4.08486
G1 X165.17 Y122.116 E4.11585
G1 X164.995 Y122.082 E4.13957
G1 X164.801 Y122.061 E4.16553
G1 X164.405 Y122.051 E4.21823
G1 X164.21 Y122.065 E4.24424
G1 X163.846 Y122.117 E4.29316
G1 X163.654 Y122.16 E4.31934
G1 X163.265 Y122.284 E4.37366
G1 X163.18 Y122.322 E4.38604
G1 X163.08 Y122.365 E4.39968
G1 X162.732 Y122.545 E4.44126
G1 X162.554 Y122.659 E4.45654
G1 X162.305 Y122.85 E4.47399
G1 X162.197 Y122.934
G1 X162.192 Y122.939
G1 F2700 E-0.52601
G0 F6000 X164.753 Y122.771
G0 X165.374 Y122.893
G0 X166.085 Y123.243
G0 X166.614 Y123.698
G0 X167.111 Y124.496
G0 X170.605 Y136.816
G0 X171.615 Y140.938
G0 X172.375 Y145.074
G0 X172.904 Y149.26
G0 X173.2 Y153.507
G0 X173.255 Y157.691
G0 X173.076 Y161.904
G0 X172.668 Y166.054
G0 X171.431 Y174.741
G0 X170.244 Y178.628
G0 X170.278 Y179.486
G0 X170.441 Y179.97
G0 X170.975 Y180.706
G0 X171.355 Y181
G0 X171.817 Y181.181
G0 X173.727 Y181.87
G1 F2700 E4.47399
G1 F1200 X173.597 Y182.183 E4.51908
G1 X173.557 Y182.277 E4.53267
G1 X173.497 Y182.419 E4.55318
G1 X173.395 Y182.661 E4.58812
G1 X173.36 Y182.74 E4.59961
G1 X173.336 Y182.689
G1 X173.138 Y182.269 E4.62702
G1 X173.123 Y182.244
G1 X173.049 Y182.125 E4.63648
G1 X172.999 Y182.044 E4.64276
G1 X173.114 Y182.033 E4.64585
G1 X173.212 Y182.023
G1 X173.727 Y181.87 E4.67543
G1 F2700 E-0.32457
G0 F6000 X172.704 Y184.883
G0 X171.176 Y188.034
G0 X169.149 Y191.745
G0 X167.022 Y195.221
G0 X164.74 Y198.586
G0 X162.261 Y201.884
G0 X159.589 Y205.104
G0 X156.725 Y208.226
G0 X153.675 Y211.238
G0 X150.443 Y214.12
G0 X147.054 Y216.848
G0 X143.544 Y219.389
G0 X139.952 Y221.725
G0 X136.197 Y223.906
G0 X132.319 Y225.9
G0 X128.333 Y227.699
G0 X124.292 Y229.279
G0 X120.104 Y230.677
G0 X115.891 Y231.845
G0 X111.635 Y232.793
G0 X107.354 Y233.521
G0 X103.064 Y234.029
G0 X98.745 Y234.32
G0 X94.524 Y234.393
G0 X90.307 Y234.256
G0 X86.141 Y233.917
G0 X82.044 Y233.381
G0 X78.027 Y232.66
G0 X74.069 Y231.75
G0 X70.073 Y230.629
G0 X66.129 Y229.311
G0 X62.308 Y227.828
G0 X58.846 Y226.273
G0 X58.264 Y225.758
G0 X56.843 Y224.322
G1 F2700 E4.67543
G1 F1200 X56.858 Y224.401 E4.68613
G1 X56.883 Y224.527 E4.70322
G1 X56.963 Y224.932 E4.75814
G1 X57.027 Y225.087 E4.78045
G1 X56.914 Y225.031
G1 X56.574 Y224.861 E4.79704
G1 X56.489 Y224.818
G1 X56.185 Y224.665 E4.82427
G1 X56.173 Y224.659
G1 X56.68 Y224.436 E4.85559
G1 X56.843 Y224.322 E4.86064
G1 F2700 E-0.13936
G0 F6000 X57.458 Y222.374
G0 X57.547 Y221.554
G0 X57.461 Y221.056
G0 X57.243 Y220.541
G0 X56.977 Y220.159
G0 X56.423 Y219.679
G0 X49.963 Y214.609
G0 X46.827 Y211.866
G0 X43.842 Y208.944
G0 X40.97 Y205.801
G0 X38.326 Y202.556
G0 X35.822 Y199.112
G0 X33.542 Y195.57
G0 X31.471 Y191.917
G0 X30.21 Y189.431
G0 X24.472 Y176.729
G0 X24.246 Y175.875
G0 X24.245 Y175.299
G0 X24.498 Y174.41
G0 X24.832 Y173.872
G0 X25.308 Y173.42
G0 X27.148 Y172.108
G1 F2700 E4.86064
G1 F1200 X26.761 Y172.102 E4.91214
G1 X26.713 Y172.109 E4.91859
G1 X26.237 Y172.185 E4.98272
G1 X26.029 Y172.241 E5.01138
G1 X25.971 Y172.262 E5.01958
G1 X25.657 Y172.375 E5.06398
G1 X25.461 Y172.463 E5.09257
G1 X25.014 Y172.727 E5.16163
G1 X24.681 Y172.995 E5.2185
G1 X24.539 Y173.131 E5.24466
G1 X24.353 Y173.34 E5.28188
G1 X24.28 Y173.423 E5.29659
G1 X24.158 Y173.587 E5.32378
G1 X23.947 Y173.928 E5.37713
G1 X23.936 Y173.951 E5.38052
G1 X23.849 Y174.117 E5.40546
G1 X23.755 Y174.358 E5.43987
G1 X23.682 Y174.19
G1 X23.629 Y174.068
G1 X23.537 Y173.858 E5.45118
G1 X23.497 Y173.766
G1 X23.472 Y173.711 E5.4517
G1 X23.429 Y173.609 E5.46643
G1 X21.254 Y168.538 E6.20051
G1 X19.354 Y164.006 E6.85429
G1 X19.081 Y163.353 E6.94846
G1 X18.802 Y162.67 E7.04661
G1 X18.099 Y160.948 E7.29406
G1 X17.397 Y159.23 E7.54097
G1 X17.276 Y158.935 E7.58339
G1 X17.438 Y159.212 E7.58446
G1 X18.428 Y160.813 E7.63655
G1 X19.462 Y162.4 E7.77283
G1 X19.784 Y162.869 E7.8298
G1 X20.185 Y163.452 E7.9171
G1 X20.543 Y163.973 E8.0012
G1 X21.669 Y165.528 E8.25662
G1 X22.84 Y167.066 E8.51379
G1 X24.057 Y168.583 E8.77253
G1 X25.318 Y170.076 E9.03253
G1 X26.582 Y171.5 E9.28585
G1 X26.623 Y171.546
G1 X26.693 Y171.621
G1 X26.761 Y171.694 E9.29568
G1 X26.964 Y171.911 E9.30749
G1 X27.148 Y172.108 E9.30858
G1 F2700 E4.30858
G0 F6000 X25.051 Y173.625
G0 X24.566 Y174.278
G0 X24.318 Y174.933
G0 X24.236 Y175.728
G0 X24.336 Y176.352
G0 X26.739 Y181.836
G0 X30.83 Y190.681
G0 X32.829 Y194.364
G0 X35.019 Y197.912
G0 X37.476 Y201.434
G0 X40.061 Y204.727
G0 X42.874 Y207.923
G0 X45.78 Y210.876
G0 X48.947 Y213.753
G0 X52.204 Y216.377
G0 X57.786 Y220.716
G0 X57.538 Y224.174
G0 X57.647 Y224.724
G0 X57.849 Y225.21
G0 X58.384 Y225.915
G0 X59.095 Y226.411
G0 X63.577 Y228.344
G0 X67.433 Y229.77
G0 X71.408 Y231.027
G0 X75.399 Y232.077
G0 X79.357 Y232.921
G0 X83.402 Y233.581
G0 X87.485 Y234.049
G0 X91.707 Y234.325
G0 X95.94 Y234.392
G0 X100.208 Y234.246
G0 X104.495 Y233.885
G0 X108.355 Y233.363
G0 X114.492 Y232.244
G0 X114.411 Y231.903
;TYPE:WALL-OUTER
G1 F2700 E9.30858
G1 F1200 X115.821 Y231.564 E9.50151
G1 X117.225 Y231.2 E9.69447
G1 X118.588 Y230.823 E9.88262
G1 X120.02 Y230.4 E10.08127
G1 X121.407 Y229.965 E10.27466
G1 X122.75 Y229.517 E10.46301
G1 X124.194 Y229.007 E10.66675
G1 X125.486 Y228.528 E10.85007
G1 X126.876 Y227.985 E11.04861
G1 X128.221 Y227.433 E11.24203
G1 X129.591 Y226.84 E11.44064
G1 X130.845 Y226.276 E11.62357
G1 X132.193 Y225.639 E11.82192
G1 X133.493 Y224.999 E12.0147
G1 X134.782 Y224.336 E12.20754
G1 X136.058 Y223.652 E12.40016
G1 X137.319 Y222.947 E12.59236
G1 X138.568 Y222.222 E12.78449
G1 X139.801 Y221.478 E12.97608
G1 X141.052 Y220.693 E13.17257
G1 X142.255 Y219.91 E13.36353
G1 X143.381 Y219.151 E13.54419
G1 X144.584 Y218.31 E13.73947
G1 X145.739 Y217.472 E13.92931
G1 X146.878 Y216.618 E14.11871
G1 X148.042 Y215.712 E14.31495
G1 X149.114 Y214.851 E14.49788
G1 X150.256 Y213.899 E14.69568
G1 X151.35 Y212.957 E14.88774
G1 X152.423 Y211.998 E15.0792
G1 X153.477 Y211.027 E15.26986
G1 X154.51 Y210.04 E15.45994
G1 X155.498 Y209.066 E15.64452
G1 X156.517 Y208.026 E15.83823
G1 X157.464 Y207.027 E16.02136
G1 X158.441 Y205.962 E16.21364
G1 X159.371 Y204.914 E16.40004
G1 X160.28 Y203.855 E16.58572
G1 X161.168 Y202.784 E16.77081
G1 X162.034 Y201.705 E16.95488
G1 X162.879 Y200.617 E17.13816
G1 X163.702 Y199.521 E17.3205
G1 X164.505 Y198.418 E17.50201
G1 X165.285 Y197.305 E17.68283
G1 X166.043 Y196.189 E17.86231
G1 X166.779 Y195.065 E18.04106
G1 X167.495 Y193.935 E18.21903
G1 X168.171 Y192.832 E18.39114
G1 X168.899 Y191.6 E18.58152
G1 X169.611 Y190.343 E18.77372
G1 X170.251 Y189.173 E18.95114
G1 X170.919 Y187.902 E19.14217
G1 X171.544 Y186.662 E19.32691
G1 X172.147 Y185.417 E19.51095
G1 X172.431 Y184.785 E19.60313
G1 X172.52 Y184.46 E19.64796
G1 X172.542 Y184.305 E19.66879
G1 X172.574 Y183.973 E19.71316
G1 X172.544 Y183.577 E19.766
G1 X172.507 Y183.419 E19.78759
G1 X172.421 Y183.093 E19.83244
G1 X172.255 Y182.74 E19.88434
G1 X172.192 Y182.635 E19.90063
G1 X172.007 Y182.374 E19.94319
G1 X171.928 Y182.283 E19.95922
G1 X171.703 Y182.062 E20.00118
G1 X171.61 Y181.985 E20.01725
G1 X171.326 Y181.794 E20.06278
G1 X171.01 Y181.617 E20.11097
G1 X170.77 Y181.455 E20.14949
G1 X170.549 Y181.275 E20.18741
G1 X170.341 Y181.069 E20.22636
G1 X170.141 Y180.83 E20.26782
G1 X169.969 Y180.578 E20.30841
G1 X169.816 Y180.293 E20.35144
G1 X169.716 Y180.061 E20.38505
G1 X169.611 Y179.728 E20.43151
G1 X169.554 Y179.464 E20.46744
G1 X169.519 Y179.154 E20.50894
G1 X169.516 Y178.819 E20.55351
G1 X169.54 Y178.541 E20.59064
G1 X169.59 Y178.267 E20.62769
G1 X169.682 Y177.943 E20.6725
G1 X170.017 Y176.962 E20.81041
G1 X170.448 Y175.59 E21.00174
G1 X170.813 Y174.311 E21.17869
G1 X171.166 Y172.914 E21.37039
G1 X171.47 Y171.545 E21.55696
G1 X171.736 Y170.178 E21.74224
G1 X171.974 Y168.809 E21.9271
G1 X172.188 Y167.434 E22.11224
G1 X172.381 Y166.018 E22.30236
G1 X172.535 Y164.706 E22.47811
G1 X172.676 Y163.279 E22.66888
G1 X172.788 Y161.884 E22.85507
G1 X172.873 Y160.487 E23.04127
G1 X172.932 Y159.125 E23.22265
G1 X172.966 Y157.687 E23.41401
G1 X172.974 Y156.285 E23.60054
G1 X172.953 Y154.845 E23.79214
G1 X172.911 Y153.518 E23.96877
G1 X172.838 Y152.081 E24.16019
G1 X172.739 Y150.682 E24.34678
G1 X172.616 Y149.287 E24.5331
G1 X172.462 Y147.858 E24.72431
G1 X172.295 Y146.541 E24.90093
G1 X172.089 Y145.118 E25.09222
G1 X171.855 Y143.701 E25.28329
G1 X171.616 Y142.4 E25.45927
G1 X171.331 Y140.998 E25.64961
G1 X171.02 Y139.599 E25.84028
G1 X170.688 Y138.24 E26.0264
G1 X170.326 Y136.892 E26.21209
G1 X168.854 Y131.569 E26.94684
G1 X166.937 Y124.882 E27.87232
G1 X166.842 Y124.603 E27.91153
G1 X166.795 Y124.502 E27.92635
G1 X166.653 Y124.235 E27.96658
G1 X166.588 Y124.137 E27.98223
G1 X166.394 Y123.887 E28.02433
G1 X166.31 Y123.798 E28.04061
G1 X166.061 Y123.576 E28.08499
G1 X165.928 Y123.486 E28.10636
G1 X165.638 Y123.308 E28.15163
G1 X165.28 Y123.167 E28.20282
G1 X165.162 Y123.132 E28.21919
G1 X164.848 Y123.072 E28.26172
G1 X164.735 Y123.06 E28.27684
G1 X164.428 Y123.052 E28.3177
G1 X164.316 Y123.06 E28.33264
G1 X164.027 Y123.101 E28.37147
G1 X163.917 Y123.126 E28.38648
G1 X163.618 Y123.221 E28.42822
G1 X163.511 Y123.268 E28.44376
G1 X163.233 Y123.412 E28.48542
G1 X163.13 Y123.478 E28.50169
G1 X162.864 Y123.683 E28.54637
G1 X162.75 Y123.8 E28.5681
G1 X162.523 Y124.053 E28.61333
G1 X162.319 Y124.381 E28.66471
G1 X162.265 Y124.489 E28.68078
G1 X162.15 Y124.781 E28.72253
G1 X162.114 Y124.898 E28.73882
G1 X162.043 Y125.275 E28.78985
G1 X161.929 Y126.538 E28.95857
G1 X161.79 Y127.865 E29.13608
G1 X161.625 Y129.204 E29.31557
G1 X161.442 Y130.509 E29.49088
G1 X161.235 Y131.818 E29.6672
G1 X161.004 Y133.137 E29.84535
G1 X160.754 Y134.44 E30.02186
G1 X160.485 Y135.717 E30.19548
G1 X160.177 Y137.065 E30.37944
G1 X159.86 Y138.35 E30.55553
G1 X159.505 Y139.686 E30.73944
G1 X159.131 Y141.003 E30.92158
G1 X158.748 Y142.266 E31.09717
G1 X158.317 Y143.605 E31.28431
G1 X157.874 Y144.903 E31.46677
G1 X157.405 Y146.199 E31.65014
G1 X156.912 Y147.488 E31.83374
G1 X156.393 Y148.779 E32.01886
G1 X155.856 Y150.049 E32.2023
G1 X155.291 Y151.32 E32.38735
G1 X154.704 Y152.583 E32.57264
G1 X154.092 Y153.836 E32.75816
G1 X153.457 Y155.082 E32.94422
G1 X152.798 Y156.318 E33.13057
G1 X152.116 Y157.543 E33.3171
G1 X151.413 Y158.756 E33.50362
G1 X150.681 Y159.967 E33.69188
G1 X149.937 Y161.15 E33.8778
G1 X149.167 Y162.328 E34.06504
G1 X148.374 Y163.492 E34.25242
G1 X147.582 Y164.612 E34.43491
G1 X146.702 Y165.808 E34.63246
G1 X145.894 Y166.868 E34.80978
G1 X144.99 Y168.009 E35.00345
G1 X144.102 Y169.09 E35.18957
G1 X143.187 Y170.162 E35.37708
G1 X142.249 Y171.224 E35.56559
G1 X141.304 Y172.253 E35.75146
G1 X140.337 Y173.272 E35.93835
G1 X139.351 Y174.272 E36.12519
G1 X138.35 Y175.252 E36.31156
G1 X137.331 Y176.213 E36.4979
G1 X136.291 Y177.16 E36.68503
G1 X135.251 Y178.075 E36.86932
G1 X134.154 Y179.003 E37.06049
G1 X133.12 Y179.849 E37.23823
G1 X131.981 Y180.746 E37.43111
G1 X130.87 Y181.588 E37.61657
G1 X129.739 Y182.414 E37.80289
G1 X128.591 Y183.222 E37.98966
G1 X127.446 Y183.997 E38.17361
G1 X126.284 Y184.755 E38.35818
G1 X125.103 Y185.493 E38.54346
G1 X123.93 Y186.201 E38.72574
G1 X122.74 Y186.888 E38.90855
G1 X121.535 Y187.557 E39.09191
G1 X120.34 Y188.194 E39.27207
G1 X119.121 Y188.814 E39.45402
G1 X117.912 Y189.405 E39.63305
G1 X116.693 Y189.975 E39.81208
G1 X115.423 Y190.54 E39.99701
G1 X114.216 Y191.054 E40.17155
G1 X112.893 Y191.589 E40.36141
G1 X111.62 Y192.078 E40.54283
G1 X110.495 Y192.49 E40.70222
G1 X109.148 Y192.956 E40.89185
G1 X107.92 Y193.358 E41.06375
G1 X106.62 Y193.759 E41.24475
G1 X105.351 Y194.126 E41.4205
G1 X104.077 Y194.473 E41.59616
G1 X102.784 Y194.798 E41.77354
G1 X101.476 Y195.106 E41.95231
G1 X100.16 Y195.391 E42.13145
G1 X98.845 Y195.654 E42.30987
G1 X97.514 Y195.894 E42.4898
G1 X96.165 Y196.113 E42.67162
G1 X94.816 Y196.31 E42.85299
G1 X93.468 Y196.481 E43.03377
G1 X92.105 Y196.631 E43.2162
G1 X90.736 Y196.756 E43.39909
G1 X89.352 Y196.858 E43.58372
G1 X87.981 Y196.936 E43.76641
G1 X86.588 Y196.989 E43.95187
G1 X85.236 Y197.018 E44.13178
G1 X83.815 Y197.022 E44.32083
G1 X82.423 Y197.001 E44.50605
G1 X81.018 Y196.954 E44.69307
G1 X79.666 Y196.886 E44.87317
G1 X78.222 Y196.787 E45.06573
G1 X76.826 Y196.665 E45.25217
G1 X75.434 Y196.52 E45.43836
G1 X74.042 Y196.347 E45.62498
G1 X72.61 Y196.143 E45.81742
G1 X71.212 Y195.919 E46.00578
G1 X69.835 Y195.671 E46.19192
G1 X68.443 Y195.396 E46.38069
G1 X67.14 Y195.114 E46.55806
G1 X65.739 Y194.785 E46.74952
G1 X64.365 Y194.435 E46.93815
G1 X63.017 Y194.066 E47.12409
G1 X61.657 Y193.667 E47.31265
G1 X60.313 Y193.247 E47.49999
G1 X58.989 Y192.807 E47.6856
G1 X57.657 Y192.336 E47.87357
G1 X56.342 Y191.844 E48.06036
G1 X55.047 Y191.334 E48.24553
G1 X53.747 Y190.794 E48.43281
G1 X52.475 Y190.24 E48.61739
G1 X51.207 Y189.66 E48.80289
G1 X49.898 Y189.031 E48.99611
G1 X48.706 Y188.434 E49.17347
G1 X47.437 Y187.768 E49.36413
G1 X46.2 Y187.091 E49.55174
G1 X44.995 Y186.402 E49.73641
G1 X43.789 Y185.684 E49.92314
G1 X42.608 Y184.953 E50.10792
G1 X41.475 Y184.223 E50.28724
G1 X40.304 Y183.438 E50.47479
G1 X39.166 Y182.647 E50.65918
G1 X38.056 Y181.844 E50.84144
G1 X36.969 Y181.03 E51.02211
G1 X35.888 Y180.189 E51.20432
G1 X34.832 Y179.339 E51.38467
G1 X33.795 Y178.473 E51.56442
G1 X32.777 Y177.594 E51.74335
G1 X31.731 Y176.656 E51.93027
G1 X30.764 Y175.76 E52.10566
G1 X29.744 Y174.78 E52.29385
G1 X28.759 Y173.802 E52.47851
G1 X28.538 Y173.612 E52.51729
G1 X28.446 Y173.545 E52.53243
G1 X28.182 Y173.384 E52.57357
G1 X28.075 Y173.332 E52.5894
G1 X27.78 Y173.217 E52.63152
G1 X27.663 Y173.183 E52.64773
G1 X27.283 Y173.11 E52.69921
G1 X26.832 Y173.103 E52.75922
G1 X26.447 Y173.164 E52.81108
G1 X26.329 Y173.196 E52.82734
G1 X26.033 Y173.302 E52.86917
G1 X25.923 Y173.352 E52.88525
G1 X25.585 Y173.551 E52.93743
G1 X25.341 Y173.748 E52.97915
G1 X25.259 Y173.826 E52.99421
G1 X25.056 Y174.055 E53.03492
G1 X24.985 Y174.15 E53.0507
G1 X24.818 Y174.42 E53.09294
G1 X24.762 Y174.529 E53.10924
G1 X24.64 Y174.841 E53.15381
G1 X24.601 Y174.996 E53.17507
G1 X24.533 Y175.331 E53.22055
G1 X24.525 Y175.721 E53.27245
G1 X24.534 Y175.842 E53.28859
G1 X24.584 Y176.152 E53.33036
G1 X24.613 Y176.268 E53.34627
G1 X24.741 Y176.622 E53.39635
G1 X27.003 Y181.718 E54.13812
G1 X29.317 Y186.812 E54.88247
G1 X30.471 Y189.306 E55.24807
G1 X31.088 Y190.55 E55.43281
G1 X31.727 Y191.782 E55.61745
