;FLAVOR:Marlin
;TIME:4420
;Filament used: 13.8726m
;Layer height: 0.5
;MINX:16.779
;MINY:12.912
;MINZ:0.32
;MAXX:219.369
;MAXY:215.073
;MAXZ:11.82
;Generated with Cura_SteamEngine 4.5.0
M140 S55
M105
M190 S55
M104 S220
M105
M109 S220
M82 ;absolute extrusion mode
; Ender 3 Custom Start G-code
G92 E0 ; Reset Extruder
G28 ; Home all axes
G1 Z2.0 F3000 ; Move Z Axis up little to prevent scratching of Heat Bed
G1 X0.1 Y20 Z0.3 F5000.0 ; Move to start position
G1 X0.1 Y200.0 Z0.3 F1500.0 E15 ; Draw the first line
G1 X0.4 Y200.0 Z0.3 F5000.0 ; Move to side a little
G1 X0.4 Y20 Z0.3 F1500.0 E30 ; Draw the second line
G92 E0 ; Reset Extruder
G1 Z2.0 F3000 ; Move Z Axis up little to prevent scratching of Heat Bed
G1 X5 Y20 Z0.3 F5000.0 ; Move over to prevent blob squish
G92 E0
G92 E0
G1 F2700 E-5
;LAYER_COUNT:24
;LAYER:0
M107
;MESH:FSF12.stl(1)
G0 F6000 X105.924 Y57.86 Z0.32
;TYPE:WALL-INNER
G1 F2700 E0
G1 F1200 X106.063 Y57.494 E0.05209
G1 X106.07 Y57.454 E0.05749
G1 X106.158 Y56.99 E0.12032
G1 X106.181 Y56.781 E0.14829
G1 X106.181 Y56.707 E0.15814
G1 X106.183 Y56.371 E0.20284
G1 X106.168 Y56.166 E0.23019
G1 X106.102 Y55.777 E0.28268
G1 X106.054 Y55.595 E0.30772
G1 X105.932 Y55.233 E0.35854
G1 X105.851 Y55.055 E0.38456
G1 X105.721 Y54.81 E0.42146
G1 X105.668 Y54.711 E0.4364
G1 X105.552 Y54.54 E0.46389
G1 X105.305 Y54.223 E0.51735
G1 X105.158 Y54.07 E0.54558
G1 X104.969 Y53.902 E0.57923
G1 X105.147 Y53.892
G1 X105.283 Y53.883
G1 X105.509 Y53.868 E0.59048
G1 X105.613 Y53.861 E0.59352
G1 X105.673 Y53.857
G1 X105.785 Y53.851 E0.60844
G1 X111.287 Y53.542 E1.34158
G1 X116.202 Y53.308 E1.99622
G1 X116.914 Y53.275 E2.09105
G1 X117.647 Y53.247 E2.18864
G1 X119.506 Y53.175 E2.43614
G1 X121.36 Y53.103 E2.68299
G1 X121.674 Y53.09 E2.7248
G1 X121.362 Y53.147 E2.72605
G1 X119.52 Y53.53 E2.77811
G1 X117.675 Y53.959 E2.91428
G1 X117.128 Y54.1 E2.97074
G1 X116.438 Y54.278 E3.05861
G1 X115.827 Y54.436 E3.14257
G1 X113.979 Y54.963 E3.39823
G1 X112.135 Y55.537 E3.65517
G1 X110.294 Y56.161 E3.91378
G1 X108.458 Y56.836 E4.17403
G1 X106.699 Y57.532 E4.4257
G1 X106.631 Y57.559
G1 X106.529 Y57.602 E4.42634
G1 X106.435 Y57.642
G1 X106.174 Y57.753 E4.43654
G1 X105.924 Y57.86 E4.43761
G1 F2700 E-0.56239
G0 F6000 X105.213 Y55.37
G0 X104.766 Y54.688
G0 X104.235 Y54.235
G0 X103.523 Y53.89
G0 X102.9 Y53.768
G0 X96.923 Y54.15
G0 X88.599 Y54.813
G0 X84.484 Y55.348
G0 X80.28 Y56.137
G0 X76.222 Y57.138
G0 X72.221 Y58.364
G0 X68.225 Y59.838
G0 X64.321 Y61.535
G0 X55.689 Y65.806
G0 X50.852 Y69.331
G0 X50.111 Y69.577
G0 X49.561 Y69.605
G0 X49.063 Y69.515
G0 X48.318 Y69.147
G0 X48.114 Y68.966
G0 X46.613 Y67.166
G1 F2700 E4.43761
G1 F1200 X46.651 Y67.715 E4.51082
G1 X46.702 Y67.91 E4.53764
G1 X46.623 Y67.898
G1 X46.499 Y67.878
G1 X46.094 Y67.812 E4.56832
G1 X45.921 Y67.819 E4.59135
G1 X46.016 Y67.73
G1 X46.288 Y67.473 E4.60767
G1 X46.359 Y67.406
G1 X46.613 Y67.166 E4.61127
G1 F2700 E-0.38873
G0 F6000 X43.966 Y69.31
G0 X40.62 Y72.859
G0 X37.96 Y75.994
G0 X35.419 Y79.301
G0 X33.067 Y82.691
G0 X30.923 Y86.121
G0 X28.917 Y89.697
G0 X27.081 Y93.376
G0 X25.378 Y97.246
G0 X23.868 Y101.202
G0 X22.544 Y105.263
G0 X21.418 Y109.415
G0 X20.497 Y113.644
G0 X19.789 Y117.935
G0 X19.298 Y122.27
G0 X19.029 Y126.637
G0 X18.983 Y130.975
G0 X19.166 Y135.425
G0 X19.563 Y139.737
G0 X20.184 Y144.049
G0 X21.027 Y148.341
G0 X22.063 Y152.489
G0 X23.326 Y156.642
G0 X24.788 Y160.706
G0 X26.455 Y164.686
G0 X28.281 Y168.506
G0 X30.307 Y172.25
G0 X32.467 Y175.813
G0 X34.763 Y179.217
G0 X37.182 Y182.456
G0 X39.843 Y185.685
G0 X42.652 Y188.771
G0 X44.134 Y190.269
G0 X44.588 Y190.53
G0 X46.704 Y191.518
G1 F2700 E4.61127
G1 F1200 X46.677 Y191.629 E4.62647
G1 X46.652 Y191.729 E4.64018
G1 X46.619 Y192.263 E4.71136
G1 X46.371 Y192.033 E4.71448
G1 X46.294 Y191.962
G1 X46.181 Y191.858
G1 X45.972 Y191.665 E4.7344
G1 X45.924 Y191.618 E4.74333
G1 X45.967 Y191.615
G1 X46.445 Y191.572 E4.77062
G1 X46.473 Y191.567
G1 X46.611 Y191.538
G1 X46.704 Y191.518 E4.77215
G1 F2700 E-0.22785
G0 F6000 X48.652 Y190.073
G0 X49.119 Y189.899
G0 X49.531 Y189.825
G0 X50.033 Y189.838
G0 X50.853 Y190.095
G0 X58.138 Y194.638
G0 X61.842 Y196.675
G0 X65.6 Y198.479
G0 X69.499 Y200.088
G0 X73.45 Y201.467
G0 X77.544 Y202.641
G0 X81.657 Y203.576
G0 X85.805 Y204.276
G0 X90.022 Y204.737
G0 X102.793 Y205.667
G0 X103.392 Y205.576
G0 X104.169 Y205.243
G0 X104.615 Y204.899
G0 X105.16 Y204.167
G0 X105.282 Y203.859
G0 X105.937 Y201.576
G1 F2700 E4.77215
G1 F1200 X106.139 Y201.664 E4.80146
G1 X106.201 Y201.689 E4.81036
G1 X106.315 Y201.735 E4.82671
G1 X106.501 Y201.81 E4.85339
G1 X106.597 Y201.849 E4.86718
G1 X107.915 Y202.383 E5.05637
G1 X109.699 Y203.052 E5.30986
G1 X111.487 Y203.676 E5.5618
G1 X113.28 Y204.254 E5.81243
G1 X115.076 Y204.783 E6.06152
G1 X116.349 Y205.127 E6.23696
G1 X116.874 Y205.268 E6.30928
G1 X117.088 Y205.32 E6.33858
G1 X118.621 Y205.693 E6.54848
G1 X120.414 Y206.088 E6.79274
G1 X121.706 Y206.34 E6.96787
G1 X120.407 Y206.29 E6.98476
G1 X118.601 Y206.219 E7.07512
G1 X116.886 Y206.151 E7.23613
G1 X116.833 Y206.149 E7.24082
G1 X116.29 Y206.124 E7.30889
G1 X111.263 Y205.883 E7.97845
G1 X105.887 Y205.582 E8.69479
G1 X105.655 Y205.569 E8.72571
G1 X105.533 Y205.562 E8.74197
G1 X105.414 Y205.554 E8.75783
G1 X105.1 Y205.534 E8.79969
G1 X104.971 Y205.525 E8.8169
G1 X105.107 Y205.416
G1 X105.271 Y205.231 E8.82409
G1 X105.446 Y205.032 E8.8398
G1 X105.576 Y204.858 E8.85815
G1 X105.694 Y204.658 E8.88904
G1 X105.784 Y204.507 E8.91243
G1 X105.878 Y204.318 E8.94051
G1 X106.064 Y203.815 E9.01186
G1 X106.169 Y203.265 E9.08635
G1 X106.188 Y202.815 E9.14627
G1 X106.182 Y202.718 E9.1592
G1 X106.176 Y202.614 E9.17145
G1 X106.124 Y202.21 E9.21461
G1 X106.075 Y202.004 E9.22946
G1 X105.982 Y201.715 E9.24582
G1 X105.937 Y201.576
G1 F2700 E4.24582
G0 F6000 X105.224 Y204.036
G0 X104.894 Y204.584
G0 X104.433 Y205.028
G0 X103.717 Y205.535
G0 X103.611 Y205.202
;TYPE:WALL-OUTER
G1 F2700 E9.24582
G1 F1200 X103.722 Y205.154 E9.26191
G1 X104.016 Y204.996 E9.30632
G1 X104.148 Y204.902 E9.32788
G1 X104.415 Y204.689 E9.37332
G1 X104.669 Y204.401 E9.42441
G1 X104.743 Y204.302 E9.44085
G1 X104.905 Y204.029 E9.48308
G1 X104.958 Y203.922 E9.49897
G1 X105.097 Y203.546 E9.5523
G1 X105.173 Y203.149 E9.60608
G1 X105.187 Y202.824 E9.64936
G1 X105.18 Y202.708 E9.66482
G1 X105.139 Y202.39 E9.70747
G1 X105.111 Y202.272 E9.72361
G1 X105.01 Y201.955 E9.76787
G1 X104.94 Y201.808 E9.78953
G1 X104.779 Y201.508 E9.83483
G1 X104.542 Y201.205 E9.88601
G1 X104.458 Y201.115 E9.90238
G1 X104.219 Y200.904 E9.9448
G1 X104.125 Y200.835 E9.96031
G1 X103.869 Y200.677 E10.00034
G1 X103.782 Y200.632 E10.01337
G1 X102.641 Y200.097 E10.18102
G1 X101.448 Y199.515 E10.35762
G1 X100.239 Y198.898 E10.5382
G1 X99.075 Y198.28 E10.71354
G1 X97.915 Y197.638 E10.88992
G1 X96.77 Y196.979 E11.06568
G1 X95.617 Y196.288 E11.24452
G1 X94.516 Y195.603 E11.41703
G1 X93.348 Y194.848 E11.60206
G1 X92.263 Y194.121 E11.77581
G1 X91.114 Y193.32 E11.96216
G1 X90.012 Y192.523 E12.14309
G1 X88.953 Y191.729 E12.31919
G1 X87.839 Y190.863 E12.50691
G1 X86.771 Y190.001 E12.6895
G1 X85.713 Y189.118 E12.87284
G1 X84.669 Y188.214 E13.05657
G1 X83.641 Y187.29 E13.24046
G1 X82.631 Y186.351 E13.42393
G1 X81.624 Y185.38 E13.61004
G1 X80.638 Y184.395 E13.79546
G1 X79.669 Y183.392 E13.981
G1 X78.717 Y182.368 E14.16701
G1 X77.781 Y181.328 E14.35316
G1 X76.869 Y180.274 E14.53859
G1 X75.963 Y179.191 E14.72645
G1 X75.082 Y178.096 E14.91342
G1 X74.218 Y176.985 E15.10067
G1 X73.377 Y175.858 E15.28775
G1 X72.553 Y174.715 E15.47521
G1 X71.772 Y173.588 E15.65763
G1 X70.954 Y172.36 E15.85393
G1 X70.229 Y171.23 E16.03255
G1 X69.471 Y169.999 E16.22488
G1 X68.757 Y168.792 E16.41145
G1 X68.059 Y167.56 E16.59984
G1 X67.391 Y166.331 E16.78593
G1 X66.739 Y165.075 E16.97421
G1 X66.118 Y163.825 E17.1599
G1 X65.511 Y162.549 E17.34789
G1 X64.936 Y161.282 E17.533
G1 X64.377 Y159.987 E17.72065
G1 X63.845 Y158.694 E17.90666
G1 X63.34 Y157.395 E18.09208
G1 X62.843 Y156.049 E18.28297
G1 X62.403 Y154.789 E18.46053
G1 X61.955 Y153.426 E18.65141
G1 X61.537 Y152.077 E18.8393
G1 X61.15 Y150.741 E19.02435
G1 X60.784 Y149.385 E19.21121
G1 X60.445 Y148.035 E19.39639
G1 X60.131 Y146.684 E19.58092
G1 X59.842 Y145.331 E19.76498
G1 X59.578 Y143.978 E19.94838
G1 X59.34 Y142.634 E20.12997
G1 X59.124 Y141.273 E20.3133
G1 X58.933 Y139.922 E20.49483
G1 X58.767 Y138.574 E20.67552
G1 X58.625 Y137.228 E20.85559
G1 X58.507 Y135.885 E21.03495
G1 X58.41 Y134.5 E21.21966
G1 X58.34 Y133.197 E21.39326
G1 X58.29 Y131.771 E21.58309
G1 X58.266 Y130.401 E21.76539
G1 X58.264 Y129.219 E21.92264
G1 X58.287 Y127.792 E22.11252
G1 X58.33 Y126.484 E22.28663
G1 X58.397 Y125.143 E22.46526
G1 X58.485 Y123.825 E22.64099
G1 X58.596 Y122.502 E22.81763
G1 X58.731 Y121.175 E22.99508
G1 X58.891 Y119.837 E23.17436
G1 X59.07 Y118.515 E23.35184
G1 X59.276 Y117.182 E23.53129
G1 X59.507 Y115.839 E23.71259
G1 X59.757 Y114.513 E23.89211
G1 X60.035 Y113.179 E24.0734
G1 X60.338 Y111.845 E24.25539
G1 X60.665 Y110.504 E24.43903
G1 X61.013 Y109.184 E24.62064
G1 X61.388 Y107.856 E24.80423
G1 X61.786 Y106.534 E24.98791
G1 X62.21 Y105.214 E25.17236
G1 X62.645 Y103.935 E25.35209
G1 X63.13 Y102.591 E25.54218
G1 X63.627 Y101.287 E25.72784
G1 X64.146 Y99.992 E25.91345
G1 X64.681 Y98.729 E26.09593
G1 X65.261 Y97.422 E26.28617
G1 X65.852 Y96.15 E26.47277
G1 X66.468 Y94.889 E26.65948
G1 X67.108 Y93.636 E26.84667
G1 X67.787 Y92.362 E27.03873
G1 X68.478 Y91.125 E27.22724
G1 X69.181 Y89.914 E27.41353
G1 X69.916 Y88.701 E27.60222
G1 X70.621 Y87.58 E27.7784
G1 X71.414 Y86.37 E27.97087
G1 X72.208 Y85.205 E28.15844
G1 X73.022 Y84.055 E28.34588
G1 X73.862 Y82.914 E28.53438
G1 X74.709 Y81.803 E28.72025
G1 X75.59 Y80.696 E28.90847
G1 X76.475 Y79.618 E29.09403
G1 X77.387 Y78.551 E29.28077
G1 X78.321 Y77.494 E29.46843
G1 X79.261 Y76.47 E29.65336
G1 X80.222 Y75.458 E29.83903
G1 X81.202 Y74.465 E30.02464
G1 X82.24 Y73.45 E30.21779
G1 X83.201 Y72.541 E30.39377
G1 X84.268 Y71.571 E30.58562
G1 X85.321 Y70.646 E30.77208
G1 X86.394 Y69.737 E30.95918
G1 X87.466 Y68.861 E31.14336
G1 X88.566 Y67.995 E31.32961
G1 X89.632 Y67.186 E31.50765
G1 X90.777 Y66.349 E31.69634
G1 X91.902 Y65.556 E31.87946
G1 X93.045 Y64.781 E32.06318
G1 X94.188 Y64.034 E32.24484
G1 X95.332 Y63.314 E32.42468
G1 X96.494 Y62.613 E32.60522
G1 X97.661 Y61.934 E32.78485
G1 X98.843 Y61.274 E32.96496
G1 X100.089 Y60.608 E33.15292
G1 X101.246 Y60.014 E33.32595
G1 X102.518 Y59.39 E33.51444
G1 X103.78 Y58.795 E33.70006
G1 X104.034 Y58.653 E33.73878
G1 X104.129 Y58.589 E33.75402
G1 X104.369 Y58.396 E33.79499
G1 X104.456 Y58.314 E33.8109
G1 X104.665 Y58.075 E33.85314
G1 X104.737 Y57.977 E33.86931
G1 X104.936 Y57.646 E33.9207
G1 X105.097 Y57.222 E33.98104
G1 X105.168 Y56.844 E34.0322
G1 X105.181 Y56.724 E34.04826
G1 X105.183 Y56.406 E34.09057
G1 X105.174 Y56.288 E34.10631
G1 X105.123 Y55.988 E34.1468
G1 X105.095 Y55.881 E34.16151
G1 X105.001 Y55.601 E34.20081
G1 X104.954 Y55.498 E34.21587
G1 X104.81 Y55.228 E34.25658
G1 X104.743 Y55.129 E34.27249
G1 X104.547 Y54.878 E34.31485
G1 X104.463 Y54.79 E34.33104
G1 X104.214 Y54.569 E34.37533
G1 X104.079 Y54.479 E34.39692
G1 X103.786 Y54.3 E34.4426
G1 X103.43 Y54.164 E34.4933
G1 X103.313 Y54.128 E34.50958
G1 X103 Y54.07 E34.55193
G1 X102.883 Y54.057 E34.5676
G1 X102.505 Y54.055 E34.61789
G1 X96.943 Y54.438 E35.35961
G1 X91.364 Y54.87 E36.10406
G1 X88.626 Y55.101 E36.46962
G1 X87.246 Y55.256 E36.65437
G1 X85.869 Y55.435 E36.83911
G1 X84.529 Y55.634 E37.01934
G1 X83.117 Y55.873 E37.20987
G1 X81.746 Y56.129 E37.39542
G1 X80.341 Y56.42 E37.58631
G1 X79.049 Y56.713 E37.76256
G1 X77.653 Y57.056 E37.95381
G1 X76.299 Y57.417 E38.14024
G1 X74.916 Y57.814 E38.33166
G1 X73.575 Y58.225 E38.51826
G1 X72.313 Y58.638 E38.69492
G1 X70.953 Y59.111 E38.88649
G1 X69.637 Y59.597 E39.07313
G1 X68.332 Y60.107 E39.25953
G1 X67.002 Y60.656 E39.45096
G1 X65.716 Y61.214 E39.63746
G1 X64.443 Y61.797 E39.82374
G1 X63.248 Y62.369 E39.99999
G1 X61.965 Y63.013 E40.19098
G1 X60.73 Y63.665 E40.37678
G1 X59.477 Y64.354 E40.56702
G1 X58.329 Y65.013 E40.74312
G1 X57.098 Y65.753 E40.93421
G1 X55.914 Y66.506 E41.12089
G1 X54.724 Y67.315 E41.31233
G1 X53.646 Y68.094 E41.48927
G1 X52.503 Y68.968 E41.6807
G1 X51.999 Y69.373 E41.76672
G1 X51.459 Y69.794 E41.85781
G1 X51.225 Y69.936 E41.89423
G1 X50.962 Y70.063 E41.93308
G1 X50.68 Y70.169 E41.97316
G1 X50.394 Y70.245 E42.01253
G1 X50.09 Y70.296 E42.05354
G1 X49.842 Y70.314 E42.08662
G1 X49.758 Y70.315 E42.0978
G1 X49.506 Y70.31 E42.13133
G1 X49.227 Y70.277 E42.16871
G1 X48.898 Y70.205 E42.21352
G1 X48.601 Y70.105 E42.25521
G1 X48.301 Y69.969 E42.29903
G1 X48.048 Y69.822 E42.33796
G1 X47.808 Y69.652 E42.37709
G1 X47.568 Y69.448 E42.41899
G1 X47.346 Y69.271 E42.45677
G1 X47.249 Y69.206 E42.4723
G1 X46.976 Y69.057 E42.51368
G1 X46.866 Y69.006 E42.52981
G1 X46.533 Y68.895 E42.57651
G1 X46.035 Y68.815 E42.64361
G1 X45.563 Y68.835 E42.70646
G1 X45.116 Y68.941 E42.76758
G1 X44.803 Y69.071 E42.81267
G1 X44.553 Y69.214 E42.85099
G1 X44.364 Y69.346 E42.88166
G1 X44.165 Y69.521 E42.91692
G1 X43.619 Y70.073 E43.02021
G1 X42.63 Y71.099 E43.2098
G1 X41.752 Y72.039 E43.38093
G1 X40.836 Y73.051 E43.56253
G1 X39.943 Y74.069 E43.74269
G1 X39.059 Y75.112 E43.92458
G1 X38.185 Y76.176 E44.10777
G1 X37.326 Y77.257 E44.29147
G1 X36.482 Y78.356 E44.47582
G1 X35.653 Y79.471 E44.66067
G1 X34.821 Y80.632 E44.85069
G1 X34.07 Y81.715 E45.02603
G1 X33.309 Y82.851 E45.20794
G1 X32.6 Y83.944 E45.38127
G1 X31.869 Y85.114 E45.56481
G1 X31.172 Y86.269 E45.74428
G1 X30.489 Y87.441 E45.92475
G1 X29.823 Y88.629 E46.10595
G1 X29.173 Y89.832 E46.28786
G1 X28.541 Y91.051 E46.47054
G1 X27.925 Y92.283 E46.65379
G1 X27.343 Y93.498 E46.83302
G1 X26.748 Y94.793 E47.02263
G1 X26.188 Y96.068 E47.20789
G1 X25.646 Y97.356 E47.3938
G1 X25.124 Y98.659 E47.58055
G1 X24.622 Y99.972 E47.76756
G1 X24.141 Y101.298 E47.95522
G1 X23.669 Y102.673 E48.14863
G1 X23.251 Y103.95 E48.32739
G1 X22.822 Y105.345 E48.52156
G1 X22.426 Y106.715 E48.71129
G1 X22.051 Y108.095 E48.90154
G1 X21.699 Y109.483 E49.09205
G1 X21.37 Y110.879 E49.28286
G1 X21.064 Y112.285 E49.4743
G1 X20.782 Y113.698 E49.66599
G1 X20.522 Y115.117 E49.85792
G1 X20.287 Y116.543 E50.05019
G1 X20.076 Y117.974 E50.24263
G1 X19.888 Y119.41 E50.43531
G1 X19.725 Y120.851 E50.62824
G1 X19.586 Y122.295 E50.82124
G1 X19.474 Y123.705 E51.00942
G1 X19.383 Y125.195 E51.20802
G1 X19.318 Y126.647 E51.40139
G1 X19.278 Y128.062 E51.58971
G1 X19.263 Y129.594 E51.79354
G1 X19.272 Y130.971 E51.97674
G1 X19.306 Y132.464 E52.17542
G1 X19.367 Y133.917 E52.3689
G1 X19.454 Y135.406 E52.56734
G1 X19.556 Y136.777 E52.75024
G1 X19.693 Y138.261 E52.94851
G1 X19.85 Y139.704 E53.14162
G1 X20.032 Y141.141 E53.33433
G1 X20.239 Y142.573 E53.52682
G1 X20.469 Y144.001 E53.71925
G1 X20.723 Y145.421 E53.91117
G1 X21.001 Y146.835 E54.10289
G1 X21.31 Y148.279 E54.29935
G1 X21.635 Y149.678 E54.49043
G1 X21.963 Y150.994 E54.67087
G1 X22.342 Y152.412 E54.86614
G1 X22.733 Y153.784 E55.05594
G1 X23.148 Y155.146 E55.24537
G1 X23.6 Y156.551 E55.44172
G1 X24.043 Y157.852 E55.62457
G1 X24.546 Y159.251 E55.82236
G1 X25.058 Y160.601 E56.01444
G1 X25.592 Y161.937 E56.20586
G1 X26.145 Y163.261 E56.39675
G1 X26.719 Y164.568 E56.58666
G1 X27.296 Y165.83 E56.77128
G1 X27.925 Y167.144 E56.96509
G1 X28.539 Y168.375 E57.1481
G1 X29.206 Y169.657 E57.34037
G1 X29.873 Y170.89 E57.52687
G1 X30.558 Y172.107 E57.71266
G1 X31.259 Y173.307 E57.89756
G1 X31.977 Y174.49 E58.08166
G1 X32.711 Y175.657 E58.26508
G1 X33.459 Y176.804 E58.44726
G1 X34.222 Y177.936 E58.62888
G1 X34.999 Y179.049 E58.80946
G1 X35.79 Y180.144 E58.98918
G1 X36.595 Y181.22 E59.16796
G1 X37.41 Y182.278 E59.34563
G1 X38.216 Y183.292 E59.51796
G1 X39.126 Y184.396 E59.7083
G1 X40.062 Y185.495 E59.90036
G1 X40.943 Y186.496 E60.07776
G1 X41.909 Y187.559 E60.26886
G1 X42.861 Y188.571 E60.45371
G1 X43.823 Y189.562 E60.63745
G1 X44.32 Y190.046 E60.72975
G1 X44.594 Y190.241 E60.77449
G1 X44.734 Y190.316 E60.79562
G1 X45.037 Y190.459 E60.84019
G1 X45.416 Y190.564 E60.89252
G1 X45.576 Y190.586 E60.914
G1 X45.915 Y190.615 E60.95927
G1 X46.304 Y190.581 E61.01122
G1 X46.425 Y190.557 E61.02763
