;FLAVOR:Marlin
;TIME:6890
;Filament used: 20.7971m
;Layer height: 0.5
;MINX:2.736
;MINY:2.5
;MINZ:0.32
;MAXX:231.636
;MAXY:239.454
;MAXZ:11.82
;Generated with Cura_SteamEngine 4.5.0
M140 S60
M105
M190 S60
M104 S220
M105
M109 S220
M82 ;absolute extrusion mode
; Ender 3 Custom Start G-code
G92 E0 ; Reset Extruder
G28 ; Home all axes
G1 Z2.0 F3000 ; Move Z Axis up little to prevent scratching of Heat Bed
G1 X0.1 Y20 Z0.3 F5000.0 ; Move to start position
G1 X0.1 Y200.0 Z0.3 F1500.0 E15 ; Draw the first line
G1 X0.4 Y200.0 Z0.3 F5000.0 ; Move to side a little
G1 X0.4 Y20 Z0.3 F1500.0 E30 ; Draw the second line
G92 E0 ; Reset Extruder
G1 Z2.0 F3000 ; Move Z Axis up little to prevent scratching of Heat Bed
G1 X5 Y20 Z0.3 F5000.0 ; Move over to prevent blob squish
G92 E0
G92 E0
G1 F2700 E-5
;LAYER_COUNT:24
;LAYER:0
M107
;MESH:FSF12-x3.stl
G0 F6000 X167.843 Y121.08 Z0.32
;TYPE:WALL-INNER
G1 F2700 E0
G1 F1200 X167.856 Y120.859 E0.02945
G1 X167.858 Y120.793 E0.03824
G1 X167.862 Y120.672 E0.05434
G1 X167.869 Y120.467 E0.08163
G1 X167.872 Y120.366 E0.09508
G1 X167.924 Y118.945 E0.28425
G1 X167.944 Y117.041 E0.53758
G1 X167.919 Y115.146 E0.78971
G1 X167.847 Y113.263 E1.04041
G1 X167.731 Y111.395 E1.28941
G1 X167.618 Y110.08 E1.465
G1 X167.577 Y109.59 E1.53042
G1 X167.547 Y109.316 E1.56709
G1 X167.375 Y107.752 E1.77642
G1 X167.133 Y105.932 E2.02068
G1 X166.928 Y104.633 E2.19564
G1 X167.324 Y105.87 E2.21234
G1 X167.875 Y107.591 E2.30237
G1 X168.397 Y109.222 E2.46293
G1 X168.429 Y109.324 E2.47394
G1 X168.575 Y109.793 E2.5358
G1 X170.068 Y114.593 E3.20458
G1 X171.625 Y119.755 E3.92189
G1 X171.692 Y119.979 E3.953
G1 X171.727 Y120.099 E3.96963
G1 X171.76 Y120.212 E3.98529
G1 X171.848 Y120.514 E4.02714
G1 X171.884 Y120.637 E4.04419
G1 X171.736 Y120.547
G1 X171.505 Y120.456 E4.05142
G1 X171.258 Y120.359 E4.06717
G1 X171.051 Y120.297 E4.08541
G1 X170.821 Y120.254 E4.11654
G1 X170.647 Y120.22 E4.14012
G1 X170.457 Y120.2 E4.16554
G1 X170.049 Y120.187 E4.21985
G1 X169.849 Y120.204 E4.24655
G1 X169.497 Y120.255 E4.29387
G1 X169.307 Y120.298 E4.31979
G1 X168.928 Y120.417 E4.37264
G1 X168.832 Y120.458 E4.38653
G1 X168.739 Y120.497 E4.39833
G1 X168.373 Y120.688 E4.44206
G1 X168.199 Y120.803 E4.45649
G1 X167.959 Y120.99 E4.4729
G1 X167.843 Y121.08
G1 F2700 E-0.5271
G0 F6000 X170.407 Y120.909
G0 X171.026 Y121.031
G0 X171.737 Y121.38
G0 X172.265 Y121.835
G0 X172.709 Y122.516
G0 X175.16 Y130.969
G0 X176.952 Y137.671
G0 X177.792 Y141.79
G0 X178.401 Y145.963
G0 X178.779 Y150.202
G0 X178.915 Y154.422
G0 X178.814 Y158.64
G0 X178.475 Y162.874
G0 X177.083 Y172.879
G0 X175.896 Y176.766
G0 X175.93 Y177.624
G0 X176.094 Y178.106
G0 X176.383 Y178.573
G0 X177.007 Y179.138
G0 X177.472 Y179.32
G0 X179.378 Y180.008
G1 F2700 E4.4729
G1 F1200 X179.247 Y180.322 E4.51816
G1 X179.208 Y180.414 E4.53146
G1 X179.148 Y180.558 E4.55221
G1 X179.047 Y180.798 E4.58685
G1 X179.012 Y180.877 E4.59835
G1 X178.988 Y180.826
G1 X178.791 Y180.409 E4.62554
G1 X178.775 Y180.382
G1 X178.7 Y180.262 E4.63505
G1 X178.651 Y180.182 E4.64107
G1 X178.767 Y180.171 E4.64417
G1 X178.862 Y180.161
G1 X179.378 Y180.008 E4.6738
G1 F2700 E-0.3262
G0 F6000 X178.356 Y183.021
G0 X176.828 Y186.172
G0 X174.801 Y189.883
G0 X172.674 Y193.358
G0 X170.391 Y196.723
G0 X167.913 Y200.022
G0 X165.241 Y203.241
G0 X162.377 Y206.365
G0 X159.327 Y209.376
G0 X156.095 Y212.258
G0 X152.706 Y214.986
G0 X149.196 Y217.527
G0 X145.604 Y219.863
G0 X141.849 Y222.044
G0 X137.971 Y224.038
G0 X133.985 Y225.836
G0 X129.944 Y227.417
G0 X125.756 Y228.815
G0 X121.542 Y229.983
G0 X117.287 Y230.931
G0 X113.006 Y231.659
G0 X108.716 Y232.167
G0 X104.395 Y232.458
G0 X100.176 Y232.531
G0 X95.958 Y232.394
G0 X91.793 Y232.055
G0 X87.696 Y231.519
G0 X83.679 Y230.797
G0 X79.719 Y229.888
G0 X75.725 Y228.767
G0 X71.781 Y227.449
G0 X67.96 Y225.965
G0 X64.498 Y224.412
G0 X63.916 Y223.897
G0 X62.495 Y222.46
G1 F2700 E4.6738
G1 F1200 X62.51 Y222.539 E4.6845
G1 X62.535 Y222.665 E4.70159
G1 X62.615 Y223.068 E4.75625
G1 X62.68 Y223.225 E4.77886
G1 X62.566 Y223.168
G1 X62.226 Y222.998 E4.79555
G1 X62.142 Y222.956
G1 X61.837 Y222.803 E4.8229
G1 X61.825 Y222.797
G1 X62.332 Y222.574 E4.85414
G1 X62.495 Y222.46 E4.85925
G1 F2700 E-0.14075
G0 F6000 X63.192 Y220.095
G0 X63.199 Y219.692
G0 X63.113 Y219.194
G0 X62.895 Y218.679
G0 X62.629 Y218.297
G0 X62.075 Y217.817
G0 X55.614 Y212.747
G0 X52.479 Y210.003
G0 X49.495 Y207.082
G0 X46.621 Y203.939
G0 X43.977 Y200.694
G0 X41.473 Y197.249
G0 X39.194 Y193.707
G0 X37.123 Y190.055
G0 X35.86 Y187.569
G0 X30.124 Y174.867
G0 X29.898 Y174.012
G0 X29.897 Y173.439
G0 X30.15 Y172.548
G0 X30.484 Y172.01
G0 X30.96 Y171.558
G0 X32.799 Y170.246
G1 F2700 E4.85925
G1 F1200 X32.413 Y170.24 E4.91061
G1 X32.364 Y170.247 E4.91719
G1 X31.889 Y170.323 E4.98119
G1 X31.681 Y170.379 E5.00985
G1 X31.622 Y170.4 E5.01818
G1 X31.309 Y170.513 E5.06245
G1 X31.113 Y170.601 E5.09103
G1 X30.666 Y170.865 E5.1601
G1 X30.333 Y171.133 E5.21697
G1 X30.191 Y171.269 E5.24313
G1 X30.005 Y171.478 E5.28035
G1 X29.932 Y171.561 E5.29506
G1 X29.81 Y171.725 E5.32225
G1 X29.599 Y172.066 E5.3756
G1 X29.588 Y172.088 E5.37887
G1 X29.502 Y172.254 E5.40374
G1 X29.407 Y172.496 E5.43833
G1 X29.334 Y172.328
G1 X29.28 Y172.206
G1 X29.189 Y171.998 E5.44939
G1 X29.148 Y171.906 E5.453
G1 X29.123 Y171.849 E5.45372
G1 X29.08 Y171.747 E5.46844
G1 X26.905 Y166.675 E6.20265
G1 X25.004 Y162.141 E6.85673
G1 X24.732 Y161.491 E6.95047
G1 X24.454 Y160.808 E7.04858
G1 X23.75 Y159.086 E7.29608
G1 X23.048 Y157.368 E7.54299
G1 X22.927 Y157.071 E7.58566
G1 X23.09 Y157.35 E7.58688
G1 X24.08 Y158.951 E7.63922
G1 X25.114 Y160.538 E7.77562
G1 X25.436 Y161.006 E7.83259
G1 X25.835 Y161.587 E7.91958
G1 X26.195 Y162.111 E8.00416
G1 X27.321 Y163.666 E8.25959
G1 X28.492 Y165.204 E8.51676
G1 X29.709 Y166.721 E8.7755
G1 X30.97 Y168.214 E9.0355
G1 X32.233 Y169.637 E9.28863
G1 X32.274 Y169.684 E9.29693
G1 X32.344 Y169.759 E9.30625
G1 X32.413 Y169.833 E9.31474
G1 X32.616 Y170.05 E9.32656
G1 X32.799 Y170.246 E9.32768
G1 F2700 E4.32768
G0 F6000 X30.703 Y171.763
G0 X30.218 Y172.416
G0 X29.969 Y173.07
G0 X29.888 Y173.865
G0 X29.988 Y174.49
G0 X34.096 Y183.74
G0 X36.482 Y188.819
G0 X38.481 Y192.502
G0 X40.671 Y196.05
G0 X43.128 Y199.572
G0 X45.713 Y202.864
G0 X48.526 Y206.061
G0 X51.432 Y209.013
G0 X54.599 Y211.891
G0 X57.856 Y214.515
G0 X63.439 Y218.862
G0 X63.19 Y222.312
G0 X63.299 Y222.861
G0 X63.5 Y223.348
G0 X64.036 Y224.052
G0 X64.748 Y224.549
G0 X69.229 Y226.482
G0 X73.085 Y227.908
G0 X77.06 Y229.164
G0 X81.051 Y230.215
G0 X85.008 Y231.059
G0 X89.054 Y231.719
G0 X93.138 Y232.187
G0 X97.359 Y232.462
G0 X101.591 Y232.53
G0 X105.86 Y232.384
G0 X109.718 Y232.06
G0 X115.876 Y231.257
G0 X115.812 Y230.913
;TYPE:WALL-OUTER
G1 F2700 E9.32768
G1 F1200 X117.232 Y230.647 E9.51989
G1 X118.649 Y230.357 E9.71231
G1 X120.063 Y230.041 E9.90507
G1 X121.472 Y229.702 E10.09787
G1 X122.877 Y229.338 E10.29097
G1 X124.24 Y228.961 E10.47911
G1 X125.672 Y228.538 E10.67776
G1 X127.059 Y228.102 E10.87119
G1 X128.402 Y227.655 E11.0595
G1 X129.846 Y227.145 E11.26324
G1 X131.138 Y226.666 E11.44656
G1 X132.528 Y226.123 E11.6451
G1 X133.873 Y225.57 E11.83857
G1 X135.243 Y224.979 E12.03708
G1 X136.496 Y224.414 E12.21994
G1 X137.845 Y223.777 E12.41841
G1 X139.145 Y223.137 E12.61119
G1 X140.433 Y222.474 E12.80391
G1 X141.71 Y221.79 E12.99664
G1 X142.971 Y221.085 E13.18885
G1 X144.22 Y220.36 E13.38098
G1 X145.453 Y219.616 E13.57257
G1 X146.704 Y218.831 E13.76906
G1 X147.907 Y218.048 E13.96002
G1 X149.033 Y217.289 E14.14068
G1 X150.236 Y216.448 E14.33596
G1 X151.391 Y215.61 E14.5258
G1 X152.53 Y214.756 E14.7152
G1 X153.694 Y213.85 E14.91144
G1 X154.766 Y212.989 E15.09436
G1 X155.908 Y212.037 E15.29216
G1 X157.002 Y211.095 E15.48423
G1 X158.075 Y210.136 E15.67569
G1 X159.129 Y209.165 E15.86635
G1 X160.162 Y208.178 E16.05643
G1 X161.149 Y207.204 E16.24091
G1 X162.169 Y206.164 E16.43471
G1 X163.116 Y205.165 E16.61785
G1 X164.093 Y204.1 E16.81012
G1 X165.023 Y203.051 E16.99663
G1 X165.932 Y201.991 E17.18241
G1 X166.819 Y200.921 E17.36731
G1 X167.686 Y199.843 E17.55136
G1 X168.531 Y198.755 E17.73464
G1 X169.354 Y197.659 E17.91698
G1 X170.156 Y196.555 E18.09852
G1 X170.936 Y195.443 E18.27923
G1 X171.695 Y194.326 E18.4589
G1 X172.431 Y193.202 E18.63764
G1 X173.147 Y192.073 E18.8155
G1 X173.823 Y190.97 E18.98761
G1 X174.551 Y189.738 E19.178
G1 X175.263 Y188.481 E19.37019
G1 X175.903 Y187.311 E19.54762
G1 X176.571 Y186.04 E19.73864
G1 X177.196 Y184.8 E19.92338
G1 X177.799 Y183.555 E20.10742
G1 X178.083 Y182.923 E20.1996
G1 X178.172 Y182.598 E20.24443
G1 X178.194 Y182.443 E20.26526
G1 X178.226 Y182.111 E20.30964
G1 X178.196 Y181.715 E20.36247
G1 X178.159 Y181.557 E20.38406
G1 X178.073 Y181.231 E20.42892
G1 X177.907 Y180.878 E20.48081
G1 X177.844 Y180.772 E20.49722
G1 X177.658 Y180.511 E20.53986
G1 X177.579 Y180.419 E20.55599
G1 X177.353 Y180.2 E20.59786
G1 X177.261 Y180.124 E20.61373
G1 X176.978 Y179.932 E20.65923
G1 X176.662 Y179.755 E20.70742
G1 X176.422 Y179.593 E20.74594
G1 X176.201 Y179.413 E20.78386
G1 X175.987 Y179.202 E20.82384
G1 X175.797 Y178.973 E20.86343
G1 X175.621 Y178.716 E20.90487
G1 X175.502 Y178.501 E20.93756
G1 X175.461 Y178.416 E20.95012
G1 X175.367 Y178.199 E20.98158
G1 X175.262 Y177.865 E21.02816
G1 X175.207 Y177.605 E21.06352
G1 X175.171 Y177.292 E21.10543
G1 X175.168 Y176.957 E21.15
G1 X175.192 Y176.679 E21.18713
G1 X175.242 Y176.405 E21.22418
G1 X175.334 Y176.081 E21.26899
G1 X175.669 Y175.1 E21.4069
G1 X176.1 Y173.727 E21.59836
G1 X176.464 Y172.449 E21.77514
G1 X176.818 Y171.052 E21.96688
G1 X177.122 Y169.683 E22.15345
G1 X177.388 Y168.316 E22.33872
G1 X177.626 Y166.947 E22.52359
G1 X177.84 Y165.572 E22.70872
G1 X178.033 Y164.156 E22.89885
G1 X178.187 Y162.843 E23.07473
G1 X178.328 Y161.417 E23.26537
G1 X178.44 Y160.022 E23.45156
G1 X178.525 Y158.625 E23.63776
G1 X178.584 Y157.263 E23.81913
G1 X178.618 Y155.825 E24.0105
G1 X178.625 Y154.423 E24.19702
G1 X178.605 Y152.984 E24.38848
G1 X178.563 Y151.656 E24.56525
G1 X178.49 Y150.219 E24.75668
G1 X178.391 Y148.82 E24.94327
G1 X178.268 Y147.425 E25.12958
G1 X178.114 Y145.996 E25.32079
G1 X177.947 Y144.679 E25.49741
G1 X177.74 Y143.255 E25.68885
G1 X177.507 Y141.839 E25.87977
G1 X177.268 Y140.538 E26.05575
G1 X176.983 Y139.135 E26.24622
G1 X176.671 Y137.737 E26.43679
G1 X176.34 Y136.376 E26.62313
G1 X174.881 Y131.046 E27.35833
G1 X173.739 Y126.999 E27.91777
G1 X172.589 Y123.019 E28.46893
G1 X172.494 Y122.744 E28.50764
G1 X172.449 Y122.643 E28.52235
G1 X172.305 Y122.372 E28.56317
G1 X172.24 Y122.274 E28.57882
G1 X172.045 Y122.024 E28.621
G1 X171.962 Y121.936 E28.63709
G1 X171.713 Y121.714 E28.68148
G1 X171.58 Y121.623 E28.70292
G1 X171.289 Y121.446 E28.74823
G1 X170.932 Y121.305 E28.7993
G1 X170.814 Y121.27 E28.81567
G1 X170.5 Y121.21 E28.8582
G1 X170.388 Y121.198 E28.87319
G1 X170.077 Y121.188 E28.91458
G1 X169.964 Y121.198 E28.92968
G1 X169.679 Y121.239 E28.96798
G1 X169.569 Y121.264 E28.98299
G1 X169.274 Y121.357 E29.02414
G1 X169.165 Y121.403 E29.03988
G1 X168.881 Y121.551 E29.08249
G1 X168.781 Y121.617 E29.09843
G1 X168.517 Y121.821 E29.14281
G1 X168.403 Y121.936 E29.16436
G1 X168.174 Y122.19 E29.20986
G1 X167.971 Y122.519 E29.26129
G1 X167.917 Y122.627 E29.27735
G1 X167.802 Y122.919 E29.3191
G1 X167.766 Y123.036 E29.33539
G1 X167.695 Y123.413 E29.38643
G1 X167.581 Y124.676 E29.55514
G1 X167.442 Y126.003 E29.73265
G1 X167.277 Y127.342 E29.91214
G1 X167.094 Y128.647 E30.08746
G1 X166.886 Y129.964 E30.26484
G1 X166.658 Y131.266 E30.4407
G1 X166.406 Y132.577 E30.61831
G1 X166.137 Y133.855 E30.79206
G1 X165.829 Y135.202 E30.97589
G1 X165.514 Y136.479 E31.15088
G1 X165.157 Y137.824 E31.33601
G1 X164.783 Y139.141 E31.51815
G1 X164.4 Y140.404 E31.69374
G1 X163.969 Y141.743 E31.88088
G1 X163.526 Y143.041 E32.06335
G1 X163.057 Y144.336 E32.24659
G1 X162.564 Y145.626 E32.43032
G1 X162.049 Y146.909 E32.61424
G1 X161.507 Y148.187 E32.79893
G1 X160.943 Y149.458 E32.98392
G1 X160.356 Y150.721 E33.16922
G1 X159.744 Y151.974 E33.35474
G1 X159.109 Y153.22 E33.54079
G1 X158.45 Y154.455 E33.72702
G1 X157.768 Y155.681 E33.91367
G1 X157.065 Y156.894 E34.10019
G1 X156.333 Y158.105 E34.28845
G1 X155.589 Y159.288 E34.47437
G1 X154.818 Y160.466 E34.66168
G1 X154.025 Y161.63 E34.84906
G1 X153.234 Y162.749 E35.03137
G1 X152.354 Y163.946 E35.22903
G1 X151.54 Y165.013 E35.40757
G1 X150.648 Y166.141 E35.59889
G1 X149.754 Y167.228 E35.78614
G1 X148.839 Y168.3 E35.97365
G1 X147.901 Y169.362 E36.16215
G1 X146.956 Y170.391 E36.34802
G1 X145.989 Y171.41 E36.53492
G1 X145.003 Y172.409 E36.72166
G1 X144.002 Y173.39 E36.90812
G1 X142.983 Y174.35 E37.09438
G1 X141.943 Y175.298 E37.2816
G1 X140.903 Y176.213 E37.46589
G1 X139.806 Y177.14 E37.65696
G1 X138.767 Y177.991 E37.83564
G1 X137.633 Y178.884 E38.02767
G1 X136.522 Y179.726 E38.21313
G1 X135.391 Y180.552 E38.39946
G1 X134.243 Y181.36 E38.58622
G1 X133.098 Y182.135 E38.77017
G1 X131.936 Y182.893 E38.95475
G1 X130.755 Y183.631 E39.14002
G1 X129.582 Y184.338 E39.32223
G1 X128.385 Y185.03 E39.50618
G1 X127.195 Y185.69 E39.68722
G1 X125.992 Y186.332 E39.86863
G1 X124.773 Y186.952 E40.05058
G1 X123.564 Y187.542 E40.22955
G1 X122.345 Y188.113 E40.40864
G1 X121.075 Y188.678 E40.59357
G1 X119.868 Y189.192 E40.7681
G1 X118.545 Y189.727 E40.95796
G1 X117.273 Y190.216 E41.13926
G1 X116.147 Y190.627 E41.29873
G1 X114.808 Y191.092 E41.48731
G1 X113.572 Y191.496 E41.66031
G1 X112.272 Y191.897 E41.84131
G1 X111.002 Y192.264 E42.01718
G1 X109.729 Y192.611 E42.19272
G1 X108.436 Y192.936 E42.37009
G1 X107.128 Y193.244 E42.54887
G1 X105.812 Y193.529 E42.72801
G1 X104.497 Y193.791 E42.9064
G1 X103.166 Y194.032 E43.08635
G1 X101.817 Y194.251 E43.26817
G1 X100.468 Y194.448 E43.44955
G1 X99.119 Y194.619 E43.63046
G1 X97.757 Y194.769 E43.81275
G1 X96.388 Y194.894 E43.99564
G1 X95.004 Y194.996 E44.18027
G1 X93.633 Y195.074 E44.36296
G1 X92.24 Y195.127 E44.54842
G1 X90.889 Y195.155 E44.7282
G1 X89.466 Y195.16 E44.91752
G1 X88.075 Y195.139 E45.1026
G1 X86.67 Y195.092 E45.28963
G1 X85.318 Y195.024 E45.46972
G1 X83.874 Y194.925 E45.66228
G1 X82.477 Y194.803 E45.84885
G1 X81.086 Y194.658 E46.03491
G1 X79.693 Y194.485 E46.22166
G1 X78.262 Y194.281 E46.41397
G1 X76.864 Y194.056 E46.60235
G1 X75.478 Y193.808 E46.78967
G1 X74.103 Y193.536 E46.97615
G1 X72.791 Y193.252 E47.15474
G1 X71.391 Y192.923 E47.34607
G1 X70.017 Y192.573 E47.53471
G1 X68.668 Y192.204 E47.72077
G1 X67.309 Y191.805 E47.90921
G1 X65.965 Y191.385 E48.09654
G1 X64.64 Y190.944 E48.28233
G1 X63.308 Y190.473 E48.47029
G1 X61.994 Y189.982 E48.65691
G1 X60.699 Y189.472 E48.84208
G1 X59.399 Y188.932 E49.02936
G1 X58.126 Y188.378 E49.21406
G1 X56.859 Y187.798 E49.39944
G1 X55.55 Y187.169 E49.59266
G1 X54.358 Y186.572 E49.77002
G1 X53.089 Y185.906 E49.96069
G1 X51.852 Y185.229 E50.14829
G1 X50.647 Y184.54 E50.33296
G1 X49.441 Y183.822 E50.51969
G1 X48.261 Y183.09 E50.70443
G1 X47.127 Y182.36 E50.88386
G1 X45.956 Y181.575 E51.07141
G1 X44.818 Y180.785 E51.25572
G1 X43.708 Y179.982 E51.43799
G1 X42.614 Y179.163 E51.6198
G1 X41.546 Y178.331 E51.79991
G1 X40.483 Y177.476 E51.9814
G1 X39.447 Y176.611 E52.16096
G1 X38.429 Y175.732 E52.3399
G1 X37.383 Y174.794 E52.52682
G1 X36.416 Y173.898 E52.7022
G1 X35.396 Y172.918 E52.89039
G1 X34.412 Y171.941 E53.07487
G1 X34.19 Y171.749 E53.11392
G1 X34.097 Y171.681 E53.12924
G1 X33.833 Y171.522 E53.17025
G1 X33.727 Y171.47 E53.18595
G1 X33.432 Y171.355 E53.22808
G1 X33.315 Y171.321 E53.24429
G1 X32.935 Y171.248 E53.29577
G1 X32.484 Y171.241 E53.35577
G1 X32.099 Y171.302 E53.40763
G1 X31.981 Y171.334 E53.4239
G1 X31.685 Y171.44 E53.46573
G1 X31.575 Y171.49 E53.4818
G1 X31.237 Y171.689 E53.53399
G1 X30.993 Y171.886 E53.57571
G1 X30.911 Y171.964 E53.59077
G1 X30.708 Y172.193 E53.63148
G1 X30.637 Y172.288 E53.64726
G1 X30.47 Y172.558 E53.68949
G1 X30.414 Y172.667 E53.7058
G1 X30.292 Y172.977 E53.75012
G1 X30.252 Y173.133 E53.77154
G1 X30.185 Y173.47 E53.81726
G1 X30.177 Y173.858 E53.86889
G1 X30.186 Y173.979 E53.88503
G1 X30.236 Y174.29 E53.92694
G1 X30.265 Y174.406 E53.94284
G1 X30.393 Y174.76 E53.99292
G1 X32.655 Y179.856 E54.73469
G1 X34.359 Y183.62 E55.28438
