;FLAVOR:Marlin
;TIME:6904
;Filament used: 20.8063m
;Layer height: 0.5
;MINX:3.184
;MINY:2.314
;MINZ:0.32
;MAXX:231.831
;MAXY:239.639
;MAXZ:11.82
;Generated with Cura_SteamEngine 4.5.0
M140 S60
M105
M190 S60
M104 S220
M105
M109 S220
M82 ;absolute extrusion mode
; Ender 3 Custom Start G-code
G92 E0 ; Reset Extruder
G28 ; Home all axes
G1 Z2.0 F3000 ; Move Z Axis up little to prevent scratching of Heat Bed
G1 X0.1 Y20 Z0.3 F5000.0 ; Move to start position
G1 X0.1 Y200.0 Z0.3 F1500.0 E15 ; Draw the first line
G1 X0.4 Y200.0 Z0.3 F5000.0 ; Move to side a little
G1 X0.4 Y20 Z0.3 F1500.0 E30 ; Draw the second line
G92 E0 ; Reset Extruder
G1 Z2.0 F3000 ; Move Z Axis up little to prevent scratching of Heat Bed
G1 X5 Y20 Z0.3 F5000.0 ; Move over to prevent blob squish
G92 E0
G92 E0
G1 F2700 E-5
;LAYER_COUNT:24
;LAYER:0
M107
;MESH:FSF12-x3.stl
G0 F6000 X166.61 Y121.263 Z0.32
;TYPE:WALL-INNER
G1 F2700 E0
G1 F1200 X166.623 Y121.045 E0.02905
G1 X166.625 Y120.973 E0.03864
G1 X166.629 Y120.853 E0.05461
G1 X166.636 Y120.658 E0.08057
G1 X166.639 Y120.551 E0.09481
G1 X166.691 Y119.131 E0.28386
G1 X166.711 Y117.227 E0.53718
G1 X166.686 Y115.332 E0.78931
G1 X166.614 Y113.449 E1.04001
G1 X166.498 Y111.58 E1.28914
G1 X166.385 Y110.272 E1.46381
G1 X166.343 Y109.776 E1.53003
G1 X166.314 Y109.503 E1.56656
G1 X166.142 Y107.938 E1.77602
G1 X165.899 Y106.118 E2.0203
G1 X165.694 Y104.819 E2.19526
G1 X166.089 Y106.057 E2.212
G1 X166.64 Y107.778 E2.30164
G1 X167.163 Y109.41 E2.46198
G1 X167.194 Y109.511 E2.47283
G1 X167.341 Y109.986 E2.53542
G1 X168.833 Y114.779 E3.20327
G1 X170.392 Y119.942 E3.92079
G1 X170.459 Y120.165 E3.95176
G1 X170.494 Y120.286 E3.96852
G1 X170.527 Y120.4 E3.98431
G1 X170.615 Y120.701 E4.02603
G1 X170.651 Y120.824 E4.04308
G1 X170.504 Y120.734
G1 X170.271 Y120.643 E4.05056
G1 X170.027 Y120.546 E4.06596
G1 X169.817 Y120.482 E4.08739
G1 X169.588 Y120.44 E4.11836
G1 X169.412 Y120.406 E4.14221
G1 X169.219 Y120.385 E4.16804
G1 X168.823 Y120.375 E4.22074
G1 X168.628 Y120.389 E4.24675
G1 X168.265 Y120.441 E4.29554
G1 X168.072 Y120.484 E4.32184
G1 X167.686 Y120.607 E4.37574
G1 X167.597 Y120.646 E4.38867
G1 X167.499 Y120.688 E4.40203
G1 X167.15 Y120.87 E4.44379
G1 X166.972 Y120.983 E4.45893
G1 X166.723 Y121.174 E4.47638
G1 X166.615 Y121.258
G1 X166.61 Y121.263
G1 F2700 E-0.52362
G0 F6000 X169.171 Y121.095
G0 X169.793 Y121.218
G0 X170.501 Y121.566
G0 X171.034 Y122.026
G0 X171.476 Y122.701
G0 X174.298 Y132.494
G0 X175.72 Y137.858
G0 X176.559 Y141.976
G0 X177.168 Y146.149
G0 X177.545 Y150.388
G0 X177.682 Y154.608
G0 X177.581 Y158.826
G0 X177.242 Y163.061
G0 X175.849 Y173.065
G0 X174.661 Y176.953
G0 X174.697 Y177.81
G0 X174.86 Y178.292
G0 X175.151 Y178.76
G0 X175.773 Y179.324
G0 X176.235 Y179.505
G0 X178.146 Y180.194
G1 F2700 E4.47638
G1 F1200 X178.015 Y180.508 E4.52165
G1 X177.976 Y180.6 E4.53494
G1 X177.915 Y180.746 E4.55599
G1 X177.814 Y180.985 E4.59051
G1 X177.778 Y181.065 E4.60218
G1 X177.754 Y181.014
G1 X177.56 Y180.598 E4.62918
G1 X177.54 Y180.564
G1 X177.468 Y180.447 E4.63822
G1 X177.419 Y180.368 E4.6441
G1 X177.535 Y180.357 E4.64738
G1 X177.63 Y180.347
G1 X178.146 Y180.194 E4.67702
G1 F2700 E-0.32298
G0 F6000 X177.122 Y183.208
G0 X175.594 Y186.358
G0 X173.567 Y190.069
G0 X171.441 Y193.545
G0 X169.158 Y196.91
G0 X166.68 Y200.208
G0 X164.008 Y203.428
G0 X161.144 Y206.551
G0 X158.094 Y209.562
G0 X154.861 Y212.444
G0 X151.472 Y215.172
G0 X147.962 Y217.713
G0 X144.371 Y220.049
G0 X140.615 Y222.23
G0 X136.737 Y224.224
G0 X132.751 Y226.023
G0 X128.71 Y227.603
G0 X124.522 Y229.001
G0 X120.309 Y230.169
G0 X116.054 Y231.117
G0 X111.773 Y231.845
G0 X107.482 Y232.353
G0 X103.163 Y232.644
G0 X98.942 Y232.717
G0 X94.725 Y232.58
G0 X90.559 Y232.241
G0 X86.463 Y231.705
G0 X82.446 Y230.984
G0 X78.487 Y230.074
G0 X74.492 Y228.953
G0 X70.547 Y227.635
G0 X66.726 Y226.152
G0 X63.265 Y224.598
G0 X62.683 Y224.082
G0 X61.261 Y222.646
G1 F2700 E4.67702
G1 F1200 X61.276 Y222.725 E4.68771
G1 X61.301 Y222.851 E4.7048
G1 X61.381 Y223.256 E4.75973
G1 X61.446 Y223.411 E4.78209
G1 X61.332 Y223.354
G1 X60.992 Y223.183 E4.79863
G1 X60.908 Y223.141
G1 X60.604 Y222.989 E4.82575
G1 X60.592 Y222.982
G1 X61.098 Y222.76 E4.85694
G1 X61.261 Y222.646 E4.862
G1 F2700 E-0.138
G0 F6000 X61.875 Y220.699
G0 X61.966 Y219.88
G0 X61.88 Y219.379
G0 X61.664 Y218.868
G0 X61.107 Y218.194
G0 X54.381 Y212.933
G0 X51.245 Y210.189
G0 X48.261 Y207.268
G0 X45.388 Y204.125
G0 X42.744 Y200.88
G0 X40.24 Y197.436
G0 X37.96 Y193.893
G0 X35.889 Y190.241
G0 X34.022 Y186.454
G0 X28.891 Y175.053
G0 X28.664 Y174.2
G0 X28.664 Y173.623
G0 X28.916 Y172.734
G0 X29.25 Y172.196
G0 X29.726 Y171.744
G0 X31.566 Y170.432
G1 F2700 E4.862
G1 F1200 X31.179 Y170.426 E4.91349
G1 X31.131 Y170.433 E4.91994
G1 X30.656 Y170.509 E4.98394
G1 X30.45 Y170.565 E5.01234
G1 X30.39 Y170.586 E5.0208
G1 X30.073 Y170.698 E5.06553
G1 X29.876 Y170.789 E5.0944
G1 X29.432 Y171.051 E5.16299
G1 X29.099 Y171.319 E5.21986
G1 X28.957 Y171.455 E5.24601
G1 X28.771 Y171.664 E5.28324
G1 X28.698 Y171.747 E5.29794
G1 X28.576 Y171.911 E5.32514
G1 X28.365 Y172.252 E5.37848
G1 X28.354 Y172.275 E5.38188
G1 X28.267 Y172.441 E5.40681
G1 X28.173 Y172.681 E5.4411
G1 X28.101 Y172.514
G1 X28.047 Y172.391
G1 X27.956 Y172.183 E5.45224
G1 X27.915 Y172.091 E5.45582
G1 X27.89 Y172.035 E5.45643
G1 X27.847 Y171.933 E5.47116
G1 X25.672 Y166.862 E6.20525
G1 X23.772 Y162.33 E6.85903
G1 X23.499 Y161.677 E6.95319
G1 X23.22 Y160.994 E7.05135
G1 X22.517 Y159.272 E7.2988
G1 X21.815 Y157.554 E7.54571
G1 X21.692 Y157.253 E7.58897
G1 X21.857 Y157.536 E7.59014
G1 X22.847 Y159.137 E7.64248
G1 X23.88 Y160.724 E7.77881
G1 X24.202 Y161.193 E7.83579
G1 X24.603 Y161.776 E7.92308
G1 X24.961 Y162.297 E8.00718
G1 X26.087 Y163.852 E8.2626
G1 X27.258 Y165.39 E8.51978
G1 X28.475 Y166.907 E8.77852
G1 X29.736 Y168.4 E9.03852
G1 X30.999 Y169.823 E9.29165
G1 X31.041 Y169.87 E9.30003
G1 X31.112 Y169.946 E9.30956
G1 X31.18 Y170.019 E9.31939
G1 X31.382 Y170.235 E9.33098
G1 X31.566 Y170.432 E9.33207
G1 F2700 E4.33207
G0 F6000 X29.469 Y171.949
G0 X28.984 Y172.602
G0 X28.736 Y173.258
G0 X28.654 Y174.05
G0 X28.755 Y174.676
G0 X32.862 Y183.925
G0 X35.248 Y189.005
G0 X37.247 Y192.688
G0 X39.437 Y196.236
G0 X41.894 Y199.758
G0 X44.479 Y203.051
G0 X47.292 Y206.247
G0 X50.199 Y209.2
G0 X53.365 Y212.077
G0 X56.623 Y214.701
G0 X62.204 Y219.04
G0 X61.956 Y222.498
G0 X62.065 Y223.048
G0 X62.267 Y223.535
G0 X62.803 Y224.239
G0 X63.514 Y224.735
G0 X67.995 Y226.668
G0 X71.851 Y228.094
G0 X75.826 Y229.351
G0 X79.818 Y230.401
G0 X83.775 Y231.245
G0 X87.82 Y231.905
G0 X91.904 Y232.373
G0 X96.126 Y232.649
G0 X100.358 Y232.716
G0 X104.626 Y232.57
G0 X108.913 Y232.209
G0 X111.344 Y231.881
G0 X116.069 Y231.176
G0 X115.999 Y230.833
;TYPE:WALL-OUTER
G1 F2700 E9.33207
G1 F1200 X117.416 Y230.543 E9.52449
G1 X118.829 Y230.227 E9.71712
G1 X120.239 Y229.888 E9.91006
G1 X121.644 Y229.524 E10.10315
G1 X123.007 Y229.147 E10.29129
G1 X124.438 Y228.724 E10.48982
G1 X125.825 Y228.289 E10.68321
G1 X127.168 Y227.841 E10.87156
G1 X128.612 Y227.331 E11.0753
G1 X129.904 Y226.852 E11.25862
G1 X131.295 Y226.309 E11.45728
G1 X132.639 Y225.757 E11.65058
G1 X134.009 Y225.164 E11.84919
G1 X135.263 Y224.6 E12.03212
G1 X136.611 Y223.963 E12.23047
G1 X137.912 Y223.323 E12.42337
G1 X139.201 Y222.66 E12.61621
G1 X140.476 Y221.976 E12.80871
G1 X141.737 Y221.272 E13.00084
G1 X142.987 Y220.546 E13.19316
G1 X144.22 Y219.802 E13.38475
G1 X145.471 Y219.017 E13.58124
G1 X146.674 Y218.234 E13.7722
G1 X147.799 Y217.475 E13.95275
G1 X149.003 Y216.634 E14.14814
G1 X150.157 Y215.796 E14.33787
G1 X151.296 Y214.942 E14.52727
G1 X152.461 Y214.036 E14.72361
G1 X153.533 Y213.175 E14.90654
G1 X154.674 Y212.223 E15.10424
G1 X155.768 Y211.281 E15.2963
G1 X156.841 Y210.322 E15.48776
G1 X157.896 Y209.351 E15.67852
G1 X158.929 Y208.364 E15.8686
G1 X159.916 Y207.39 E16.05308
G1 X160.936 Y206.35 E16.24688
G1 X161.883 Y205.351 E16.43002
G1 X162.859 Y204.286 E16.6222
G1 X163.79 Y203.238 E16.8087
G1 X164.699 Y202.178 E16.99448
G1 X165.586 Y201.108 E17.17938
G1 X166.453 Y200.029 E17.36353
G1 X167.297 Y198.941 E17.54673
G1 X168.12 Y197.845 E17.72907
G1 X168.923 Y196.742 E17.91059
G1 X169.702 Y195.629 E18.09133
G1 X170.462 Y194.513 E18.27096
G1 X171.198 Y193.389 E18.4497
G1 X171.913 Y192.259 E18.6276
G1 X172.59 Y191.156 E18.79978
G1 X173.317 Y189.924 E18.9901
G1 X174.03 Y188.667 E19.18236
G1 X174.669 Y187.497 E19.35972
G1 X175.337 Y186.226 E19.55075
G1 X175.963 Y184.985 E19.73567
G1 X176.565 Y183.741 E19.91953
G1 X176.849 Y183.11 E20.01159
G1 X176.939 Y182.785 E20.05645
G1 X176.961 Y182.628 E20.07755
G1 X176.992 Y182.297 E20.12178
G1 X176.963 Y181.902 E20.17447
G1 X176.926 Y181.743 E20.19619
G1 X176.839 Y181.417 E20.24108
G1 X176.674 Y181.065 E20.2928
G1 X176.611 Y180.958 E20.30931
G1 X176.424 Y180.698 E20.35192
G1 X176.346 Y180.607 E20.36787
G1 X176.121 Y180.386 E20.40983
G1 X176.028 Y180.31 E20.42581
G1 X175.745 Y180.118 E20.4713
G1 X175.428 Y179.941 E20.51961
G1 X175.188 Y179.779 E20.55813
G1 X174.967 Y179.599 E20.59605
G1 X174.759 Y179.393 E20.635
G1 X174.561 Y179.156 E20.67608
G1 X174.387 Y178.9 E20.71726
G1 X174.234 Y178.617 E20.76006
G1 X174.134 Y178.385 E20.79367
G1 X174.028 Y178.05 E20.84042
G1 X173.974 Y177.793 E20.87536
G1 X173.938 Y177.478 E20.91754
G1 X173.934 Y177.133 E20.96344
G1 X173.959 Y176.864 E20.99938
G1 X174.008 Y176.592 E21.03615
G1 X174.099 Y176.269 E21.0808
G1 X174.21 Y175.953 E21.12536
G1 X174.435 Y175.285 E21.21913
G1 X174.867 Y173.914 E21.41037
G1 X175.231 Y172.635 E21.58729
G1 X175.584 Y171.239 E21.77886
G1 X175.889 Y169.869 E21.96559
G1 X176.155 Y168.502 E22.15087
G1 X176.392 Y167.133 E22.33571
G1 X176.606 Y165.758 E22.52084
G1 X176.799 Y164.342 E22.71097
G1 X176.954 Y163.03 E22.88673
G1 X177.095 Y161.602 E23.07764
G1 X177.206 Y160.208 E23.26368
G1 X177.292 Y158.811 E23.44989
G1 X177.35 Y157.448 E23.63139
G1 X177.384 Y156.011 E23.82262
G1 X177.392 Y154.609 E24.00915
G1 X177.372 Y153.169 E24.20074
G1 X177.329 Y151.842 E24.37738
G1 X177.256 Y150.405 E24.56881
G1 X177.158 Y149.006 E24.75539
G1 X177.035 Y147.611 E24.9417
G1 X176.881 Y146.182 E25.13291
G1 X176.714 Y144.865 E25.30953
G1 X176.507 Y143.442 E25.50084
G1 X176.274 Y142.025 E25.69189
G1 X176.035 Y140.724 E25.86787
G1 X175.749 Y139.322 E26.05824
G1 X175.438 Y137.924 E26.24878
G1 X175.107 Y136.563 E26.43512
G1 X174.019 Y132.571 E26.98559
G1 X172.895 Y128.555 E27.54041
G1 X171.355 Y123.206 E28.28095
G1 X171.261 Y122.93 E28.31974
G1 X171.216 Y122.828 E28.33458
G1 X171.071 Y122.557 E28.37547
G1 X171.005 Y122.459 E28.39119
G1 X170.813 Y122.213 E28.4327
G1 X170.731 Y122.124 E28.4488
G1 X170.479 Y121.899 E28.49375
G1 X170.345 Y121.809 E28.51522
G1 X170.056 Y121.632 E28.56031
G1 X169.698 Y121.491 E28.6115
G1 X169.579 Y121.455 E28.62804
G1 X169.266 Y121.396 E28.67041
G1 X169.153 Y121.384 E28.68553
G1 X168.846 Y121.376 E28.72639
G1 X168.734 Y121.384 E28.74133
G1 X168.445 Y121.425 E28.78016
G1 X168.334 Y121.45 E28.7953
G1 X168.038 Y121.544 E28.83662
G1 X167.93 Y121.591 E28.85229
G1 X167.651 Y121.736 E28.89412
G1 X167.548 Y121.802 E28.91039
G1 X167.282 Y122.007 E28.95507
G1 X167.168 Y122.124 E28.97681
G1 X166.941 Y122.377 E29.02203
G1 X166.74 Y122.702 E29.07287
G1 X166.684 Y122.811 E29.08917
G1 X166.569 Y123.106 E29.13129
G1 X166.533 Y123.221 E29.14733
G1 X166.461 Y123.599 E29.19852
G1 X166.348 Y124.862 E29.36722
G1 X166.208 Y126.189 E29.54475
G1 X166.043 Y127.528 E29.72423
G1 X165.86 Y128.833 E29.89955
G1 X165.653 Y130.142 E30.07586
G1 X165.422 Y131.461 E30.25402
G1 X165.172 Y132.764 E30.43053
G1 X164.904 Y134.041 E30.60412
G1 X164.596 Y135.388 E30.78795
G1 X164.281 Y136.665 E30.96294
G1 X163.923 Y138.011 E31.14824
G1 X163.553 Y139.319 E31.32908
G1 X163.167 Y140.59 E31.5058
G1 X162.736 Y141.928 E31.69282
G1 X162.292 Y143.227 E31.87546
G1 X161.823 Y144.523 E32.05882
G1 X161.33 Y145.812 E32.24242
G1 X160.811 Y147.103 E32.42754
G1 X160.274 Y148.373 E32.61098
G1 X159.71 Y149.644 E32.79598
G1 X159.122 Y150.907 E32.98133
G1 X158.51 Y152.16 E33.16685
G1 X157.875 Y153.406 E33.3529
G1 X157.217 Y154.642 E33.53919
G1 X156.534 Y155.867 E33.72578
G1 X155.831 Y157.08 E33.91231
G1 X155.099 Y158.291 E34.10056
G1 X154.355 Y159.474 E34.28649
G1 X153.585 Y160.652 E34.47372
G1 X152.792 Y161.817 E34.66121
G1 X152.002 Y162.936 E34.84345
G1 X151.115 Y164.138 E35.04219
G1 X150.312 Y165.192 E35.21847
G1 X149.408 Y166.333 E35.41214
G1 X148.52 Y167.414 E35.59826
G1 X147.605 Y168.486 E35.78577
G1 X146.668 Y169.548 E35.97419
G1 X145.722 Y170.577 E36.16015
G1 X144.755 Y171.596 E36.34704
G1 X143.769 Y172.596 E36.53388
G1 X142.768 Y173.576 E36.72025
G1 X141.749 Y174.537 E36.9066
G1 X140.717 Y175.478 E37.0924
G1 X139.669 Y176.399 E37.27802
G1 X138.567 Y177.332 E37.47012
G1 X137.541 Y178.171 E37.64644
G1 X136.399 Y179.07 E37.8398
G1 X135.289 Y179.912 E38.02516
G1 X134.158 Y180.738 E38.21148
G1 X133.009 Y181.546 E38.39836
G1 X131.864 Y182.321 E38.58231
G1 X130.702 Y183.079 E38.76688
G1 X129.522 Y183.817 E38.95205
G1 X128.348 Y184.525 E39.13444
G1 X127.158 Y185.212 E39.31725
G1 X125.954 Y185.881 E39.50049
G1 X124.758 Y186.518 E39.68077
G1 X123.539 Y187.138 E39.86272
G1 X122.331 Y187.729 E40.04164
G1 X121.111 Y188.299 E40.22079
G1 X119.841 Y188.864 E40.40571
G1 X118.625 Y189.382 E40.58156
G1 X117.32 Y189.91 E40.76885
G1 X116.039 Y190.402 E40.95141
G1 X114.913 Y190.814 E41.11093
G1 X113.566 Y191.28 E41.30055
G1 X112.338 Y191.682 E41.47246
G1 X111.039 Y192.083 E41.65333
G1 X109.769 Y192.45 E41.8292
G1 X108.496 Y192.797 E42.00474
G1 X107.202 Y193.122 E42.18224
G1 X105.894 Y193.43 E42.36102
G1 X104.579 Y193.715 E42.54003
G1 X103.264 Y193.978 E42.71844
G1 X101.933 Y194.218 E42.89837
G1 X100.584 Y194.437 E43.08019
G1 X99.234 Y194.634 E43.2617
G1 X97.886 Y194.805 E43.44248
G1 X96.523 Y194.955 E43.62491
G1 X95.154 Y195.08 E43.8078
G1 X93.771 Y195.182 E43.99229
G1 X92.4 Y195.26 E44.17499
G1 X91.006 Y195.313 E44.36058
G1 X89.654 Y195.342 E44.54049
G1 X88.234 Y195.346 E44.72941
G1 X86.841 Y195.325 E44.91475
G1 X85.436 Y195.278 E45.10178
G1 X84.084 Y195.21 E45.28188
G1 X82.64 Y195.111 E45.47444
G1 X81.244 Y194.989 E45.66087
G1 X79.852 Y194.844 E45.84707
G1 X78.46 Y194.671 E46.03368
G1 X77.029 Y194.467 E46.22599
G1 X75.631 Y194.243 E46.41435
G1 X74.253 Y193.996 E46.60061
G1 X72.862 Y193.72 E46.78927
G1 X71.558 Y193.438 E46.96677
G1 X70.158 Y193.109 E47.1581
G1 X68.784 Y192.759 E47.34673
G1 X67.435 Y192.39 E47.5328
G1 X66.075 Y191.991 E47.72136
G1 X64.741 Y191.574 E47.9073
G1 X63.398 Y191.127 E48.09562
G1 X62.075 Y190.66 E48.28227
G1 X60.76 Y190.168 E48.46906
G1 X59.465 Y189.658 E48.65423
G1 X58.166 Y189.118 E48.84139
G1 X56.893 Y188.564 E49.02609
G1 X55.617 Y187.98 E49.21279
G1 X54.315 Y187.355 E49.40493
G1 X53.125 Y186.758 E49.58205
G1 X51.855 Y186.092 E49.77284
G1 X50.618 Y185.415 E49.96044
G1 X49.413 Y184.726 E50.14511
G1 X48.208 Y184.008 E50.33173
G1 X47.026 Y183.277 E50.51663
G1 X45.893 Y182.547 E50.69594
G1 X44.723 Y181.763 E50.88331
G1 X43.586 Y180.972 E51.06758
G1 X42.474 Y180.168 E51.25014
G1 X41.387 Y179.354 E51.43081
G1 X40.306 Y178.513 E51.61303
G1 X39.25 Y177.663 E51.79338
G1 X38.213 Y176.797 E51.97312
G1 X37.195 Y175.918 E52.15206
G1 X36.15 Y174.98 E52.33888
G1 X35.183 Y174.084 E52.51426
G1 X34.163 Y173.104 E52.70245
G1 X33.178 Y172.126 E52.88712
G1 X32.957 Y171.937 E52.9258
G1 X32.866 Y171.869 E52.94092
G1 X32.599 Y171.708 E52.9824
G1 X32.493 Y171.656 E52.9981
G1 X32.199 Y171.542 E53.04006
G1 X32.082 Y171.507 E53.0563
G1 X31.701 Y171.434 E53.10791
G1 X31.25 Y171.427 E53.16792
G1 X30.866 Y171.488 E53.21965
G1 X30.748 Y171.52 E53.23592
G1 X30.451 Y171.625 E53.27783
G1 X30.341 Y171.676 E53.29396
G1 X30.003 Y171.875 E53.34614
G1 X29.759 Y172.072 E53.38786
G1 X29.677 Y172.15 E53.40292
G1 X29.474 Y172.379 E53.44363
G1 X29.403 Y172.474 E53.45941
G1 X29.236 Y172.744 E53.50165
G1 X29.18 Y172.853 E53.51795
G1 X29.058 Y173.165 E53.56252
G1 X29.019 Y173.321 E53.58391
G1 X28.952 Y173.655 E53.62923
G1 X28.943 Y174.044 E53.681
G1 X28.952 Y174.167 E53.69741
G1 X29.003 Y174.477 E53.7392
G1 X29.032 Y174.592 E53.75498
G1 X29.16 Y174.946 E53.80506
G1 X30.854 Y178.773 E54.36186
G1 X33.126 Y183.805 E55.09639
