;FLAVOR:Marlin
;TIME:3759
;Filament used: 9.70603m
;Layer height: 0.4
;MINX:114.541
;MINY:140.407
;MINZ:0.25
;MAXX:285.459
;MAXY:279.593
;MAXZ:11.85
;Generated with Cura_SteamEngine 4.5.0
M140 S40
M105
M190 S40
M104 S210
M105
M109 S210
M82 ;absolute extrusion mode
M201 X500.00 Y500.00 Z100.00 E5000.00 ;Setup machine max acceleration
M203 X500.00 Y500.00 Z10.00 E50.00 ;Setup machine max feedrate
M204 P500.00 R1000.00 T500.00 ;Setup Print/Retract/Travel acceleration
M205 X8.00 Y8.00 Z0.40 E5.00 ;Setup Jerk
M220 S100 ;Reset Feedrate
M221 S100 ;Reset Flowrate

G28 ;Home

G1 Z2.0 F3000 ;Move Z Axis up
G29 P1 ;UBL probing
G29 S1 ;UBL MESH SAVE
G29 F10.0 ;UBL FADE
G29 A ;ACTIVATE UBL
M500 ;SAVE TO EEPROM

G92 E0 ;Reset Extruder
G1 Z2.0 F3000 ;Move Z Axis up
G1 X10.1 Y20 Z0.28 F5000.0 ;Move to start position
G1 X10.1 Y200.0 Z0.28 F1500.0 E15 ;Draw the first line
G1 X10.4 Y200.0 Z0.28 F5000.0 ;Move to side a little
G1 X10.4 Y20 Z0.28 F1500.0 E30 ;Draw the second line
G92 E0 ;Reset Extruder
G92 E0
G92 E0
G1 F2700 E-5
;LAYER_COUNT:30
;LAYER:0
M107
M204 S500
M205 X8 Y8
;MESH:FSR12.stl
G0 F6000 X223.547 Y273.171 Z0.25
;TYPE:WALL-INNER
G1 F2700 E0
G1 F900 X221.82 Y273.651 E0.14904
G1 X220.191 Y274.066 E0.28882
G1 X218.511 Y274.461 E0.43232
G1 X216.8 Y274.825 E0.57778
G1 X215.121 Y275.147 E0.71993
G1 X213.41 Y275.44 E0.86427
G1 X211.721 Y275.694 E1.00629
G1 X210.076 Y275.906 E1.14421
G1 X208.398 Y276.09 E1.28457
G1 X206.618 Y276.249 E1.43317
G1 X204.889 Y276.366 E1.57726
G1 X203.036 Y276.454 E1.73151
G1 X201.374 Y276.498 E1.86976
G1 X200.034 Y276.508 E1.98118
G1 X198.333 Y276.492 E2.12263
G1 X196.564 Y276.439 E2.26979
G1 X194.854 Y276.353 E2.41215
G1 X193.105 Y276.229 E2.55795
G1 X191.372 Y276.069 E2.70266
G1 X189.689 Y275.88 E2.84348
G1 X187.981 Y275.652 E2.98676
G1 X186.253 Y275.387 E3.13213
G1 X184.521 Y275.082 E3.27836
G1 X182.819 Y274.748 E3.42258
G1 X181.063 Y274.365 E3.57202
G1 X179.383 Y273.961 E3.7157
G1 X177.475 Y273.458 E3.87977
G1 X174.266 Y272.523 E4.1577
G1 X172.399 Y271.884 E4.32178
G1 X170.761 Y271.302 E4.46632
G1 X169.108 Y270.675 E4.61332
G1 X167.388 Y269.979 E4.76761
G1 X165.741 Y269.272 E4.91664
G1 X164.093 Y268.521 E5.06723
G1 X162.477 Y267.745 E5.21629
G1 X160.89 Y266.938 E5.36433
G1 X159.258 Y266.066 E5.51819
G1 X157.694 Y265.187 E5.66737
G1 X156.149 Y264.275 E5.81655
G1 X154.574 Y263.297 E5.9707
G1 X153.055 Y262.309 E6.12137
G1 X151.546 Y261.28 E6.27324
G1 X150.091 Y260.243 E6.42181
G1 X148.603 Y259.132 E6.57622
G1 X147.172 Y258.015 E6.72717
G1 X145.78 Y256.881 E6.87646
G1 X144.394 Y255.699 E7.02792
G1 X143.007 Y254.465 E7.18229
G1 X141.705 Y253.257 E7.32997
G1 X140.37 Y251.962 E7.48462
G1 X139.118 Y250.694 E7.63279
G1 X138.83 Y250.389 E7.66767
G1 X138.56 Y250.104 E7.70032
G1 X138.474 Y250.013 E7.71073
G1 X138.727 Y249.945 E7.7204
G1 X139.082 Y249.779 E7.74355
G1 X139.33 Y249.662 E7.76635
G1 X139.864 Y249.278 E7.82104
G1 X140.327 Y248.79 E7.87698
G1 X140.706 Y248.21 E7.93459
G1 X140.974 Y247.535 E7.99498
G1 X141.106 Y246.772 E8.05936
G1 X141.089 Y246.113 E8.11418
G1 X140.94 Y245.435 E8.1719
G1 X140.668 Y244.8 E8.22934
G1 X140.321 Y244.292 E8.28049
G1 X139.183 Y242.861 E8.43252
G1 X138.138 Y241.44 E8.57919
G1 X137.096 Y239.906 E8.73338
G1 X136.199 Y238.48 E8.87346
G1 X135.223 Y236.813 E9.03409
G1 X134.196 Y234.94 E9.2117
G1 X133.233 Y233.062 E9.38719
G1 X132.342 Y231.196 E9.55913
G1 X131.503 Y229.31 E9.73077
G1 X130.712 Y227.387 E9.90367
G1 X129.982 Y225.46 E10.07501
G1 X129.31 Y223.534 E10.24462
G1 X128.672 Y221.516 E10.42061
G1 X128.1 Y219.524 E10.59294
G1 X127.586 Y217.519 E10.76504
G1 X127.138 Y215.546 E10.93328
G1 X126.726 Y213.478 E11.10861
G1 X126.383 Y211.449 E11.27972
G1 X126.088 Y209.362 E11.45498
G1 X125.861 Y207.365 E11.6221
G1 X125.41 Y201.791 E12.08709
G1 X125.004 Y196.18 E12.55487
G1 X124.642 Y190.579 E13.02156
G1 X124.328 Y184.952 E13.49018
G1 X124.255 Y183.4 E13.61937
G1 X124.209 Y182.422 E13.70078
G1 X124.119 Y180.542 E13.85728
G1 X124.093 Y180.01 E13.90157
G1 X124.094 Y180.013 E13.90184
G1 X124.229 Y180.536 E13.93367
G1 X124.757 Y182.395 E14.00167
G1 X125.048 Y183.33 E14.07041
G1 X125.335 Y184.252 E14.1507
G1 X125.962 Y186.105 E14.31336
G1 X126.639 Y187.953 E14.47701
G1 X127.367 Y189.793 E14.64154
G1 X128.145 Y191.621 E14.80674
G1 X128.972 Y193.439 E14.97281
G1 X129.85 Y195.244 E15.13971
G1 X130.759 Y196.998 E15.30398
G1 X131.708 Y198.72 E15.46747
G1 X132.702 Y200.426 E15.63164
G1 X133.744 Y202.111 E15.79638
G1 X134.83 Y203.772 E15.96139
G1 X135.959 Y205.411 E16.12688
G1 X137.133 Y207.022 E16.29263
G1 X138.351 Y208.607 E16.45884
G1 X139.61 Y210.162 E16.62521
G1 X140.91 Y211.688 E16.79189
G1 X142.248 Y213.18 E16.95853
G1 X143.625 Y214.638 E17.12529
G1 X145.041 Y216.061 E17.29221
G1 X146.492 Y217.447 E17.45906
G1 X147.977 Y218.796 E17.62588
G1 X149.493 Y220.105 E17.79242
G1 X151.043 Y221.373 E17.95894
G1 X152.621 Y222.599 E18.1251
G1 X154.226 Y223.783 E18.29094
G1 X155.859 Y224.925 E18.45663
G1 X157.516 Y226.02 E18.62178
G1 X159.195 Y227.07 E18.78644
G1 X160.894 Y228.077 E18.95066
G1 X162.615 Y229.037 E19.11452
G1 X164.351 Y229.948 E19.27754
G1 X166.102 Y230.813 E19.43993
G1 X167.867 Y231.631 E19.60169
G1 X169.644 Y232.402 E19.76275
G1 X171.43 Y233.125 E19.92297
G1 X173.225 Y233.801 E20.08246
G1 X175.024 Y234.428 E20.24087
G1 X176.819 Y235.006 E20.39767
G1 X176.829 Y235.01 E20.39857
G1 X178.636 Y235.546 E20.55529
G1 X180.445 Y236.034 E20.71109
G1 X182.253 Y236.476 E20.86585
G1 X184.058 Y236.872 E21.0195
G1 X185.86 Y237.225 E21.17219
G1 X187.752 Y237.546 E21.33176
G1 X189.647 Y237.823 E21.491
G1 X191.533 Y238.048 E21.64894
G1 X191.543 Y238.05 E21.64978
G1 X193.431 Y238.232 E21.8075
G1 X195.303 Y238.368 E21.96357
G1 X197.25 Y238.462 E22.12565
G1 X199.043 Y238.504 E22.27478
G1 X199.987 Y238.509 E22.35327
G1 X201.942 Y238.486 E22.51584
G1 X203.825 Y238.417 E22.67252
G1 X205.719 Y238.301 E22.8303
G1 X207.605 Y238.14 E22.98769
G1 X209.432 Y237.941 E23.14051
G1 X211.267 Y237.698 E23.29442
G1 X213.111 Y237.408 E23.44964
G1 X214.957 Y237.071 E23.60567
G1 X216.812 Y236.69 E23.76313
G1 X218.669 Y236.258 E23.92167
G1 X220.529 Y235.778 E24.08139
G1 X222.388 Y235.25 E24.24208
G1 X224.245 Y234.672 E24.4038
G1 X226.098 Y234.046 E24.56643
G1 X227.946 Y233.368 E24.73011
G1 X229.786 Y232.64 E24.89465
G1 X231.614 Y231.862 E25.05984
G1 X233.432 Y231.035 E25.22591
G1 X235.237 Y230.157 E25.39281
G1 X236.991 Y229.248 E25.55708
G1 X238.713 Y228.299 E25.72057
G1 X240.419 Y227.305 E25.88474
G1 X242.104 Y226.264 E26.04943
G1 X243.765 Y225.177 E26.21449
G1 X245.404 Y224.048 E26.37998
G1 X247.015 Y222.874 E26.54573
G1 X248.6 Y221.656 E26.71194
G1 X250.155 Y220.397 E26.87831
G1 X251.681 Y219.097 E27.045
G1 X253.173 Y217.759 E27.21164
G1 X254.631 Y216.382 E27.37839
G1 X256.054 Y214.966 E27.54531
G1 X257.44 Y213.515 E27.71216
G1 X258.789 Y212.03 E27.87898
G1 X260.098 Y210.514 E28.04553
G1 X261.366 Y208.964 E28.21204
G1 X262.592 Y207.386 E28.3782
G1 X263.776 Y205.781 E28.54404
G1 X264.917 Y204.148 E28.70969
G1 X266.013 Y202.492 E28.87481
G1 X267.063 Y200.812 E29.03954
G1 X268.07 Y199.113 E29.20377
G1 X269.03 Y197.392 E29.36763
G1 X269.941 Y195.656 E29.53064
G1 X270.806 Y193.905 E29.69304
G1 X271.624 Y192.14 E29.85479
G1 X272.395 Y190.363 E30.01586
G1 X273.118 Y188.577 E30.17607
G1 X273.793 Y186.782 E30.33553
G1 X274.421 Y184.983 E30.49397
G1 X274.949 Y183.346 E30.63699
G1 X274.999 Y183.188 E30.65077
G1 X275.003 Y183.178 E30.65167
G1 X275.539 Y181.371 E30.80839
G1 X275.907 Y180.007 E30.92586
G1 X275.842 Y181.385 E30.94704
G1 X275.754 Y183.213 E31.04919
G1 X275.747 Y183.378 E31.06255
G1 X275.669 Y184.976 E31.19558
G1 X275.355 Y190.597 E31.6637
G1 X274.996 Y196.193 E32.12997
G1 X274.58 Y201.914 E32.60693
G1 X274.138 Y207.367 E33.06183
G1 X273.92 Y209.304 E33.22391
G1 X273.623 Y211.422 E33.40175
G1 X273.279 Y213.456 E33.57328
G1 X272.868 Y215.525 E33.74868
G1 X272.416 Y217.519 E33.91868
G1 X271.906 Y219.512 E34.08974
G1 X271.334 Y221.504 E34.26207
G1 X270.701 Y223.5 E34.43619
G1 X270.019 Y225.46 E34.60874
G1 X269.294 Y227.374 E34.77893
G1 X268.497 Y229.31 E34.95302
G1 X267.667 Y231.18 E35.12313
G1 X266.773 Y233.052 E35.29563
G1 X265.818 Y234.916 E35.46978
G1 X264.817 Y236.738 E35.64264
G1 X263.784 Y238.504 E35.81276
G1 X262.866 Y239.966 E35.9563
G1 X261.827 Y241.49 E36.10967
G1 X260.839 Y242.833 E36.24831
G1 X259.637 Y244.347 E36.40905
G1 X259.353 Y244.768 E36.45127
G1 X259.074 Y245.393 E36.50819
G1 X258.916 Y246.097 E36.56818
G1 X258.902 Y246.872 E36.63263
G1 X259.022 Y247.519 E36.68735
G1 X259.278 Y248.181 E36.74637
G1 X259.677 Y248.795 E36.80725
G1 X260.093 Y249.239 E36.85784
G1 X260.68 Y249.669 E36.91835
G1 X260.908 Y249.776 E36.93929
G1 X261.256 Y249.938 E36.97121
G1 X261.533 Y250.011 E36.99503
G1 X261.437 Y250.111
G1 X261.171 Y250.387 E37.01798
G1 X260.374 Y251.215 E37.11354
G1 X259.086 Y252.496 E37.26459
G1 X257.761 Y253.756 E37.41663
G1 X256.398 Y255.001 E37.57012
G1 X255.054 Y256.175 E37.71851
G1 X253.623 Y257.372 E37.87364
G1 X252.235 Y258.485 E38.02157
G1 X250.787 Y259.594 E38.17323
G1 X249.317 Y260.671 E38.32476
G1 X247.812 Y261.724 E38.47749
G1 X246.295 Y262.736 E38.62912
G1 X244.751 Y263.72 E38.78136
G1 X243.221 Y264.652 E38.93032
G1 X241.659 Y265.556 E39.08039
G1 X240.067 Y266.432 E39.23148
G1 X238.472 Y267.266 E39.38114
G1 X236.827 Y268.082 E39.53383
G1 X235.199 Y268.848 E39.68343
G1 X233.592 Y269.562 E39.82965
G1 X231.903 Y270.27 E39.98193
G1 X230.1 Y270.98 E40.14305
G1 X226.208 Y272.374 E40.48681
G1 X223.547 Y273.171 E40.71778
G0 F6000 X223.777 Y273.936
G1 F900 X223.762 Y273.941 E40.7191
G1 X222.035 Y274.422 E40.86816
G1 X220.374 Y274.845 E41.01068
G1 X218.677 Y275.244 E41.15564
G1 X216.96 Y275.609 E41.3016
G1 X215.256 Y275.936 E41.44587
G1 X213.545 Y276.229 E41.59021
G1 X211.84 Y276.485 E41.73357
G1 X210.163 Y276.701 E41.87417
G1 X208.469 Y276.887 E42.01587
G1 X206.689 Y277.046 E42.16447
G1 X204.931 Y277.165 E42.31098
G1 X203.057 Y277.254 E42.46698
G1 X201.395 Y277.298 E42.60522
G1 X200.033 Y277.308 E42.71848
G1 X198.309 Y277.292 E42.86183
G1 X196.54 Y277.239 E43.00899
G1 X194.804 Y277.152 E43.15352
G1 X193.031 Y277.026 E43.30132
G1 X191.298 Y276.866 E43.44603
G1 X189.593 Y276.674 E43.5887
G1 X187.86 Y276.443 E43.73408
G1 X186.125 Y276.177 E43.88003
G1 X184.382 Y275.87 E44.02719
G1 X182.649 Y275.53 E44.17404
G1 X180.893 Y275.147 E44.32348
G1 X179.179 Y274.735 E44.47006
G1 X177.271 Y274.232 E44.63413
G1 X173.469 Y273.124 E44.96342
G1 X173.469 Y273.096 E44.96575
G1 X172.131 Y272.638 E45.08334
G1 X170.493 Y272.056 E45.22788
G1 X168.808 Y271.417 E45.37773
G1 X167.088 Y270.721 E45.53201
G1 X165.414 Y270.002 E45.6835
G1 X163.761 Y269.249 E45.83454
G1 X162.114 Y268.458 E45.98646
G1 X160.513 Y267.644 E46.1358
G1 X158.881 Y266.772 E46.28966
G1 X157.287 Y265.876 E46.44171
G1 X155.732 Y264.958 E46.59186
G1 X154.152 Y263.977 E46.7465
G1 X152.619 Y262.98 E46.89855
G1 X151.095 Y261.941 E47.05192
G1 X149.612 Y260.884 E47.20335
G1 X148.124 Y259.773 E47.35776
G1 X146.68 Y258.646 E47.51007
G1 X145.261 Y257.49 E47.66226
G1 X143.862 Y256.297 E47.81514
G1 X142.475 Y255.063 E47.9695
G1 X141.148 Y253.831 E48.12007
G1 X139.813 Y252.536 E48.27472
G1 X138.537 Y251.244 E48.42571
G1 X137.279 Y249.914 E48.57793
G1 X137.268 Y249.902 E48.57929
G1 X137.23 Y249.86 E48.584
G1 X137.02 Y249.629 E48.60996
G1 X136.748 Y249.329 E48.64363
G1 X136.649 Y249.22 E48.65587
G1 X136.805 Y249.276
G1 X137.324 Y249.352 E48.67419
G1 X137.806 Y249.335 E48.70661
G1 X137.822 Y249.333 E48.70795
G1 X138.012 Y249.309 E48.72387
G1 X138.451 Y249.191 E48.76167
G1 X138.923 Y248.969 E48.80504
G1 X139.336 Y248.672 E48.84734
G1 X139.697 Y248.292 E48.89092
G1 X139.992 Y247.84 E48.9358
G1 X140.2 Y247.317 E48.9826
G1 X140.304 Y246.714 E49.03348
G1 X140.291 Y246.21 E49.0754
G1 X140.175 Y245.68 E49.12052
G1 X139.964 Y245.187 E49.16511
G1 X139.677 Y244.768 E49.20734
G1 X138.557 Y243.359 E49.357
G1 X138.54 Y243.335 E49.35944
G1 X137.476 Y241.89 E49.50866
G1 X136.434 Y240.356 E49.66285
G1 X135.522 Y238.906 E49.80529
G1 X135.51 Y238.884 E49.80737
G1 X134.524 Y237.201 E49.96956
G1 X133.484 Y235.305 E50.14937
G1 X132.521 Y233.427 E50.32486
G1 X131.62 Y231.541 E50.49866
G1 X130.772 Y229.635 E50.67212
G1 X129.972 Y227.691 E50.84692
G1 X129.234 Y225.744 E51.02005
G1 X128.556 Y223.798 E51.1914
G1 X128.548 Y223.776 E51.19335
G1 X127.909 Y221.758 E51.36936
G1 X127.331 Y219.745 E51.5435
G1 X126.811 Y217.718 E51.71751
G1 X126.353 Y215.702 E51.88941
G1 X125.941 Y213.634 E52.06474
G1 X125.594 Y211.582 E52.23779
G1 X125.293 Y209.456 E52.41633
G1 X125.066 Y207.455 E52.58378
G1 X124.613 Y201.856 E53.05086
G1 X124.206 Y196.238 E53.51922
G1 X123.844 Y190.624 E53.987
G1 X123.529 Y184.997 E54.45562
G1 X123.295 Y180.051 E54.86734
G1 X123.295 Y180.048 E54.86759
G1 X123.262 Y179.368 E54.9242
G1 X123.123 Y175.827 E55.21886
G1 X123.085 Y174.837 E55.30124
G1 X123.033 Y173.512 E55.4115
G1 X123.018 Y172.996 E55.45442
G1 X122.963 Y171.164 E55.60682
G1 X122.921 Y169.805 E55.71988
G1 X123.101 Y171.159 E55.72999
G1 X123.388 Y172.984 E55.77945
G1 X123.469 Y173.432 E55.79752
G1 X123.721 Y174.812 E55.87739
G1 X123.92 Y175.782 E55.95135
G1 X124.099 Y176.648 E56.02488
G1 X124.526 Y178.486 E56.18178
G1 X125.001 Y180.327 E56.33988
G1 X125.524 Y182.167 E56.49893
G1 X126.096 Y184.005 E56.65899
G1 X126.717 Y185.839 E56.82
G1 X127.387 Y187.668 E56.98196
G1 X128.107 Y189.489 E57.14479
G1 X128.877 Y191.299 E57.30834
G1 X129.696 Y193.098 E57.4727
G1 X130.565 Y194.885 E57.63793
G1 X131.465 Y196.621 E57.80052
G1 X132.404 Y198.326 E57.96237
G1 X133.388 Y200.014 E58.12484
G1 X134.419 Y201.682 E58.28789
G1 X135.494 Y203.326 E58.45122
G1 X136.612 Y204.948 E58.61502
G1 X137.774 Y206.543 E58.77911
G1 X138.979 Y208.112 E58.94361
G1 X140.225 Y209.651 E59.10826
G1 X141.512 Y211.161 E59.27323
G1 X142.837 Y212.638 E59.43822
G1 X144.2 Y214.081 E59.60327
G1 X145.601 Y215.49 E59.76849
G1 X147.037 Y216.862 E59.93363
G1 X148.507 Y218.197 E60.09875
G1 X150.008 Y219.492 E60.26359
G1 X151.542 Y220.747 E60.42839
G1 X153.104 Y221.961 E60.59288
G1 X154.693 Y223.133 E60.75706
G1 X156.309 Y224.263 E60.92102
G1 X157.949 Y225.347 E61.08449
G1 X159.611 Y226.387 E61.24751
G1 X161.293 Y227.383 E61.41005
G1 X162.996 Y228.333 E61.5722
G1 X164.714 Y229.235 E61.73354
G1 X166.447 Y230.091 E61.89426
G1 X168.194 Y230.901 E62.05438
G1 X169.953 Y231.664 E62.21381
G1 X171.721 Y232.38 E62.37241
G1 X173.498 Y233.049 E62.5303
G1 X175.279 Y233.67 E62.68713
G1 X177.065 Y234.246 E62.84317
G1 X178.854 Y234.776 E62.99832
G1 X180.644 Y235.259 E63.15248
G1 X182.434 Y235.697 E63.30571
G1 X184.221 Y236.089 E63.45783
G1 X186.004 Y236.438 E63.6089
G1 X187.877 Y236.756 E63.76687
G1 X189.752 Y237.03 E63.92443
G1 X191.629 Y237.255 E64.08163
G1 X193.498 Y237.435 E64.23775
G1 X195.351 Y237.569 E64.39223
G1 X197.279 Y237.662 E64.55273
G1 X199.055 Y237.704 E64.70045
G1 X199.984 Y237.709 E64.7777
G1 X201.923 Y237.686 E64.93894
G1 X203.786 Y237.618 E65.09395
G1 X205.661 Y237.503 E65.25015
G1 X207.528 Y237.344 E65.40595
G1 X209.336 Y237.147 E65.55718
G1 X211.152 Y236.906 E65.7095
G1 X212.977 Y236.619 E65.86312
G1 X214.805 Y236.286 E66.01762
G1 X216.641 Y235.908 E66.17348
G1 X218.479 Y235.481 E66.33038
G1 X220.32 Y235.006 E66.48848
G1 X222.16 Y234.483 E66.64753
G1 X223.998 Y233.911 E66.80759
G1 X225.832 Y233.291 E66.96857
G1 X227.661 Y232.62 E67.13056
G1 X229.482 Y231.9 E67.29339
G1 X231.292 Y231.13 E67.45694
G1 X233.091 Y230.311 E67.6213
G1 X234.878 Y229.442 E67.78653
G1 X236.614 Y228.542 E67.94912
G1 X238.319 Y227.603 E68.11097
G1 X240.007 Y226.619 E68.27344
G1 X241.675 Y225.589 E68.43644
G1 X243.319 Y224.513 E68.59982
G1 X244.941 Y223.395 E68.76362
G1 X246.536 Y222.233 E68.92771
G1 X248.105 Y221.028 E69.09221
G1 X249.644 Y219.782 E69.25686
G1 X251.154 Y218.495 E69.42184
G1 X252.631 Y217.17 E69.58682
G1 X254.074 Y215.807 E69.75187
G1 X255.483 Y214.406 E69.91709
G1 X256.855 Y212.97 E70.08223
G1 X258.19 Y211.5 E70.24735
G1 X259.485 Y209.999 E70.41219
G1 X260.74 Y208.465 E70.57699
G1 X261.954 Y206.903 E70.74148
G1 X263.126 Y205.314 E70.90566
G1 X264.255 Y203.698 E71.06958
G1 X265.34 Y202.059 E71.23302
G1 X266.38 Y200.396 E71.39611
G1 X267.376 Y198.714 E71.55865
