; generated by PrusaSlicer 2.2.0+win64 on 2020-04-21 at 18:31:17 UTC


;
;

;
;
; 

; external perimeters extrusion width = 1.13mm
; perimeters extrusion width = 1.13mm
; infill extrusion width = 1.13mm
; solid infill extrusion width = 1.13mm
; top infill extrusion width = 1.00mm
; first layer extrusion width = 0.70mm

M73 P0 R37
M201 X1250 Y1250 Z400 E5000 ; sets maximum accelerations, mm/sec^2
M203 X180 Y180 Z12 E80 ; sets maximum feedrates, mm/sec
M204 P1250 R1250 T1250 ; sets acceleration (P, T) and retract acceleration (R), mm/sec^2
M205 X8.00 Y8.00 Z2.00 E10.00 ; sets the jerk limits, mm/sec
M205 S0 T0 ; sets the minimum extruding and travel feed rate, mm/sec
M107
G90 ; use absolute coordinates
M83 ; extruder relative mode
M104 S170 ; set extruder temp for bed leveling
M140 S80 ; set bed temp
M109 R170 ; wait for bed leveling temp
M190 S80 ; wait for bed temp
G28 ; home all without mesh bed level
G29 ; mesh bed leveling 
M104 S215 ; set extruder temp
G92 E0.0
G1 Y-2.0 X179 F2400
G1 Z3 F720
M109 S215 ; wait for extruder temp

; intro line
G1 X170 F1000
G1 Z0.2 F720
G1 X110.0 E8.0 F900
M73 P0 R37
G1 X40.0 E10.0 F700
G92 E0.0

M221 S95 ; set flow
G21 ; set units to millimeters
G90 ; use absolute coordinates
M83 ; use relative distances for extrusion
M900 K0.2 ; Filament gcode
;BEFORE_LAYER_CHANGE
G92 E0.0
;0.35


G1 Z0.350 F7800.000
;AFTER_LAYER_CHANGE
;0.35
G1 E-3.50000 F4200.00000
G1 Z0.550 F7800.000
G1 X28.084 Y50.096
G1 Z0.350
G1 E3.50000 F2400.00000
G1 F1800.000
G1 X29.526 Y48.601 E0.18889
G1 X30.818 Y47.318 E0.16557
G1 X32.138 Y46.061 E0.16576
G1 X33.487 Y44.832 E0.16590
G1 X34.862 Y43.632 E0.16601
G1 X36.264 Y42.460 E0.16608
G1 X37.690 Y41.320 E0.16611
G1 X39.141 Y40.210 E0.16610
G1 X40.615 Y39.131 E0.16606
G1 X42.111 Y38.086 E0.16597
G1 X43.628 Y37.073 E0.16585
G1 X45.165 Y36.094 E0.16569
G1 X46.721 Y35.150 E0.16549
G1 X48.294 Y34.240 E0.16525
G1 X49.884 Y33.366 E0.16498
G1 X51.489 Y32.527 E0.16467
G1 X53.108 Y31.725 E0.16432
G1 X54.740 Y30.959 E0.16394
G1 X56.384 Y30.229 E0.16352
G1 X58.038 Y29.536 E0.16307
G1 X59.694 Y28.884 E0.16189
G1 X63.701 Y27.443 E0.38712
G1 X66.413 Y26.633 E0.25743
G1 X68.115 Y26.160 E0.16062
G1 X69.809 Y25.726 E0.15896
G1 X71.503 Y25.330 E0.15826
G1 X73.198 Y24.970 E0.15752
G1 X74.891 Y24.646 E0.15676
G1 X76.582 Y24.357 E0.15597
G1 X78.270 Y24.105 E0.15515
G1 X79.953 Y23.887 E0.15431
G1 X81.630 Y23.704 E0.15340
G1 X83.391 Y23.548 E0.16077
G1 X85.149 Y23.429 E0.16021
G1 X86.896 Y23.347 E0.15902
G1 X88.605 Y23.302 E0.15546
G1 X89.998 Y23.290 E0.12671
G1 X91.605 Y23.306 E0.14615
G1 X93.424 Y23.359 E0.16540
G1 X95.203 Y23.450 E0.16203
G1 X96.962 Y23.576 E0.16030
G1 X98.667 Y23.734 E0.15569
G1 X100.378 Y23.927 E0.15664
G1 X102.096 Y24.156 E0.15754
G1 X103.817 Y24.422 E0.15840
G1 X105.542 Y24.725 E0.15925
G1 X107.269 Y25.065 E0.16006
G1 X108.998 Y25.443 E0.16085
G1 X110.725 Y25.859 E0.16161
G1 X112.449 Y26.312 E0.16200
G1 X115.979 Y27.339 E0.33431
G1 X119.322 Y28.515 E0.32228
G1 X121.021 Y29.161 E0.16525
G1 X122.713 Y29.846 E0.16602
G1 X124.378 Y30.562 E0.16483
G1 X126.017 Y31.309 E0.16371
G1 X127.643 Y32.092 E0.16412
G1 X129.256 Y32.911 E0.16449
G1 X130.854 Y33.766 E0.16482
G1 X132.436 Y34.657 E0.16511
G1 X134.002 Y35.583 E0.16537
G1 X135.549 Y36.543 E0.16559
G1 X137.077 Y37.538 E0.16577
G1 X138.584 Y38.566 E0.16591
G1 X140.070 Y39.627 E0.16602
G1 X141.534 Y40.720 E0.16609
G1 X142.973 Y41.844 E0.16611
G1 X144.389 Y42.999 E0.16610
G1 X145.778 Y44.184 E0.16606
G1 X147.141 Y45.398 E0.16597
G1 X148.477 Y46.640 E0.16584
G1 X149.784 Y47.909 E0.16568
G1 X151.063 Y49.204 E0.16548
G1 X151.904 Y50.094 E0.11132
G1 X151.304 Y50.256 E0.05652
G1 X150.718 Y50.543 E0.05928
G1 X150.191 Y50.947 E0.06037
G1 X149.797 Y51.375 E0.05297
G1 X149.449 Y51.929 E0.05945
G1 X149.207 Y52.563 E0.06167
G1 X149.093 Y53.235 E0.06200
G1 X149.128 Y53.969 E0.06684
G1 X149.268 Y54.551 E0.05438
G1 X149.498 Y55.077 E0.05225
G1 X149.811 Y55.551 E0.05167
G1 X150.976 Y57.017 E0.17027
G1 X151.995 Y58.402 E0.15636
G1 X153.022 Y59.906 E0.16559
G1 X153.965 Y61.407 E0.16113
G1 X154.960 Y63.106 E0.17910
G1 X156.001 Y65.003 E0.19670
G1 X156.945 Y66.845 E0.18821
G1 X157.840 Y68.716 E0.18862
G1 X158.683 Y70.615 E0.18890
G1 X159.473 Y72.534 E0.18875
G1 X160.210 Y74.477 E0.18890
G1 X160.892 Y76.440 E0.18897
G1 X161.520 Y78.421 E0.18897
G1 X162.092 Y80.418 E0.18889
G1 X162.608 Y82.428 E0.18875
G1 X163.068 Y84.450 E0.18853
G1 X163.470 Y86.481 E0.18824
G1 X163.816 Y88.518 E0.18787
G1 X164.104 Y90.559 E0.18744
G1 X164.335 Y92.598 E0.18656
G1 X164.788 Y98.185 E0.50973
G1 X165.196 Y103.797 E0.51169
G1 X165.557 Y109.413 E0.51170
G1 X165.871 Y115.032 E0.51169
G1 X166.121 Y120.277 E0.47744
G1 X165.787 Y120.327 E0.03076
G1 X165.567 Y119.476 E0.07991
G1 X165.039 Y117.622 E0.17530
G1 X164.462 Y115.770 E0.17640
G1 X163.835 Y113.922 E0.17745
G1 X163.158 Y112.080 E0.17846
G1 X162.432 Y110.245 E0.17942
G1 X161.655 Y108.420 E0.18033
G1 X160.828 Y106.607 E0.18119
G1 X159.952 Y104.808 E0.18198
G1 X159.045 Y103.059 E0.17915
G1 X158.097 Y101.341 E0.17842
G1 X157.104 Y99.641 E0.17902
G1 X156.065 Y97.961 E0.17957
G1 X154.981 Y96.304 E0.18007
G1 X153.853 Y94.671 E0.18052
G1 X152.680 Y93.063 E0.18090
G1 X151.466 Y91.483 E0.18123
G1 X150.209 Y89.932 E0.18150
G1 X148.912 Y88.412 E0.18172
G1 X147.575 Y86.924 E0.18187
G1 X146.200 Y85.470 E0.18196
G1 X144.788 Y84.051 E0.18200
G1 X143.341 Y82.669 E0.18198
G1 X141.859 Y81.325 E0.18189
G1 X140.345 Y80.021 E0.18175
G1 X138.799 Y78.757 E0.18155
G1 X137.225 Y77.534 E0.18129
G1 X135.622 Y76.354 E0.18097
G1 X133.993 Y75.218 E0.18059
G1 X132.340 Y74.125 E0.18016
G1 X130.665 Y73.078 E0.17967
G1 X128.969 Y72.076 E0.17913
G1 X127.253 Y71.120 E0.17853
G1 X125.521 Y70.211 E0.17788
G1 X123.774 Y69.349 E0.17718
G1 X122.013 Y68.534 E0.17643
G1 X120.241 Y67.766 E0.17562
G1 X118.459 Y67.045 E0.17478
G1 X116.669 Y66.372 E0.17388
G1 X114.873 Y65.746 E0.17294
G1 X113.073 Y65.167 E0.17196
G1 X111.270 Y64.635 E0.17093
G1 X109.466 Y64.149 E0.16987
G1 X107.663 Y63.709 E0.16877
G1 X105.862 Y63.314 E0.16763
G1 X104.065 Y62.964 E0.16651
G1 X102.177 Y62.643 E0.17408
G1 X100.286 Y62.369 E0.17374
G1 X98.396 Y62.142 E0.17313
G1 X96.512 Y61.962 E0.17209
G1 X94.645 Y61.829 E0.17018
G1 X92.814 Y61.741 E0.16670
G1 X90.004 Y61.691 E0.25561
G1 X88.045 Y61.716 E0.17810
G1 X86.185 Y61.784 E0.16920
G1 X84.254 Y61.902 E0.17596
G1 X82.374 Y62.063 E0.17157
G1 X80.553 Y62.263 E0.16657
G1 X78.723 Y62.507 E0.16788
G1 X76.885 Y62.797 E0.16921
G1 X75.040 Y63.133 E0.17050
G1 X73.191 Y63.516 E0.17176
G1 X71.338 Y63.947 E0.17298
G1 X69.483 Y64.426 E0.17416
G1 X67.629 Y64.954 E0.17530
G1 X65.777 Y65.531 E0.17640
G1 X63.929 Y66.158 E0.17745
G1 X62.087 Y66.835 E0.17846
G1 X60.252 Y67.561 E0.17942
G1 X58.427 Y68.338 E0.18033
G1 X56.614 Y69.165 E0.18119
G1 X54.815 Y70.041 E0.18198
G1 X53.066 Y70.948 E0.17915
G1 X51.348 Y71.896 E0.17842
G1 X49.648 Y72.889 E0.17902
G1 X47.968 Y73.928 E0.17958
G1 X46.311 Y75.012 E0.18007
G1 X44.678 Y76.140 E0.18052
G1 X43.070 Y77.312 E0.18090
G1 X41.490 Y78.527 E0.18123
G1 X39.939 Y79.784 E0.18150
G1 X38.419 Y81.081 E0.18172
G1 X36.931 Y82.418 E0.18187
G1 X35.477 Y83.793 E0.18196
G1 X34.058 Y85.205 E0.18200
G1 X32.676 Y86.652 E0.18197
G1 X31.332 Y88.134 E0.18189
G1 X30.028 Y89.648 E0.18175
G1 X28.764 Y91.194 E0.18155
G1 X27.541 Y92.768 E0.18129
G1 X26.361 Y94.371 E0.18097
G1 X25.225 Y96.000 E0.18059
G1 X24.132 Y97.653 E0.18016
G1 X23.085 Y99.328 E0.17967
G1 X22.083 Y101.024 E0.17913
G1 X21.127 Y102.740 E0.17853
G1 X20.218 Y104.472 E0.17788
G1 X19.356 Y106.219 E0.17718
G1 X18.541 Y107.980 E0.17643
G1 X17.773 Y109.752 E0.17562
G1 X17.052 Y111.534 E0.17478
G1 X16.379 Y113.324 E0.17388
G1 X15.753 Y115.120 E0.17294
G1 X15.174 Y116.920 E0.17196
G1 X14.642 Y118.723 E0.17094
G1 X14.212 Y120.318 E0.15020
G1 X13.880 Y120.266 E0.03061
G1 X14.156 Y114.541 E0.52116
G1 X14.444 Y109.395 E0.46861
G1 X14.805 Y103.785 E0.51118
G1 X15.212 Y98.179 E0.51115
G1 X15.665 Y92.597 E0.50920
G1 X15.885 Y90.640 E0.17911
G1 X16.187 Y88.498 E0.19670
G1 X16.534 Y86.457 E0.18821
G1 X16.938 Y84.423 E0.18862
G1 X17.399 Y82.397 E0.18890
G1 X17.916 Y80.387 E0.18875
G1 X18.489 Y78.390 E0.18889
G1 X19.118 Y76.409 E0.18897
G1 X19.801 Y74.446 E0.18897
G1 X20.539 Y72.504 E0.18889
G1 X21.329 Y70.585 E0.18875
G1 X22.172 Y68.691 E0.18853
G1 X23.065 Y66.823 E0.18824
G1 X24.008 Y64.985 E0.18787
G1 X24.999 Y63.177 E0.18744
G1 X26.035 Y61.406 E0.18656
G1 X26.978 Y59.906 E0.16115
G1 X28.005 Y58.402 E0.16560
G1 X29.024 Y57.017 E0.15635
G1 X30.183 Y55.558 E0.16943
G1 X30.491 Y55.104 E0.04989
G1 X30.748 Y54.504 E0.05932
G1 X30.883 Y53.893 E0.05690
G1 X30.893 Y53.107 E0.07143
G1 X30.771 Y52.489 E0.05731
G1 X30.523 Y51.873 E0.06038
G1 X30.180 Y51.347 E0.05713
G1 X29.800 Y50.938 E0.05077
G1 X29.251 Y50.524 E0.06249
G1 X28.644 Y50.237 E0.06109
G1 X28.229 Y50.133 E0.03888
G1 X26.882 Y50.484 F7800.000
G1 F1800.000
G1 X27.809 Y49.481 E0.12415
G1 X29.081 Y48.162 E0.16657
G1 X30.382 Y46.870 E0.16679
G1 X31.712 Y45.604 E0.16698
G1 X33.071 Y44.366 E0.16712
G1 X34.456 Y43.156 E0.16723
G1 X35.868 Y41.977 E0.16730
G1 X37.305 Y40.827 E0.16733
G1 X38.767 Y39.709 E0.16732
G1 X40.252 Y38.623 E0.16728
G1 X41.759 Y37.570 E0.16719
G1 X43.287 Y36.550 E0.16707
G1 X44.835 Y35.564 E0.16691
G1 X46.402 Y34.612 E0.16671
G1 X47.987 Y33.696 E0.16647
G1 X49.589 Y32.815 E0.16619
G1 X51.206 Y31.970 E0.16588
G1 X52.837 Y31.162 E0.16553
G1 X54.481 Y30.390 E0.16514
G1 X56.136 Y29.655 E0.16472
G1 X57.803 Y28.957 E0.16427
G1 X59.474 Y28.299 E0.16335
G1 X63.505 Y26.850 E0.38954
G1 X66.240 Y26.032 E0.25953
G1 X67.954 Y25.556 E0.16176
G1 X69.660 Y25.119 E0.16014
G1 X71.367 Y24.720 E0.15943
G1 X73.074 Y24.357 E0.15868
G1 X74.780 Y24.031 E0.15791
G1 X76.483 Y23.740 E0.15712
G1 X78.183 Y23.486 E0.15630
G1 X79.879 Y23.266 E0.15545
G1 X81.568 Y23.082 E0.15455
G1 X83.342 Y22.925 E0.16194
G1 X85.113 Y22.805 E0.16138
G1 X86.873 Y22.723 E0.16018
G1 X88.594 Y22.677 E0.15656
G1 X89.999 Y22.665 E0.12774
G1 X91.618 Y22.681 E0.14722
G1 X93.449 Y22.735 E0.16657
G1 X95.242 Y22.826 E0.16323
G1 X97.013 Y22.953 E0.16148
G1 X98.730 Y23.112 E0.15685
G1 X100.455 Y23.307 E0.15779
G1 X102.185 Y23.538 E0.15869
G1 X103.919 Y23.806 E0.15957
G1 X105.657 Y24.111 E0.16042
G1 X107.397 Y24.453 E0.16124
G1 X109.137 Y24.834 E0.16203
G1 X110.878 Y25.253 E0.16279
G1 X112.615 Y25.710 E0.16334
G1 X116.606 Y26.871 E0.37794
G1 X116.606 Y26.897 E0.00241
G1 X119.537 Y27.928 E0.28249
G1 X121.249 Y28.579 E0.16658
G1 X122.954 Y29.269 E0.16724
G1 X124.632 Y29.991 E0.16604
G1 X126.282 Y30.743 E0.16492
G1 X127.920 Y31.532 E0.16533
G1 X129.545 Y32.357 E0.16570
G1 X131.155 Y33.218 E0.16603
G1 X132.749 Y34.116 E0.16633
G1 X134.326 Y35.048 E0.16659
G1 X135.884 Y36.016 E0.16681
G1 X137.423 Y37.018 E0.16699
G1 X138.942 Y38.053 E0.16713
G1 X140.439 Y39.122 E0.16724
G1 X141.913 Y40.223 E0.16731
G1 X143.363 Y41.356 E0.16734
G1 X144.789 Y42.519 E0.16733
G1 X146.189 Y43.713 E0.16728
G1 X147.562 Y44.936 E0.16719
G1 X148.907 Y46.187 E0.16706
G1 X150.224 Y47.465 E0.16690
G1 X151.512 Y48.770 E0.16670
G1 X152.770 Y50.100 E0.16646
G1 X153.373 Y50.766 E0.08168
G1 X152.600 Y50.664 E0.07093
G1 X152.047 Y50.703 E0.05034
G1 X151.525 Y50.844 E0.04923
G1 X151.049 Y51.077 E0.04818
G1 X150.614 Y51.410 E0.04978
G1 X150.295 Y51.756 E0.04281
G1 X150.011 Y52.209 E0.04865
G1 X149.813 Y52.728 E0.05047
G1 X149.721 Y53.272 E0.05024
G1 X149.750 Y53.881 E0.05535
G1 X149.863 Y54.351 E0.04400
G1 X150.049 Y54.778 E0.04232
G1 X150.317 Y55.184 E0.04428
G1 X151.472 Y56.638 E0.16883
G1 X152.505 Y58.041 E0.15841
G1 X153.545 Y59.564 E0.16768
G1 X154.500 Y61.082 E0.16310
G1 X155.504 Y62.798 E0.18079
G1 X156.553 Y64.710 E0.19829
G1 X157.505 Y66.567 E0.18980
G1 X158.407 Y68.455 E0.19020
G1 X159.258 Y70.369 E0.19048
G1 X160.054 Y72.305 E0.19033
G1 X160.797 Y74.263 E0.19048
G1 X161.485 Y76.243 E0.19055
G1 X162.118 Y78.240 E0.19055
G1 X162.695 Y80.254 E0.19047
G1 X163.216 Y82.281 E0.19033
G1 X163.679 Y84.320 E0.19010
G1 X164.085 Y86.368 E0.18981
G1 X164.433 Y88.422 E0.18945
G1 X164.724 Y90.480 E0.18901
G1 X164.958 Y92.537 E0.18826
G1 X165.411 Y98.137 E0.51087
G1 X165.819 Y103.755 E0.51216
G1 X166.181 Y109.376 E0.51217
G1 X166.495 Y115.000 E0.51217
G1 X166.763 Y120.626 E0.51218
G1 X167.024 Y127.544 E0.62952
G1 X166.674 Y127.577 E0.03202
G1 X166.247 Y125.153 E0.22385
G1 X165.866 Y123.318 E0.17039
G1 X165.439 Y121.480 E0.17160
G1 X164.964 Y119.640 E0.17277
G1 X164.440 Y117.801 E0.17390
G1 X163.867 Y115.963 E0.17499
G1 X163.245 Y114.130 E0.17604
G1 X162.574 Y112.302 E0.17704
G1 X161.853 Y110.482 E0.17799
G1 X161.083 Y108.672 E0.17890
G1 X160.263 Y106.874 E0.17975
G1 X159.394 Y105.089 E0.18053
G1 X158.493 Y103.354 E0.17772
G1 X157.554 Y101.649 E0.17700
G1 X156.569 Y99.963 E0.17759
G1 X155.538 Y98.297 E0.17814
G1 X154.462 Y96.653 E0.17864
G1 X153.343 Y95.032 E0.17908
G1 X152.180 Y93.438 E0.17946
G1 X150.975 Y91.870 E0.17979
G1 X149.729 Y90.331 E0.18005
G1 X148.442 Y88.823 E0.18027
G1 X147.116 Y87.347 E0.18042
G1 X145.752 Y85.905 E0.18051
G1 X144.351 Y84.498 E0.18055
G1 X142.915 Y83.127 E0.18052
G1 X141.445 Y81.794 E0.18044
G1 X139.943 Y80.499 E0.18030
G1 X138.410 Y79.245 E0.18010
G1 X136.848 Y78.033 E0.17984
G1 X135.258 Y76.862 E0.17952
G1 X133.642 Y75.734 E0.17915
G1 X132.002 Y74.651 E0.17872
G1 X130.340 Y73.612 E0.17824
G1 X128.658 Y72.618 E0.17770
G1 X126.956 Y71.670 E0.17711
G1 X125.238 Y70.768 E0.17646
G1 X123.504 Y69.913 E0.17576
G1 X121.758 Y69.104 E0.17502
G1 X120.000 Y68.342 E0.17422
G1 X118.232 Y67.628 E0.17338
G1 X116.456 Y66.960 E0.17249
G1 X114.675 Y66.339 E0.17156
G1 X112.889 Y65.764 E0.17059
G1 X111.100 Y65.236 E0.16957
G1 X109.311 Y64.754 E0.16852
G1 X107.522 Y64.318 E0.16742
G1 X105.736 Y63.926 E0.16629
G1 X103.953 Y63.579 E0.16516
G1 X102.080 Y63.261 E0.17271
G1 X100.204 Y62.989 E0.17236
G1 X98.329 Y62.763 E0.17175
G1 X96.460 Y62.585 E0.17072
G1 X94.608 Y62.452 E0.16883
G1 X92.794 Y62.366 E0.16518
G1 X90.002 Y62.315 E0.25389
G1 X88.060 Y62.340 E0.17655
G1 X86.216 Y62.408 E0.16783
G1 X84.300 Y62.525 E0.17457
G1 X82.435 Y62.685 E0.17020
G1 X80.629 Y62.883 E0.16523
G1 X78.813 Y63.125 E0.16654
G1 X76.990 Y63.413 E0.16786
G1 X75.160 Y63.746 E0.16914
G1 X73.325 Y64.126 E0.17039
G1 X71.487 Y64.554 E0.17160
G1 X69.647 Y65.029 E0.17277
G1 X67.808 Y65.553 E0.17390
G1 X65.970 Y66.126 E0.17499
G1 X64.137 Y66.748 E0.17604
G1 X62.309 Y67.419 E0.17704
G1 X60.489 Y68.140 E0.17799
G1 X58.679 Y68.910 E0.17889
G1 X56.881 Y69.730 E0.17975
G1 X55.096 Y70.599 E0.18053
G1 X53.361 Y71.500 E0.17772
G1 X51.656 Y72.439 E0.17700
G1 X49.970 Y73.424 E0.17759
G1 X48.304 Y74.455 E0.17814
G1 X46.660 Y75.531 E0.17864
G1 X45.039 Y76.650 E0.17908
G1 X43.445 Y77.813 E0.17946
G1 X41.877 Y79.018 E0.17979
G1 X40.338 Y80.264 E0.18006
G1 X38.830 Y81.551 E0.18027
G1 X37.354 Y82.877 E0.18042
G1 X35.912 Y84.241 E0.18051
G1 X34.505 Y85.642 E0.18055
G1 X33.134 Y87.078 E0.18052
G1 X31.801 Y88.548 E0.18044
G1 X30.506 Y90.050 E0.18030
G1 X29.252 Y91.583 E0.18010
G1 X28.040 Y93.145 E0.17984
G1 X26.869 Y94.735 E0.17952
G1 X25.742 Y96.351 E0.17915
G1 X24.658 Y97.991 E0.17872
G1 X23.619 Y99.653 E0.17824
G1 X22.625 Y101.335 E0.17770
G1 X21.677 Y103.037 E0.17711
G1 X20.775 Y104.755 E0.17646
G1 X19.920 Y106.489 E0.17576
G1 X19.111 Y108.235 E0.17502
G1 X18.349 Y109.993 E0.17422
G1 X17.635 Y111.761 E0.17338
G1 X16.967 Y113.537 E0.17249
G1 X16.346 Y115.318 E0.17156
G1 X15.771 Y117.104 E0.17059
G1 X15.243 Y118.893 E0.16957
G1 X14.761 Y120.682 E0.16852
G1 X14.325 Y122.471 E0.16742
G1 X13.933 Y124.257 E0.16629
G1 X13.586 Y126.040 E0.16516
G1 X13.324 Y127.582 E0.14223
G1 X12.976 Y127.547 E0.03183
G1 X13.238 Y120.597 E0.63241
G1 X13.532 Y114.508 E0.55432
G1 X13.820 Y109.358 E0.46906
G1 X14.182 Y103.743 E0.51165
G1 X14.589 Y98.131 E0.51162
G1 X15.042 Y92.537 E0.51033
G1 X15.265 Y90.561 E0.18079
G1 X15.570 Y88.402 E0.19829
G1 X15.919 Y86.344 E0.18980
G1 X16.327 Y84.292 E0.19020
G1 X16.792 Y82.250 E0.19048
G1 X17.313 Y80.223 E0.19033
G1 X17.891 Y78.209 E0.19048
G1 X18.525 Y76.212 E0.19055
G1 X19.214 Y74.233 E0.19055
G1 X19.958 Y72.274 E0.19047
G1 X20.755 Y70.339 E0.19033
G1 X21.605 Y68.429 E0.19011
G1 X22.505 Y66.546 E0.18981
G1 X23.456 Y64.692 E0.18945
