;FLAVOR:Marlin
;TIME:8752
;Filament used: 26.4873m
;Layer height: 0.5
;MINX:3.388
;MINY:2.138
;MINZ:0.32
;MAXX:231.626
;MAXY:239.816
;MAXZ:11.82
;Generated with Cura_SteamEngine 4.5.0
M140 S60
M105
M190 S60
M104 S220
M105
M109 S220
M82 ;absolute extrusion mode
; Ender 3 Custom Start G-code
G92 E0 ; Reset Extruder
G28 ; Home all axes
G1 Z2.0 F3000 ; Move Z Axis up little to prevent scratching of Heat Bed
G1 X0.1 Y20 Z0.3 F5000.0 ; Move to start position
G1 X0.1 Y200.0 Z0.3 F1500.0 E15 ; Draw the first line
G1 X0.4 Y200.0 Z0.3 F5000.0 ; Move to side a little
G1 X0.4 Y20 Z0.3 F1500.0 E30 ; Draw the second line
G92 E0 ; Reset Extruder
G1 Z2.0 F3000 ; Move Z Axis up little to prevent scratching of Heat Bed
G1 X5 Y20 Z0.3 F5000.0 ; Move over to prevent blob squish
G92 E0
G92 E0
G1 F2700 E-5
;LAYER_COUNT:24
;LAYER:0
M107
;MESH:FSR12-x3.stl
G0 F6000 X114.943 Y231.132 Z0.32
;TYPE:WALL-INNER
G1 F2700 E0
G1 F1200 X113.201 Y231.441 E0.23537
G1 X111.459 Y231.713 E0.46994
G1 X109.717 Y231.949 E0.70381
G1 X107.913 Y232.154 E0.94536
G1 X105.955 Y232.334 E1.20695
G1 X102.215 Y232.576 E1.70557
G1 X102.208 Y232.557 E1.70826
G1 X100.576 Y232.594 E1.92544
G1 X98.916 Y232.605 E2.14629
G1 X97.034 Y232.578 E2.3967
G1 X95.204 Y232.513 E2.64032
G1 X93.398 Y232.41 E2.88098
G1 X91.594 Y232.269 E3.12172
G1 X89.794 Y232.088 E3.3624
G1 X87.982 Y231.868 E3.60524
G1 X86.192 Y231.611 E3.84582
G1 X84.372 Y231.311 E4.09122
G1 X82.596 Y230.978 E4.33162
G1 X80.8 Y230.602 E4.57574
G1 X79.034 Y230.192 E4.81694
G1 X77.254 Y229.738 E5.06133
G1 X75.468 Y229.242 E5.30793
G1 X73.712 Y228.714 E5.55189
G1 X71.98 Y228.151 E5.79418
G1 X70.267 Y227.554 E6.03552
G1 X68.521 Y226.903 E6.28343
G1 X66.849 Y226.238 E6.52282
G1 X65.135 Y225.513 E6.77042
G1 X63.494 Y224.777 E7.00969
G1 X61.815 Y223.981 E7.2569
G1 X60.791 Y223.469 E7.40921
G1 X60.705 Y223.426 E7.422
G1 X60.49 Y223.318 E7.45401
G1 X60.173 Y223.159 E7.50119
G1 X60.68 Y222.936 E7.53158
G1 X61.094 Y222.647 E7.58344
G1 X61.167 Y222.584 E7.59558
G1 X61.253 Y222.511 E7.61059
G1 X61.52 Y222.232 E7.66196
G1 X61.637 Y222.086 E7.68686
G1 X61.841 Y221.779 E7.73589
G1 X61.933 Y221.607 E7.76184
G1 X62.081 Y221.258 E7.81228
G1 X62.147 Y221.053 E7.84093
G1 X62.249 Y220.533 E7.91143
G1 X62.26 Y220 E7.98236
G1 X62.149 Y219.364 E8.06825
G1 X61.957 Y218.869 E8.13888
G1 X61.855 Y218.679 E8.16757
G1 X61.64 Y218.35 E8.21986
G1 X61.507 Y218.184 E8.24816
G1 X61.15 Y217.826 E8.31542
G1 X60.815 Y217.587 E8.37017
G1 X59.256 Y216.631 E8.61347
G1 X57.686 Y215.585 E8.86446
G1 X56.226 Y214.531 E9.10402
G1 X54.872 Y213.479 E9.33214
G1 X53.344 Y212.212 E9.59622
G1 X51.733 Y210.799 E9.88131
G1 X50.211 Y209.388 E10.15743
G1 X48.725 Y207.932 E10.43421
G1 X47.278 Y206.43 E10.71168
G1 X45.868 Y204.887 E10.98976
G1 X44.515 Y203.318 E11.26539
G1 X43.189 Y201.692 E11.54453
G1 X41.924 Y200.049 E11.8204
G1 X40.682 Y198.34 E12.10147
G1 X39.504 Y196.62 E12.37882
G1 X38.383 Y194.883 E12.65386
G1 X37.314 Y193.117 E12.9285
G1 X36.29 Y191.321 E13.20355
G1 X35.268 Y189.4 E13.49304
G1 X34.376 Y187.608 E13.75935
G1 X32.036 Y182.508 E14.50586
G1 X29.733 Y177.368 E15.2552
G1 X27.472 Y172.211 E16.00433
G1 X25.254 Y167.038 E16.75314
G1 X23.354 Y162.506 E17.40693
G1 X23.081 Y161.853 E17.50109
G1 X22.802 Y161.17 E17.59924
G1 X22.099 Y159.448 E17.8467
G1 X21.397 Y157.73 E18.0936
G1 X21.276 Y157.435 E18.13602
G1 X21.438 Y157.712 E18.13709
G1 X22.428 Y159.313 E18.18918
G1 X23.462 Y160.9 E18.32546
G1 X23.784 Y161.369 E18.38244
G1 X24.185 Y161.952 E18.46973
G1 X24.543 Y162.473 E18.55383
G1 X25.669 Y164.028 E18.80925
G1 X26.84 Y165.566 E19.06643
G1 X28.057 Y167.083 E19.32517
G1 X29.318 Y168.576 E19.58516
G1 X30.623 Y170.046 E19.84668
G1 X31.972 Y171.49 E20.10958
G1 X33.363 Y172.905 E20.37356
G1 X34.796 Y174.291 E20.63879
G1 X36.242 Y175.619 E20.89999
G1 X37.713 Y176.905 E21.15993
G1 X39.223 Y178.159 E21.42107
G1 X40.768 Y179.376 E21.68273
G1 X42.347 Y180.558 E21.94513
G1 X43.96 Y181.702 E22.20822
G1 X45.605 Y182.808 E22.47194
G1 X47.28 Y183.873 E22.73601
G1 X48.985 Y184.897 E23.00061
G1 X50.717 Y185.877 E23.26537
G1 X52.475 Y186.815 E23.53046
G1 X54.258 Y187.708 E23.79576
G1 X56.063 Y188.555 E24.06103
G1 X57.888 Y189.356 E24.32618
G1 X59.734 Y190.108 E24.59137
G1 X61.596 Y190.814 E24.8563
G1 X63.473 Y191.47 E25.12083
G1 X65.364 Y192.078 E25.38509
G1 X67.265 Y192.637 E25.64871
G1 X69.178 Y193.147 E25.91211
G1 X71.098 Y193.606 E26.17474
G1 X73.022 Y194.015 E26.43643
G1 X74.953 Y194.375 E26.69776
G1 X76.883 Y194.685 E26.95782
G1 X78.814 Y194.946 E27.21706
G1 X80.744 Y195.158 E27.47537
G1 X82.67 Y195.322 E27.73253
G1 X84.59 Y195.435 E27.98841
G1 X86.504 Y195.503 E28.24321
G1 X88.408 Y195.523 E28.49654
G1 X90.303 Y195.498 E28.74867
G1 X92.186 Y195.426 E28.99937
G1 X94.054 Y195.31 E29.24837
G1 X95.859 Y195.156 E29.48938
G1 X97.697 Y194.954 E29.73538
G1 X99.517 Y194.712 E29.97964
G1 X101.321 Y194.428 E30.2226
G1 X103.245 Y194.077 E30.4828
G1 X105.108 Y193.689 E30.73597
G1 X106.955 Y193.258 E30.9883
G1 X108.78 Y192.784 E31.23915
G1 X110.574 Y192.272 E31.48736
G1 X112.405 Y191.701 E31.74252
G1 X114.073 Y191.139 E31.97669
G1 X114.95 Y190.827 E32.10053
G1 X116.785 Y190.132 E32.36159
G1 X118.507 Y189.433 E32.60884
G1 X120.276 Y188.664 E32.86546
G1 X121.981 Y187.873 E33.11552
G1 X123.572 Y187.088 E33.35155
G1 X125.202 Y186.237 E33.59618
G1 X126.825 Y185.341 E33.84282
G1 X128.481 Y184.373 E34.09802
G1 X130.082 Y183.383 E34.34845
G1 X131.669 Y182.349 E34.60044
G1 X133.243 Y181.268 E34.85448
G1 X134.797 Y180.142 E35.10979
G1 X136.335 Y178.971 E35.36697
G1 X137.851 Y177.754 E35.62561
G1 X139.346 Y176.493 E35.88581
G1 X140.815 Y175.188 E36.14722
G1 X142.259 Y173.84 E36.41003
G1 X143.674 Y172.448 E36.67411
G1 X145.06 Y171.015 E36.93934
G1 X146.388 Y169.569 E37.20053
G1 X147.674 Y168.098 E37.46048
G1 X148.927 Y166.589 E37.72142
G1 X150.145 Y165.044 E37.98316
G1 X151.327 Y163.465 E38.24557
G1 X152.472 Y161.851 E38.50885
G1 X153.577 Y160.206 E38.77249
G1 X154.642 Y158.531 E39.03656
G1 X155.666 Y156.826 E39.30116
G1 X156.647 Y155.094 E39.56598
G1 X157.584 Y153.336 E39.83102
G1 X158.477 Y151.553 E40.09632
G1 X159.324 Y149.748 E40.36158
G1 X160.124 Y147.923 E40.62668
G1 X160.878 Y146.077 E40.89197
G1 X161.583 Y144.215 E41.15685
G1 X162.239 Y142.338 E41.42138
G1 X162.848 Y140.447 E41.68569
G1 X163.406 Y138.546 E41.94927
G1 X163.916 Y136.634 E42.21253
G1 X164.375 Y134.713 E42.4753
G1 X164.784 Y132.789 E42.73699
G1 X165.144 Y130.859 E42.99819
G1 X165.454 Y128.928 E43.25838
G1 X165.715 Y126.998 E43.51748
G1 X165.927 Y125.067 E43.77593
G1 X166.09 Y123.141 E44.03308
G1 X166.205 Y121.221 E44.28898
G1 X166.273 Y119.307 E44.54378
G1 X166.293 Y117.402 E44.79723
G1 X166.267 Y115.508 E45.04923
G1 X166.195 Y113.625 E45.29993
G1 X166.079 Y111.757 E45.54893
G1 X165.967 Y110.446 E45.72398
G1 X165.925 Y109.952 E45.78994
G1 X165.896 Y109.68 E45.82633
G1 X165.723 Y108.114 E46.03594
G1 X165.481 Y106.294 E46.28021
G1 X165.277 Y104.995 E46.45515
G1 X165.672 Y106.232 E46.4719
G1 X166.223 Y107.954 E46.56186
G1 X166.745 Y109.586 E46.72226
G1 X166.776 Y109.687 E46.73312
G1 X166.923 Y110.16 E46.79547
G1 X168.415 Y114.955 E47.46357
G1 X170.041 Y120.34 E48.21194
G1 X171.62 Y125.737 E48.96006
G1 X173.196 Y131.293 E49.7284
G1 X174.642 Y136.551 E50.4539
G1 X175.109 Y138.489 E50.71911
G1 X175.547 Y140.557 E51.00034
G1 X175.929 Y142.643 E51.28248
G1 X176.242 Y144.659 E51.5539
G1 X176.502 Y146.731 E51.83172
G1 X176.706 Y148.804 E52.10885
G1 X176.854 Y150.913 E52.39012
G1 X176.942 Y152.983 E52.66576
G1 X176.972 Y155.057 E52.94172
G1 X176.945 Y157.164 E53.22206
G1 X176.86 Y159.224 E53.49635
G1 X176.715 Y161.328 E53.77693
G1 X176.516 Y163.383 E54.05161
G1 X176.262 Y165.425 E54.32537
G1 X175.934 Y167.544 E54.61064
G1 X175.574 Y169.527 E54.87878
G1 X175.19 Y171.31 E55.12143
G1 X174.749 Y173.039 E55.35882
G1 X174.248 Y174.745 E55.59537
G1 X173.652 Y176.535 E55.84637
G1 X173.537 Y177.027 E55.91359
G1 X173.513 Y177.474 E55.97314
G1 X173.519 Y177.672 E55.99949
G1 X173.583 Y178.149 E56.06352
G1 X173.792 Y178.768 E56.15044
G1 X174.057 Y179.217 E56.21981
G1 X174.181 Y179.384 E56.24748
G1 X174.488 Y179.727 E56.30872
G1 X174.973 Y180.104 E56.39045
G1 X175.448 Y180.343 E56.46119
G1 X176.031 Y180.522 E56.54233
G1 X176.533 Y180.57 E56.60942
G1 X176.649 Y180.57 E56.62485
G1 X176.739 Y180.57 E56.63682
G1 X177.212 Y180.523 E56.70006
G1 X177.727 Y180.37 E56.77154
G1 X177.596 Y180.683 E56.77471
G1 X177.508 Y180.892 E56.77703
G1 X177.395 Y181.161 E56.79644
G1 X177.359 Y181.243 E56.80836
G1 X176.65 Y182.838 E57.04058
G1 X175.876 Y184.482 E57.28232
G1 X175.053 Y186.139 E57.52846
G1 X174.213 Y187.743 E57.76935
G1 X173.324 Y189.356 E58.01438
G1 X172.399 Y190.95 E58.25957
G1 X171.45 Y192.508 E58.50227
G1 X170.47 Y194.043 E58.74456
G1 X169.438 Y195.583 E58.99119
G1 X168.399 Y197.065 E59.23199
G1 X167.303 Y198.557 E59.47828
G1 X166.202 Y199.992 E59.71891
G1 X165.04 Y201.441 E59.96602
G1 X163.889 Y202.816 E60.20458
G1 X162.675 Y204.201 E60.44961
G1 X161.464 Y205.527 E60.68852
G1 X160.199 Y206.853 E60.93233
G1 X158.929 Y208.13 E61.17194
G1 X157.617 Y209.394 E61.41432
G1 X156.304 Y210.608 E61.65222
G1 X154.812 Y211.923 E61.91681
G1 X151.677 Y214.528 E62.45909
G1 X149.415 Y216.211 E62.83419
G1 X147.964 Y217.247 E63.07139
G1 X146.539 Y218.22 E63.30095
G1 X145.104 Y219.161 E63.52925
G1 X143.603 Y220.099 E63.76473
G1 X142.143 Y220.972 E63.99104
G1 X140.65 Y221.825 E64.21981
G1 X139.145 Y222.643 E64.4477
G1 X137.623 Y223.432 E64.67577
G1 X136.099 Y224.184 E64.90187
G1 X134.482 Y224.941 E65.1394
G1 X132.894 Y225.645 E65.3705
G1 X131.124 Y226.384 E65.62568
G1 X129.623 Y226.976 E65.84035
G1 X128.341 Y227.455 E66.02242
G1 X126.711 Y228.03 E66.25237
G1 X125.04 Y228.581 E66.48646
G1 X123.408 Y229.083 E66.71362
G1 X121.686 Y229.574 E66.95185
G1 X120.032 Y230.009 E67.17938
G1 X118.353 Y230.416 E67.40922
G1 X116.636 Y230.795 E67.64315
G1 X114.943 Y231.132 E67.87281
G0 F6000 X115 Y231.53
G0 X115.118 Y232.117
;TYPE:WALL-OUTER
G1 F1200 X113.376 Y232.426 E68.10818
G1 X111.599 Y232.703 E68.34745
G1 X109.83 Y232.943 E68.58496
G1 X108.027 Y233.148 E68.82638
G1 X106.034 Y233.331 E69.09264
G1 X102.931 Y233.532 E69.50633
G1 X104.4 Y237.575 E70.07862
G1 X103.138 Y238.034 E70.25728
G1 X101.514 Y233.573 E70.88887
G1 X100.599 Y233.594 E71.01064
G1 X98.909 Y233.605 E71.23548
G1 X97.02 Y233.578 E71.48682
G1 X95.157 Y233.512 E71.73483
G1 X93.32 Y233.407 E71.97962
G1 X91.507 Y233.265 E72.22157
G1 X89.673 Y233.081 E72.46679
G1 X87.861 Y232.861 E72.70963
G1 X86.028 Y232.598 E72.95599
G1 X84.209 Y232.298 E73.20126
G1 X82.394 Y231.958 E73.44693
G1 X80.595 Y231.581 E73.69147
G1 X78.792 Y231.162 E73.93773
G1 X76.986 Y230.702 E74.18567
G1 X75.2 Y230.206 E74.43228
G1 X73.424 Y229.672 E74.679
G1 X71.671 Y229.102 E74.92424
G1 X69.919 Y228.491 E75.1711
G1 X68.172 Y227.84 E75.41913
G1 X66.459 Y227.159 E75.66438
G1 X64.745 Y226.434 E75.91197
G1 X63.066 Y225.681 E76.15678
G1 X61.387 Y224.885 E76.40399
G1 X59.737 Y224.059 E76.64948
G1 X58.118 Y223.204 E76.89306
G1 X56.502 Y222.306 E77.13902
G1 X54.917 Y221.381 E77.38317
G1 X53.365 Y220.43 E77.62533
G1 X51.862 Y219.465 E77.86296
G1 X50.31 Y218.422 E78.11173
G1 X48.826 Y217.378 E78.35312
G1 X47.368 Y216.306 E78.59389
G1 X45.986 Y215.244 E78.82576
G1 X44.576 Y214.114 E79.06616
G1 X43.211 Y212.974 E79.30276
G1 X41.859 Y211.795 E79.54142
G1 X40.553 Y210.609 E79.77612
G1 X39.262 Y209.388 E80.01253
G1 X37.893 Y208.035 E80.2686
G1 X36.075 Y206.145 E80.61749
G1 X31.546 Y207.793 E81.25869
G1 X31.085 Y206.531 E81.43743
G1 X35.091 Y205.072 E82.00464
G1 X34.339 Y204.218 E82.15603
G1 X33.288 Y202.996 E82.37046
G1 X32.233 Y201.72 E82.59073
G1 X31.023 Y200.194 E82.84983
G1 X29.948 Y198.777 E83.08646
G1 X29.128 Y197.646 E83.27231
G1 X29.962 Y197.096 E83.40522
G1 X31.017 Y198.539 E83.64304
G1 X32.619 Y200.607 E83.99106
G1 X34.243 Y202.577 E84.33073
G1 X35.953 Y204.527 E84.67578
G1 X37.719 Y206.423 E85.02049
G1 X39.544 Y208.266 E85.36556
G1 X41.425 Y210.053 E85.71074
G1 X43.359 Y211.783 E86.05596
G1 X45.345 Y213.452 E86.40109
G1 X47.378 Y215.058 E86.74577
G1 X49.456 Y216.599 E87.08995
G1 X51.577 Y218.074 E87.43366
G1 X53.735 Y219.48 E87.77632
G1 X55.989 Y220.854 E88.12751
G1 X58.213 Y222.117 E88.46778
G1 X58.524 Y222.237 E88.51213
G1 X58.631 Y222.268 E88.52695
G1 X59.01 Y222.329 E88.57802
G1 X59.361 Y222.323 E88.62472
G1 X59.803 Y222.229 E88.68484
G1 X60.188 Y222.06 E88.74078
G1 X60.482 Y221.855 E88.78847
G1 X60.565 Y221.784 E88.803
G1 X60.766 Y221.574 E88.84167
G1 X60.828 Y221.496 E88.85493
G1 X60.982 Y221.265 E88.89186
G1 X61.03 Y221.175 E88.90543
G1 X61.143 Y220.909 E88.94388
G1 X61.177 Y220.803 E88.95869
G1 X61.251 Y220.426 E89.00981
G1 X61.258 Y220.076 E89.05638
G1 X61.181 Y219.633 E89.1162
G1 X61.047 Y219.288 E89.16544
G1 X60.994 Y219.189 E89.18038
G1 X60.83 Y218.938 E89.22027
G1 X60.761 Y218.852 E89.23494
G1 X60.501 Y218.591 E89.28395
G1 X60.263 Y218.421 E89.32286
G1 X58.715 Y217.473 E89.56436
G1 X57.119 Y216.409 E89.81955
G1 X55.631 Y215.335 E90.06369
G1 X54.241 Y214.254 E90.29796
G1 X52.706 Y212.982 E90.56318
G1 X51.065 Y211.543 E90.85355
G1 X49.52 Y210.11 E91.1339
G1 X48.012 Y208.633 E91.41473
G1 X46.546 Y207.111 E91.69587
G1 X45.13 Y205.562 E91.97508
G1 X43.742 Y203.952 E92.25789
G1 X42.414 Y202.324 E92.5374
G1 X41.115 Y200.637 E92.82066
G1 X39.873 Y198.928 E93.10173
G1 X38.679 Y197.185 E93.38281
G1 X37.543 Y195.425 E93.6615
G1 X36.445 Y193.612 E93.94349
G1 X35.411 Y191.798 E94.22128
G1 X34.385 Y189.87 E94.51184
G1 X33.472 Y188.036 E94.7844
G1 X31.127 Y182.925 E95.53252
G1 X28.82 Y177.777 E96.28304
G1 X26.556 Y172.613 E97.03319
G1 X24.335 Y167.432 E97.78314
G1 X22.156 Y162.231 E98.53335
G1 X19.909 Y156.734 E99.32342
G1 X17.765 Y151.357 E100.09355
G1 X15.774 Y146.243 E100.82366
G1 X13.827 Y141.117 E101.55316
G1 X11.815 Y135.684 E102.32395
G1 X9.258 Y128.557 E103.3313
G1 X10.233 Y128.203 E103.4693
G1 X15.932 Y143.86 E105.68602
G1 X16.604 Y145.638 E105.9389
G1 X17.31 Y147.374 E106.18822
G1 X18.059 Y149.097 E106.43817
G1 X18.862 Y150.823 E106.69144
G1 X19.637 Y152.394 E106.92449
G1 X20.456 Y153.96 E107.1596
G1 X21.34 Y155.562 E107.40303
G1 X22.295 Y157.197 E107.65494
G1 X23.272 Y158.777 E107.90209
G1 X24.293 Y160.344 E108.15091
G1 X25.36 Y161.896 E108.40148
G1 X26.472 Y163.432 E108.65376
G1 X27.628 Y164.95 E108.90761
G1 X28.829 Y166.447 E109.16294
G1 X30.074 Y167.921 E109.41963
G1 X31.362 Y169.373 E109.67786
G1 X32.694 Y170.798 E109.93736
G1 X34.067 Y172.195 E110.19796
G1 X35.482 Y173.563 E110.4598
G1 X36.909 Y174.874 E110.71761
G1 X38.362 Y176.144 E110.97435
G1 X39.852 Y177.381 E111.23199
G1 X41.377 Y178.583 E111.49032
G1 X42.936 Y179.75 E111.74941
G1 X44.528 Y180.879 E112.00906
G1 X46.152 Y181.971 E112.26942
G1 X47.806 Y183.022 E112.53014
G1 X49.489 Y184.033 E112.79134
G1 X51.199 Y185.001 E113.05276
G1 X52.934 Y185.927 E113.3144
G1 X54.694 Y186.808 E113.57625
G1 X56.476 Y187.644 E113.83812
G1 X58.278 Y188.435 E114.09994
G1 X60.1 Y189.177 E114.36167
G1 X61.938 Y189.874 E114.62319
G1 X63.791 Y190.522 E114.88436
G1 X65.658 Y191.122 E115.14525
G1 X67.535 Y191.674 E115.40555
G1 X69.423 Y192.177 E115.66549
G1 X71.318 Y192.63 E115.9247
G1 X73.218 Y193.034 E116.18313
G1 X75.124 Y193.39 E116.44109
G1 X77.029 Y193.696 E116.69778
G1 X78.936 Y193.953 E116.95378
G1 X80.841 Y194.163 E117.20876
G1 X82.742 Y194.324 E117.46258
G1 X84.637 Y194.436 E117.71513
G1 X86.527 Y194.503 E117.96673
G1 X88.407 Y194.523 E118.21686
G1 X90.277 Y194.498 E118.46567
G1 X92.136 Y194.427 E118.71318
G1 X93.981 Y194.313 E118.9591
G1 X95.762 Y194.161 E119.19691
G1 X97.576 Y193.961 E119.43971
G1 X99.373 Y193.722 E119.68089
G1 X101.153 Y193.442 E119.92061
G1 X103.053 Y193.095 E120.17757
G1 X104.893 Y192.712 E120.42761
G1 X106.716 Y192.287 E120.67665
G1 X108.517 Y191.819 E120.92421
G1 X110.288 Y191.314 E121.16922
G1 X112.096 Y190.75 E121.42119
G1 X113.746 Y190.194 E121.65283
G1 X114.605 Y189.888 E121.77415
G1 X116.42 Y189.201 E122.03234
G1 X118.12 Y188.511 E122.27642
G1 X119.866 Y187.752 E122.52971
G1 X121.549 Y186.971 E122.77655
G1 X123.119 Y186.196 E123.00949
G1 X124.729 Y185.356 E123.25108
G1 X126.331 Y184.471 E123.49457
G1 X127.966 Y183.516 E123.74648
