;FLAVOR:Marlin
;TIME:2914
;Filament used: 8.83208m
;Layer height: 0.5
;MINX:32.141
;MINY:51.507
;MINZ:0.32
;MAXX:202.859
;MAXY:190.493
;MAXZ:11.82
;Generated with Cura_SteamEngine 4.5.0
M140 S60
M105
M190 S60
M104 S220
M105
M109 S220
M82 ;absolute extrusion mode
; Ender 3 Custom Start G-code
G92 E0 ; Reset Extruder
G28 ; Home all axes
G1 Z2.0 F3000 ; Move Z Axis up little to prevent scratching of Heat Bed
G1 X0.1 Y20 Z0.3 F5000.0 ; Move to start position
G1 X0.1 Y200.0 Z0.3 F1500.0 E15 ; Draw the first line
G1 X0.4 Y200.0 Z0.3 F5000.0 ; Move to side a little
G1 X0.4 Y20 Z0.3 F1500.0 E30 ; Draw the second line
G92 E0 ; Reset Extruder
G1 Z2.0 F3000 ; Move Z Axis up little to prevent scratching of Heat Bed
G1 X5 Y20 Z0.3 F5000.0 ; Move over to prevent blob squish
G92 E0
G92 E0
G1 F2700 E-5
;LAYER_COUNT:24
;LAYER:0
M107
;MESH:FSR12.stl
G0 F6000 X194.124 Y156.409 Z0.32
;TYPE:WALL-INNER
G1 F2700 E0
G1 F1200 X194.066 Y156.09 E0.04314
G1 X193.684 Y154.248 E0.29341
G1 X193.255 Y152.403 E0.54542
G1 X193.112 Y151.847 E0.6218
G1 X192.936 Y151.167 E0.71525
G1 X192.778 Y150.555 E0.79934
G1 X192.251 Y148.707 E1.055
G1 X191.676 Y146.862 E1.3121
G1 X191.051 Y145.021 E1.57076
G1 X190.377 Y143.187 E1.83071
G1 X189.655 Y141.359 E2.09219
G1 X188.881 Y139.54 E2.35519
G1 X188.057 Y137.736 E2.61904
G1 X187.185 Y135.942 E2.88442
G1 X186.28 Y134.2 E3.14559
G1 X185.337 Y132.489 E3.4055
G1 X184.348 Y130.794 E3.66658
G1 X183.312 Y129.122 E3.92827
G1 X182.232 Y127.471 E4.19074
G1 X181.109 Y125.844 E4.45375
G1 X179.94 Y124.242 E4.71759
G1 X178.73 Y122.668 E4.98172
G1 X177.479 Y121.124 E5.2461
G1 X176.186 Y119.609 E5.51108
G1 X174.855 Y118.127 E5.7761
G1 X173.486 Y116.679 E6.04121
G1 X172.079 Y115.266 E6.30649
G1 X170.637 Y113.889 E6.57176
G1 X169.16 Y112.55 E6.83699
G1 X167.653 Y111.25 E7.10177
G1 X166.113 Y109.991 E7.36641
G1 X164.544 Y108.773 E7.63066
G1 X162.947 Y107.598 E7.89444
G1 X161.325 Y106.465 E8.15766
G1 X159.678 Y105.377 E8.42028
G1 X158.009 Y104.334 E8.68211
G1 X156.32 Y103.336 E8.94311
G1 X154.611 Y102.383 E9.20344
G1 X152.886 Y101.478 E9.4626
G1 X151.145 Y100.62 E9.72083
G1 X149.39 Y99.807 E9.97815
G1 X147.625 Y99.043 E10.23402
G1 X145.851 Y98.324 E10.48868
G1 X144.066 Y97.654 E10.74234
G1 X142.278 Y97.031 E10.99424
G1 X140.485 Y96.453 E11.24487
G1 X138.689 Y95.924 E11.49396
G1 X136.892 Y95.439 E11.74159
G1 X135.144 Y95.013 E11.98095
G1 X133.351 Y94.619 E12.22518
G1 X131.56 Y94.269 E12.46797
G1 X129.631 Y93.939 E12.72833
G1 X127.747 Y93.666 E12.98159
G1 X125.864 Y93.441 E13.23389
G1 X123.987 Y93.261 E13.48475
G1 X122.126 Y93.128 E13.73297
G1 X120.21 Y93.039 E13.98816
G1 X118.448 Y92.996 E14.22264
G1 X117.52 Y92.992 E14.34611
G1 X115.559 Y93.015 E14.60702
G1 X113.7 Y93.083 E14.8545
G1 X111.776 Y93.201 E15.11095
G1 X109.904 Y93.361 E15.36091
G1 X108.138 Y93.554 E15.59726
G1 X106.316 Y93.796 E15.84179
G1 X104.484 Y94.083 E16.08849
G1 X102.597 Y94.427 E16.34368
G1 X100.755 Y94.809 E16.59395
G1 X98.91 Y95.238 E16.84596
G1 X97.062 Y95.715 E17.09988
G1 X95.214 Y96.242 E17.35554
G1 X93.37 Y96.816 E17.61248
G1 X91.528 Y97.441 E17.87126
G1 X89.694 Y98.116 E18.13126
G1 X87.866 Y98.838 E18.39274
G1 X86.047 Y99.612 E18.65574
G1 X84.243 Y100.436 E18.91959
G1 X82.449 Y101.308 E19.18497
G1 X80.707 Y102.213 E19.44613
G1 X78.996 Y103.156 E19.70605
G1 X77.301 Y104.145 E19.96713
G1 X75.629 Y105.181 E20.22882
G1 X73.978 Y106.261 E20.49129
G1 X72.351 Y107.384 E20.7543
G1 X70.749 Y108.553 E21.01814
G1 X69.175 Y109.763 E21.28227
G1 X67.631 Y111.014 E21.54665
G1 X66.116 Y112.307 E21.81163
G1 X64.634 Y113.638 E22.07664
G1 X63.186 Y115.007 E22.34175
G1 X61.773 Y116.414 E22.60704
G1 X60.396 Y117.856 E22.87231
G1 X59.057 Y119.333 E23.13754
G1 X57.757 Y120.84 E23.40232
G1 X56.498 Y122.38 E23.66696
G1 X55.28 Y123.949 E23.93121
G1 X54.105 Y125.546 E24.19499
G1 X52.973 Y127.168 E24.45814
G1 X51.884 Y128.815 E24.72082
G1 X50.841 Y130.484 E24.98266
G1 X49.843 Y132.173 E25.24366
G1 X48.89 Y133.882 E25.50399
G1 X47.985 Y135.607 E25.76315
G1 X47.127 Y137.348 E26.02137
G1 X46.314 Y139.103 E26.27869
G1 X45.55 Y140.868 E26.53457
G1 X44.831 Y142.643 E26.78935
G1 X44.162 Y144.427 E27.04284
G1 X43.538 Y146.215 E27.29478
G1 X42.96 Y148.008 E27.54541
G1 X42.431 Y149.804 E27.7945
G1 X42.087 Y151.076 E27.96981
G1 X41.946 Y151.601 E28.04213
G1 X41.894 Y151.816 E28.07156
G1 X41.52 Y153.349 E28.28149
G1 X41.126 Y155.142 E28.52572
G1 X40.874 Y156.434 E28.70085
G1 X40.924 Y155.135 E28.71774
G1 X40.995 Y153.329 E28.80798
G1 X41.063 Y151.614 E28.96889
G1 X41.065 Y151.56 E28.97369
G1 X41.09 Y151.017 E29.04176
G1 X41.331 Y145.991 E29.71119
G1 X41.645 Y140.383 E30.45845
G1 X42.005 Y134.771 E31.2066
G1 X42.425 Y129.008 E31.97535
G1 X42.864 Y123.591 E32.69839
G1 X43.089 Y121.595 E32.96562
G1 X43.383 Y119.501 E33.24694
G1 X43.732 Y117.437 E33.52544
G1 X44.133 Y115.409 E33.80047
G1 X44.6 Y113.361 E34.07993
G1 X45.12 Y111.328 E34.35911
G1 X45.695 Y109.324 E34.63648
G1 X46.321 Y107.349 E34.91212
G1 X47.003 Y105.39 E35.18808
G1 X47.747 Y103.427 E35.46737
G1 X48.534 Y101.513 E35.7427
G1 X49.39 Y99.585 E36.02334
G1 X50.275 Y97.734 E36.2963
G1 X51.219 Y95.889 E36.57202
G1 X52.263 Y93.987 E36.86068
G1 X53.275 Y92.257 E37.12733
G1 X54.223 Y90.749 E37.3643
G1 X55.264 Y89.223 E37.61006
G1 X56.29 Y87.829 E37.84034
G1 X57.45 Y86.37 E38.08832
G1 X57.751 Y85.915 E38.1609
G1 X57.976 Y85.361 E38.24045
G1 X58.084 Y84.845 E38.31059
G1 X58.101 Y84.207 E38.3955
G1 X58.007 Y83.675 E38.46737
G1 X57.942 Y83.47 E38.49598
G1 X57.775 Y83.055 E38.5555
G1 X57.451 Y82.541 E38.63633
G1 X57.087 Y82.149 E38.7075
G1 X56.595 Y81.782 E38.78916
G1 X56.15 Y81.57 E38.85474
G1 X56.033 Y81.525 E38.87142
G1 X55.952 Y81.495 E38.88291
G1 X55.485 Y81.38 E38.94689
G1 X54.951 Y81.347 E39.01807
G1 X55.18 Y81.099 E39.02115
G1 X55.338 Y80.928 E39.02418
G1 X55.535 Y80.715 E39.0437
G1 X55.595 Y80.653 E39.05518
G1 X56.816 Y79.387 E39.28918
G1 X58.097 Y78.114 E39.52944
G1 X59.423 Y76.853 E39.77289
G1 X60.792 Y75.605 E40.01934
G1 X62.155 Y74.415 E40.26006
G1 X63.571 Y73.232 E40.50554
G1 X65.01 Y72.08 E40.75078
G1 X66.466 Y70.966 E40.99468
G1 X67.936 Y69.891 E41.23696
G1 X69.447 Y68.835 E41.48222
G1 X70.96 Y67.825 E41.72423
G1 X72.512 Y66.837 E41.969
G1 X74.054 Y65.9 E42.20906
G1 X75.652 Y64.976 E42.45464
G1 X77.247 Y64.099 E42.6968
G1 X78.839 Y63.267 E42.93578
G1 X80.483 Y62.453 E43.17984
G1 X82.112 Y61.688 E43.41927
G1 X83.78 Y60.947 E43.66209
G1 X85.406 Y60.266 E43.89662
G1 X87.279 Y59.533 E44.16421
G1 X91.141 Y58.148 E44.71006
G1 X93.835 Y57.344 E45.08409
G1 X95.522 Y56.874 E45.31707
G1 X97.187 Y56.45 E45.54566
G1 X98.907 Y56.046 E45.78071
G1 X100.608 Y55.683 E46.01211
G1 X102.276 Y55.363 E46.23807
G1 X103.996 Y55.069 E46.47022
G1 X105.667 Y54.818 E46.69502
G1 X107.386 Y54.595 E46.92564
G1 X109.059 Y54.411 E47.14956
G1 X110.804 Y54.256 E47.38263
G1 X112.599 Y54.133 E47.62199
G1 X114.462 Y54.045 E47.87012
G1 X116.112 Y54.002 E48.08972
G1 X117.458 Y53.992 E48.26879
G1 X119.192 Y54.008 E48.49949
G1 X120.951 Y54.061 E48.73362
G1 X122.678 Y54.147 E48.96367
G1 X124.433 Y54.273 E49.19775
G1 X126.143 Y54.429 E49.4262
G1 X127.873 Y54.625 E49.65783
G1 X129.606 Y54.855 E49.89041
G1 X131.314 Y55.117 E50.1203
G1 X133.05 Y55.421 E50.35477
G1 X134.768 Y55.759 E50.58772
G1 X136.532 Y56.144 E50.82793
G1 X138.245 Y56.555 E51.06229
G1 X140.17 Y57.063 E51.32716
G1 X143.766 Y58.109 E51.82541
G1 X143.766 Y58.129 E51.82807
G1 X145.3 Y58.655 E52.04382
G1 X146.877 Y59.216 E52.2665
G1 X148.636 Y59.883 E52.51678
G1 X150.314 Y60.563 E52.75765
G1 X152.005 Y61.29 E53.00254
G1 X153.648 Y62.04 E53.24282
G1 X155.281 Y62.825 E53.48387
G1 X156.889 Y63.642 E53.72383
G1 X158.503 Y64.506 E53.96739
G1 X160.082 Y65.395 E54.20847
G1 X161.662 Y66.33 E54.45272
G1 X163.205 Y67.287 E54.69428
G1 X164.729 Y68.279 E54.9362
G1 X166.268 Y69.329 E55.18407
G1 X167.752 Y70.388 E55.42661
G1 X169.202 Y71.471 E55.66739
G1 X170.673 Y72.62 E55.91572
G1 X172.077 Y73.765 E56.15675
G1 X173.463 Y74.947 E56.39909
G1 X174.855 Y76.187 E56.64711
G1 X176.173 Y77.412 E56.8865
G1 X177.484 Y78.684 E57.12952
G1 X178.767 Y79.985 E57.37261
G1 X179.576 Y80.841 E57.5293
G1 X179.64 Y80.909 E57.54173
G1 X179.808 Y81.087 E57.57429
G1 X180.048 Y81.341 E57.62078
G1 X179.499 Y81.379 E57.65113
G1 X179.007 Y81.508 E57.70333
G1 X178.92 Y81.542 E57.7151
G1 X178.802 Y81.588 E57.73195
G1 X178.355 Y81.815 E57.79865
G1 X178.006 Y82.072 E57.85631
G1 X177.863 Y82.204 E57.8822
G1 X177.604 Y82.481 E57.93265
G1 X177.483 Y82.64 E57.95924
G1 X177.273 Y82.973 E58.01161
G1 X177.18 Y83.161 E58.03952
G1 X177.013 Y83.596 E58.10151
G1 X176.896 Y84.23 E58.18728
G1 X176.909 Y84.754 E58.25701
G1 X176.935 Y84.964 E58.28517
G1 X177.026 Y85.36 E58.33922
G1 X177.093 Y85.551 E58.36615
G1 X177.248 Y85.904 E58.41744
G1 X177.345 Y86.073 E58.44337
G1 X177.546 Y86.365 E58.49053
G1 X177.621 Y86.457 E58.50632
G1 X178.73 Y87.857 E58.74393
G1 X179.787 Y89.295 E58.98137
G1 X180.815 Y90.809 E59.22484
G1 X181.726 Y92.258 E59.45255
G1 X182.731 Y93.977 E59.71746
G1 X183.741 Y95.816 E59.99659
G1 X184.691 Y97.668 E60.27351
G1 X185.59 Y99.545 E60.55039
G1 X186.443 Y101.464 E60.82978
G1 X187.243 Y103.405 E61.10909
G1 X187.983 Y105.353 E61.38632
G1 X188.66 Y107.297 E61.66018
G1 X189.291 Y109.287 E61.93793
G1 X189.878 Y111.332 E62.22098
G1 X190.387 Y113.31 E62.49271
G1 X190.852 Y115.353 E62.77146
G1 X191.26 Y117.405 E63.0498
G1 X191.607 Y119.449 E63.32563
G1 X191.905 Y121.557 E63.60887
G1 X192.136 Y123.592 E63.88134
G1 X192.588 Y129.164 E64.62508
G1 X192.994 Y134.771 E65.37299
G1 X193.356 Y140.397 E66.12303
G1 X193.672 Y146.011 E66.8711
G1 X193.906 Y150.931 E67.5264
G1 X193.939 Y151.633 E67.61314
G1 X193.967 Y152.375 E67.69309
G1 X194.039 Y154.234 E67.82474
G1 X194.111 Y156.088 E67.87347
G1 X194.124 Y156.409 E67.87436
G1 F2700 E62.87436
G0 F6000 X194.9 Y166.718
G0 X193.247 Y167.265
G0 X193.337 Y187.081
G0 X194.502 Y187.653
;TYPE:WALL-OUTER
G1 F2700 E67.87436
G1 F1200 X194.502 Y170.99 E70.09122
G1 X194.479 Y169.091 E70.34388
G1 X194.41 Y167.216 E70.5935
G1 X194.295 Y165.342 E70.84329
G1 X194.132 Y163.446 E71.09646
G1 X193.94 Y161.703 E71.32975
G1 X193.707 Y159.952 E71.56476
G1 X193.424 Y158.144 E71.80823
G1 X193.084 Y156.281 E72.06018
G1 X192.707 Y154.463 E72.30719
G1 X192.284 Y152.641 E72.55604
G1 X191.813 Y150.817 E72.80666
G1 X191.293 Y148.993 E73.059
G1 X190.725 Y147.172 E73.31278
G1 X190.108 Y145.354 E73.56819
G1 X189.443 Y143.543 E73.82486
G1 X188.73 Y141.739 E74.08293
G1 X187.966 Y139.944 E74.34247
G1 X187.152 Y138.162 E74.60311
G1 X186.291 Y136.391 E74.86509
G1 X185.398 Y134.672 E75.12281
G1 X184.467 Y132.982 E75.37951
G1 X183.491 Y131.31 E75.63708
G1 X182.468 Y129.659 E75.89547
G1 X181.402 Y128.029 E76.15459
G1 X180.293 Y126.423 E76.41424
G1 X179.14 Y124.842 E76.67457
G1 X177.945 Y123.288 E76.93538
G1 X176.71 Y121.763 E77.19645
G1 X175.434 Y120.268 E77.45794
G1 X174.12 Y118.805 E77.71956
G1 X172.768 Y117.375 E77.98138
G1 X171.379 Y115.98 E78.24328
G1 X169.956 Y114.621 E78.50506
G1 X168.498 Y113.299 E78.7669
G1 X167.01 Y112.016 E79.02829
G1 X165.49 Y110.773 E79.28952
G1 X163.941 Y109.571 E79.55037
G1 X162.364 Y108.411 E79.81082
G1 X160.763 Y107.292 E80.07069
G1 X159.137 Y106.218 E80.32994
G1 X157.49 Y105.189 E80.58831
G1 X155.822 Y104.203 E80.84609
G1 X154.135 Y103.263 E81.10302
G1 X152.432 Y102.369 E81.35891
G1 X150.714 Y101.522 E81.61374
G1 X148.981 Y100.72 E81.86779
G1 X147.239 Y99.965 E82.12038
G1 X145.487 Y99.256 E82.37183
G1 X143.726 Y98.594 E82.62212
G1 X141.96 Y97.979 E82.87091
G1 X140.19 Y97.409 E83.1183
G1 X138.417 Y96.886 E83.36423
G1 X136.643 Y96.408 E83.60866
G1 X134.918 Y95.987 E83.84489
G1 X133.148 Y95.598 E84.086
G1 X131.38 Y95.253 E84.32565
G1 X129.475 Y94.927 E84.58277
G1 X127.616 Y94.657 E84.83269
G1 X125.757 Y94.435 E85.08177
G1 X123.904 Y94.258 E85.32942
G1 X122.067 Y94.126 E85.57444
G1 X120.175 Y94.038 E85.82643
G1 X118.434 Y93.996 E86.05812
G1 X117.524 Y93.992 E86.17919
G1 X115.583 Y94.015 E86.43744
G1 X113.749 Y94.082 E86.6816
G1 X111.849 Y94.198 E86.93484
G1 X110.001 Y94.356 E87.1816
G1 X108.258 Y94.547 E87.41488
G1 X106.459 Y94.786 E87.65632
G1 X104.651 Y95.069 E87.89979
G1 X102.788 Y95.409 E88.15173
G1 X100.97 Y95.786 E88.39875
G1 X99.148 Y96.209 E88.64759
G1 X97.324 Y96.68 E88.89822
G1 X95.5 Y97.2 E89.15056
G1 X93.679 Y97.767 E89.40429
G1 X91.861 Y98.384 E89.65971
G1 X90.05 Y99.05 E89.91642
G1 X88.246 Y99.763 E90.17449
G1 X86.451 Y100.527 E90.43403
G1 X84.669 Y101.341 E90.69468
G1 X82.898 Y102.202 E90.95666
G1 X81.179 Y103.095 E91.21437
G1 X79.489 Y104.026 E91.47107
G1 X77.817 Y105.002 E91.72864
G1 X76.166 Y106.025 E91.98704
G1 X74.536 Y107.091 E92.24615
G1 X72.93 Y108.2 E92.50581
G1 X71.349 Y109.353 E92.76614
G1 X69.795 Y110.548 E93.02694
G1 X68.27 Y111.783 E93.28802
G1 X66.775 Y113.059 E93.54951
G1 X65.312 Y114.373 E93.81113
G1 X63.882 Y115.725 E94.07294
G1 X62.487 Y117.114 E94.33484
G1 X61.128 Y118.537 E94.59663
G1 X59.806 Y119.995 E94.85846
G1 X58.523 Y121.483 E95.11986
G1 X57.28 Y123.003 E95.38109
G1 X56.078 Y124.552 E95.64193
G1 X54.918 Y126.129 E95.90238
G1 X53.8 Y127.73 E96.16218
G1 X52.725 Y129.356 E96.4215
G1 X51.696 Y131.003 E96.67987
G1 X50.71 Y132.671 E96.93765
G1 X49.77 Y134.358 E97.19458
G1 X48.876 Y136.061 E97.45047
G1 X48.029 Y137.779 E97.7053
G1 X47.227 Y139.512 E97.95936
G1 X46.472 Y141.254 E98.21194
G1 X45.763 Y143.006 E98.46339
G1 X45.102 Y144.767 E98.71364
G1 X44.486 Y146.533 E98.96247
G1 X43.916 Y148.303 E99.20986
G1 X43.393 Y150.076 E99.45579
G1 X42.915 Y151.85 E99.70022
G1 X42.494 Y153.575 E99.93645
G1 X42.105 Y155.345 E100.17755
G1 X41.76 Y157.113 E100.41721
G1 X41.434 Y159.017 E100.6742
G1 X41.165 Y160.878 E100.92436
G1 X40.933 Y162.835 E101.18655
G1 X40.765 Y164.589 E101.42097
G1 X40.633 Y166.425 E101.66586
G1 X40.547 Y168.235 E101.90694
G1 X40.503 Y170.084 E102.153
G1 X40.498 Y171.259 E102.30932
G1 X40.498 Y187.653 E104.49039
G1 X39.457 Y187.653 E104.62888
G1 X39.437 Y185.052 E104.97493
G1 X39.426 Y179.573 E105.70386
G1 X39.463 Y173.79 E106.47325
G1 X39.543 Y168.309 E107.20252
G1 X39.668 Y162.829 E107.93178
G1 X39.843 Y157.199 E108.68116
G1 X40.064 Y151.566 E109.43115
G1 X40.332 Y145.943 E110.18009
G1 X40.647 Y140.319 E110.92948
G1 X41.008 Y134.698 E111.67884
G1 X41.429 Y128.927 E112.44866
G1 X41.87 Y123.479 E113.17583
G1 X42.095 Y121.483 E113.44306
G1 X42.397 Y119.334 E113.73178
G1 X42.751 Y117.243 E114.01392
G1 X43.158 Y115.187 E114.29276
G1 X43.631 Y113.113 E114.57577
G1 X44.151 Y111.08 E114.85495
G1 X44.734 Y109.048 E115.1362
G1 X45.377 Y107.02 E115.41924
G1 X46.068 Y105.036 E115.69874
G1 X46.822 Y103.047 E115.98174
G1 X47.62 Y101.107 E116.26082
G1 X48.476 Y99.179 E116.54147
G1 X49.385 Y97.278 E116.8218
G1 X50.342 Y95.408 E117.10127
G1 X51.386 Y93.506 E117.38993
G1 X52.428 Y91.725 E117.66445
G1 X53.386 Y90.201 E117.90394
G1 X54.438 Y88.659 E118.15228
G1 X55.497 Y87.22 E118.38998
G1 X56.64 Y85.782 E118.63436
G1 X56.862 Y85.446 E118.68794
G1 X57.016 Y85.068 E118.74224
G1 X57.087 Y84.728 E118.78845
G1 X57.099 Y84.282 E118.84781
G1 X57.034 Y83.915 E118.8974
G1 X57 Y83.808 E118.91233
G1 X56.881 Y83.512 E118.95478
G1 X56.655 Y83.153 E119.01121
G1 X56.416 Y82.896 E119.05791
G1 X56.076 Y82.642 E119.11437
G1 X55.759 Y82.491 E119.16108
G1 X55.655 Y82.452 E119.17586
G1 X55.332 Y82.372 E119.22013
G1 X54.886 Y82.344 E119.27958
G1 X54.517 Y82.397 E119.32918
G1 X54.41 Y82.426 E119.34393
G1 X54.13 Y82.527 E119.38353
G1 X54.034 Y82.572 E119.39763
G1 X53.766 Y82.731 E119.43909
G1 X53.465 Y82.989 E119.49183
G1 X53.394 Y83.071 E119.50626
G1 X51.769 Y84.983 E119.8401
G1 X50.182 Y86.967 E120.17811
G1 X48.631 Y89.033 E120.5218
G1 X47.139 Y91.148 E120.86615
G1 X45.709 Y93.311 E121.21112
G1 X44.347 Y95.516 E121.55593
G1 X43.051 Y97.763 E121.90103
G1 X41.824 Y100.049 E122.2462
G1 X40.667 Y102.371 E122.59134
G1 X39.582 Y104.728 E122.93655
G1 X38.57 Y107.112 E123.28111
G1 X37.632 Y109.524 E123.62542
G1 X36.715 Y112.126 E123.99246
G1 X35.482 Y116.169 E124.5548
G1 X34.498 Y115.933 E124.68942
G1 X34.531 Y115.816 E124.70559
G1 X35.011 Y114.172 E124.93344
G1 X35.562 Y112.425 E125.17715
G1 X36.139 Y110.721 E125.4165
G1 X36.7 Y109.16 E125.63718
G1 X37.557 Y106.922 E125.95601
G1 X36.645 Y106.917 E126.07734
