;FLAVOR:Marlin
;TIME:8731
;Filament used: 26.4983m
;Layer height: 0.5
;MINX:3.486
;MINY:3.93
;MINZ:0.32
;MAXX:231.526
;MAXY:238.057
;MAXZ:11.82
;Generated with Cura_SteamEngine 4.5.0
M140 S60
M105
M190 S60
M104 S220
M105
M109 S220
M82 ;absolute extrusion mode
; Ender 3 Custom Start G-code
G92 E0 ; Reset Extruder
G28 ; Home all axes
G1 Z2.0 F3000 ; Move Z Axis up little to prevent scratching of Heat Bed
G1 X0.1 Y20 Z0.3 F5000.0 ; Move to start position
G1 X0.1 Y200.0 Z0.3 F1500.0 E15 ; Draw the first line
G1 X0.4 Y200.0 Z0.3 F5000.0 ; Move to side a little
G1 X0.4 Y20 Z0.3 F1500.0 E30 ; Draw the second line
G92 E0 ; Reset Extruder
G1 Z2.0 F3000 ; Move Z Axis up little to prevent scratching of Heat Bed
G1 X5 Y20 Z0.3 F5000.0 ; Move over to prevent blob squish
G92 E0
G92 E0
G1 F2700 E-5
;LAYER_COUNT:24
;LAYER:0
M107
;MESH:FSR12-x3.stl
G0 F6000 X106.962 Y231.445 Z0.32
;TYPE:WALL-INNER
G1 F2700 E0
G1 F1200 X106.953 Y231.423 E0.00316
G1 X105.339 Y231.486 E0.21805
G1 X103.642 Y231.524 E0.44388
G1 X101.799 Y231.528 E0.68907
G1 X99.949 Y231.491 E0.93525
G1 X98.135 Y231.417 E1.17678
G1 X96.337 Y231.304 E1.41646
G1 X94.526 Y231.152 E1.65825
G1 X92.717 Y230.962 E1.90024
G1 X90.919 Y230.734 E2.14136
G1 X89.121 Y230.466 E2.38321
G1 X87.306 Y230.156 E2.62818
G1 X85.534 Y229.814 E2.86828
G1 X83.717 Y229.424 E3.11552
G1 X81.968 Y229.008 E3.3547
G1 X80.164 Y228.537 E3.60275
G1 X78.41 Y228.04 E3.84529
G1 X76.657 Y227.502 E4.08924
G1 X74.926 Y226.929 E4.33183
G1 X73.211 Y226.32 E4.57395
G1 X71.468 Y225.659 E4.82195
G1 X69.771 Y224.973 E5.06547
G1 X68.1 Y224.256 E5.30738
G1 X66.458 Y223.509 E5.54738
G1 X65.4 Y222.999 E5.70364
G1 X65.305 Y222.953 E5.71768
G1 X65.093 Y222.851 E5.74898
G1 X64.775 Y222.698 E5.79593
G1 X65.277 Y222.468 E5.82625
G1 X65.678 Y222.178 E5.87682
G1 X65.758 Y222.109 E5.89006
G1 X65.843 Y222.036 E5.90496
G1 X66.2 Y221.64 E5.9759
G1 X66.494 Y221.16 E6.05078
G1 X66.698 Y220.628 E6.12659
G1 X66.786 Y220.186 E6.18654
G1 X66.807 Y219.983 E6.21369
G1 X66.808 Y219.509 E6.27676
G1 X66.689 Y218.872 E6.36297
G1 X66.489 Y218.385 E6.43301
G1 X66.387 Y218.198 E6.46135
G1 X66.166 Y217.871 E6.51386
G1 X66.039 Y217.715 E6.54062
G1 X65.76 Y217.436 E6.59311
G1 X65.602 Y217.308 E6.62017
G1 X65.254 Y217.074 E6.67596
G1 X63.692 Y216.149 E6.91747
G1 X62.165 Y215.165 E7.15915
G1 X60.679 Y214.129 E7.40015
G1 X59.313 Y213.101 E7.6276
G1 X57.773 Y211.867 E7.89014
G1 X56.146 Y210.484 E8.17423
G1 X54.608 Y209.104 E8.44914
G1 X53.091 Y207.664 E8.72741
G1 X51.609 Y206.176 E9.00681
G1 X50.17 Y204.649 E9.28596
G1 X48.783 Y203.091 E9.56347
G1 X47.456 Y201.517 E9.83737
G1 X46.149 Y199.874 E10.11668
G1 X44.899 Y198.212 E10.39335
G1 X43.701 Y196.522 E10.66895
G1 X42.536 Y194.778 E10.94798
G1 X41.429 Y193.016 E11.22482
G1 X40.378 Y191.236 E11.49984
G1 X39.339 Y189.359 E11.78526
G1 X38.401 Y187.548 E12.05659
G1 X35.992 Y182.507 E12.7999
G1 X33.604 Y177.401 E13.54982
G1 X31.263 Y172.289 E14.29785
G1 X28.961 Y167.147 E15.04737
G1 X26.993 Y162.65 E15.70043
G1 X26.706 Y161.994 E15.79569
G1 X26.417 Y161.316 E15.89375
G1 X25.686 Y159.605 E16.14129
G1 X24.956 Y157.898 E16.38828
G1 X24.83 Y157.604 E16.43084
G1 X24.997 Y157.88 E16.43204
G1 X26.011 Y159.465 E16.48375
G1 X27.071 Y161.036 E16.61964
G1 X27.4 Y161.5 E16.67645
G1 X27.815 Y162.083 E16.76463
G1 X28.176 Y162.591 E16.84754
G1 X29.327 Y164.129 E17.10311
G1 X30.523 Y165.647 E17.36022
G1 X31.763 Y167.144 E17.61883
G1 X33.049 Y168.617 E17.87898
G1 X34.377 Y170.066 E18.14047
G1 X35.749 Y171.488 E18.40335
G1 X37.163 Y172.881 E18.66743
G1 X38.618 Y174.244 E18.93267
G1 X40.084 Y175.548 E19.1937
G1 X41.577 Y176.811 E19.45387
G1 X43.106 Y178.039 E19.71477
G1 X44.67 Y179.232 E19.97647
G1 X46.268 Y180.388 E20.23886
G1 X47.898 Y181.507 E20.5019
G1 X49.561 Y182.587 E20.76571
G1 X51.254 Y183.625 E21.02991
G1 X52.974 Y184.621 E21.29434
G1 X54.721 Y185.574 E21.55909
G1 X56.495 Y186.484 E21.82435
G1 X58.291 Y187.347 E22.08944
G1 X60.11 Y188.165 E22.35479
G1 X61.948 Y188.937 E22.62001
G1 X63.805 Y189.659 E22.88508
G1 X65.678 Y190.336 E23.15005
G1 X67.566 Y190.962 E23.41467
G1 X69.466 Y191.539 E23.67885
G1 X71.377 Y192.068 E23.94265
G1 X73.297 Y192.546 E24.20589
G1 X75.224 Y192.974 E24.4685
G1 X77.155 Y193.354 E24.73033
G1 X79.089 Y193.682 E24.9913
G1 X81.026 Y193.962 E25.25168
G1 X82.961 Y194.192 E25.51093
G1 X84.893 Y194.372 E25.76908
G1 X86.822 Y194.504 E26.02631
G1 X88.743 Y194.59 E26.28214
G1 X90.658 Y194.626 E26.53696
G1 X92.563 Y194.616 E26.7904
G1 X94.457 Y194.56 E27.04249
G1 X96.338 Y194.458 E27.29311
G1 X98.205 Y194.312 E27.54225
G1 X100.007 Y194.129 E27.78322
G1 X101.84 Y193.898 E28.02902
G1 X103.657 Y193.626 E28.27344
G1 X105.455 Y193.314 E28.51623
G1 X107.374 Y192.931 E28.77657
G1 X109.231 Y192.515 E29.02975
G1 X111.071 Y192.054 E29.28211
G1 X112.888 Y191.551 E29.53293
G1 X114.674 Y191.011 E29.78117
G1 X116.496 Y190.409 E30.03646
G1 X118.153 Y189.822 E30.27033
G1 X119.025 Y189.496 E30.39418
G1 X120.849 Y188.771 E30.65531
G1 X122.56 Y188.045 E30.90259
G1 X124.315 Y187.248 E31.15902
G1 X126.008 Y186.429 E31.40923
G1 X127.588 Y185.618 E31.64551
G1 X129.203 Y184.742 E31.88994
G1 X130.811 Y183.819 E32.13661
G1 X132.451 Y182.825 E32.39175
G1 X134.037 Y181.811 E32.64219
G1 X135.608 Y180.75 E32.89439
G1 X137.162 Y179.645 E33.14808
G1 X138.699 Y178.494 E33.40354
G1 X140.217 Y177.299 E33.66057
G1 X141.715 Y176.058 E33.91937
G1 X143.189 Y174.774 E34.17944
G1 X144.638 Y173.444 E34.44111
G1 X146.059 Y172.073 E34.70381
G1 X147.453 Y170.659 E34.96797
G1 X148.815 Y169.203 E35.23322
G1 X150.119 Y167.737 E35.49425
G1 X151.382 Y166.244 E35.75442
G1 X152.61 Y164.716 E36.01522
G1 X153.804 Y163.152 E36.277
G1 X154.96 Y161.554 E36.53939
G1 X156.079 Y159.923 E36.80254
G1 X157.158 Y158.261 E37.06617
G1 X158.197 Y156.568 E37.33044
G1 X159.193 Y154.847 E37.59498
G1 X160.146 Y153.099 E37.85985
G1 X161.055 Y151.326 E38.12492
G1 X161.919 Y149.53 E38.39008
G1 X162.737 Y147.712 E38.6553
G1 X163.508 Y145.874 E38.92047
G1 X164.231 Y144.017 E39.18559
G1 X164.907 Y142.144 E39.45051
G1 X165.534 Y140.255 E39.71531
G1 X166.111 Y138.356 E39.97935
G1 X166.639 Y136.444 E40.24325
G1 X167.117 Y134.524 E40.50648
G1 X167.546 Y132.598 E40.769
G1 X167.925 Y130.666 E41.03093
G1 X168.254 Y128.732 E41.29193
G1 X168.534 Y126.795 E41.55231
G1 X168.762 Y124.86 E41.81152
G1 X168.944 Y122.928 E42.06969
G1 X169.075 Y121 E42.32679
G1 X169.161 Y119.079 E42.58261
G1 X169.197 Y117.163 E42.83757
G1 X169.187 Y115.259 E43.09088
G1 X169.131 Y113.364 E43.3431
G1 X169.03 Y111.483 E43.59371
G1 X168.883 Y109.616 E43.84286
G1 X168.75 Y108.309 E44.01765
G1 X168.701 Y107.816 E44.08356
G1 X168.667 Y107.541 E44.12042
G1 X168.47 Y105.981 E44.32962
G1 X168.198 Y104.163 E44.57417
G1 X167.973 Y102.869 E44.74891
G1 X168.387 Y104.098 E44.7655
G1 X168.966 Y105.813 E44.85532
G1 X169.514 Y107.434 E45.01531
G1 X169.548 Y107.537 E45.02648
G1 X169.702 Y108.008 E45.08886
G1 X171.27 Y112.778 E45.75687
G1 X172.984 Y118.144 E46.5063
G1 X174.647 Y123.507 E47.25332
G1 X176.311 Y129.037 E48.02162
G1 X177.846 Y134.287 E48.74932
G1 X178.336 Y136.188 E49.0105
G1 X178.81 Y138.262 E49.29354
G1 X179.218 Y140.301 E49.57018
G1 X179.574 Y142.381 E49.85093
G1 X179.868 Y144.447 E50.12856
G1 X180.104 Y146.504 E50.40402
G1 X180.283 Y148.567 E50.67952
G1 X180.403 Y150.65 E50.9571
G1 X180.467 Y152.763 E51.23834
G1 X180.473 Y154.824 E51.51254
G1 X180.422 Y156.92 E51.79148
G1 X180.313 Y159.001 E52.06871
G1 X180.143 Y161.083 E52.34663
G1 X179.922 Y163.117 E52.61882
G1 X179.63 Y165.239 E52.9038
G1 X179.294 Y167.27 E53.17767
G1 X178.957 Y168.971 E53.40837
G1 X178.526 Y170.777 E53.65539
G1 X178.072 Y172.422 E53.88243
G1 X177.5 Y174.233 E54.13509
G1 X177.385 Y174.75 E54.20556
G1 X177.364 Y175.22 E54.26815
G1 X177.38 Y175.427 E54.29577
G1 X177.45 Y175.883 E54.35715
G1 X177.666 Y176.491 E54.44299
G1 X177.934 Y176.932 E54.51164
G1 X178.062 Y177.105 E54.54028
G1 X178.382 Y177.448 E54.60268
G1 X178.868 Y177.811 E54.68339
G1 X179.345 Y178.045 E54.75407
G1 X179.948 Y178.218 E54.83753
G1 X180.531 Y178.255 E54.91525
G1 X180.582 Y178.258 E54.92205
G1 X181.114 Y178.196 E54.9933
G1 X181.628 Y178.034 E55.065
G1 X181.501 Y178.351 E55.06824
G1 X181.406 Y178.588 E55.07384
G1 X181.309 Y178.83 E55.09046
G1 X181.289 Y178.877 E55.09726
G1 X180.586 Y180.529 E55.33611
G1 X179.838 Y182.186 E55.57798
G1 X179.057 Y183.827 E55.81977
G1 X178.228 Y185.472 E56.06484
G1 X177.374 Y187.08 E56.30707
G1 X176.463 Y188.709 E56.55538
G1 X175.551 Y190.262 E56.79498
G1 X174.589 Y191.822 E57.03881
G1 X173.594 Y193.361 E57.28263
G1 X172.56 Y194.886 E57.52776
G1 X171.488 Y196.397 E57.77423
G1 X170.418 Y197.839 E58.01312
G1 X169.279 Y199.307 E58.26032
G1 X168.149 Y200.699 E58.49885
G1 X166.966 Y202.096 E58.74239
G1 X165.755 Y203.465 E58.98556
G1 X164.539 Y204.782 E59.22404
G1 X163.271 Y206.098 E59.46717
G1 X162.005 Y207.358 E59.7048
G1 X160.697 Y208.605 E59.94523
G1 X159.199 Y209.967 E60.21458
G1 X156.11 Y212.62 E60.75631
G1 X153.877 Y214.336 E61.13098
G1 X152.45 Y215.39 E61.367
G1 X151.066 Y216.369 E61.59253
G1 X149.619 Y217.348 E61.82496
G1 X148.152 Y218.3 E62.05763
G1 X146.698 Y219.2 E62.28513
G1 X145.19 Y220.092 E62.51823
G1 X143.726 Y220.921 E62.74206
G1 X142.228 Y221.728 E62.96843
G1 X140.711 Y222.506 E63.19525
G1 X139.117 Y223.284 E63.43122
G1 X137.495 Y224.034 E63.66897
G1 X135.774 Y224.787 E63.91889
G1 X134.286 Y225.401 E64.13304
G1 X133.009 Y225.9 E64.31545
G1 X131.371 Y226.509 E64.54794
G1 X129.736 Y227.078 E64.77826
G1 X128.084 Y227.614 E65.00932
G1 X126.389 Y228.127 E65.24493
G1 X124.724 Y228.594 E65.47499
G1 X123.071 Y229.022 E65.70215
G1 X121.37 Y229.425 E65.93472
G1 X119.649 Y229.796 E66.16894
G1 X117.926 Y230.131 E66.40246
G1 X116.196 Y230.431 E66.63606
G1 X114.443 Y230.696 E66.87193
G1 X112.653 Y230.929 E67.11208
G1 X110.708 Y231.139 E67.37235
G1 X106.962 Y231.445 E67.87238
G1 F2700 E62.87238
G0 F6000 X106.954 Y231.876
G0 X108.489 Y236.077
G0 X109.225 Y236.406
;TYPE:WALL-OUTER
G1 F2700 E67.87238
G1 F1200 X107.971 Y236.885 E68.05097
G1 X106.275 Y232.45 E68.68268
G1 X105.361 Y232.486 E68.80437
G1 X103.664 Y232.524 E69.03019
G1 X101.781 Y232.528 E69.28071
G1 X99.929 Y232.491 E69.52715
G1 X98.079 Y232.415 E69.77348
G1 X96.254 Y232.301 E70.01676
G1 X94.428 Y232.148 E70.26054
G1 X92.612 Y231.957 E70.50347
G1 X90.787 Y231.725 E70.74823
G1 X88.953 Y231.452 E70.99491
G1 X87.138 Y231.142 E71.23988
G1 X85.324 Y230.792 E71.48566
G1 X83.507 Y230.402 E71.7329
G1 X81.715 Y229.976 E71.97796
G1 X79.911 Y229.505 E72.22601
G1 X78.137 Y229.002 E72.47132
G1 X76.364 Y228.458 E72.71806
G1 X74.593 Y227.872 E72.96624
G1 X72.856 Y227.255 E73.21147
G1 X71.113 Y226.594 E73.45948
G1 X69.396 Y225.9 E73.70586
G1 X67.706 Y225.175 E73.95052
G1 X66.024 Y224.41 E74.19635
G1 X64.352 Y223.605 E74.44323
G1 X62.719 Y222.777 E74.68682
G1 X61.088 Y221.905 E74.93287
G1 X59.498 Y221.01 E75.17562
G1 X57.913 Y220.074 E75.42051
G1 X56.371 Y219.119 E75.66182
G1 X54.844 Y218.126 E75.90415
G1 X53.384 Y217.134 E76.13898
G1 X51.86 Y216.051 E76.38771
G1 X50.421 Y214.983 E76.62613
G1 X49.041 Y213.912 E76.85853
G1 X47.641 Y212.779 E77.09814
G1 X46.279 Y211.631 E77.33512
G1 X44.954 Y210.465 E77.56993
G1 X43.644 Y209.263 E77.80646
G1 X42.264 Y207.942 E78.06062
G1 X40.405 Y206.074 E78.41123
G1 X35.904 Y207.794 E79.05228
G1 X35.423 Y206.538 E79.23121
G1 X39.408 Y205.015 E79.79878
G1 X38.639 Y204.174 E79.95039
G1 X37.569 Y202.969 E80.16479
G1 X36.487 Y201.703 E80.38635
G1 X35.26 Y200.204 E80.64407
G1 X34.155 Y198.796 E80.88219
G1 X33.323 Y197.687 E81.06663
G1 X34.148 Y197.123 E81.19959
G1 X35.226 Y198.548 E81.43731
G1 X36.861 Y200.59 E81.78533
G1 X38.518 Y202.535 E82.12527
G1 X40.258 Y204.458 E82.47029
G1 X42.054 Y206.324 E82.81485
G1 X43.908 Y208.139 E83.16003
G1 X45.818 Y209.896 E83.5053
G1 X47.78 Y211.594 E83.8505
G1 X49.791 Y213.23 E84.1954
G1 X51.85 Y214.804 E84.5402
G1 X53.953 Y216.312 E84.88448
G1 X56.096 Y217.752 E85.22797
G1 X58.277 Y219.125 E85.57084
G1 X60.553 Y220.462 E85.92202
G1 X62.8 Y221.691 E86.26276
G1 X63.194 Y221.83 E86.31835
G1 X63.51 Y221.879 E86.36089
G1 X63.616 Y221.887 E86.37503
G1 X63.947 Y221.876 E86.41909
G1 X64.388 Y221.776 E86.47925
G1 X64.77 Y221.6 E86.53521
G1 X65.058 Y221.392 E86.58247
G1 X65.143 Y221.319 E86.59738
G1 X65.395 Y221.039 E86.64749
G1 X65.593 Y220.716 E86.6979
G1 X65.734 Y220.349 E86.7502
G1 X65.796 Y220.037 E86.79252
G1 X65.807 Y219.93 E86.80683
G1 X65.808 Y219.6 E86.85074
G1 X65.725 Y219.157 E86.9107
G1 X65.585 Y218.816 E86.95974
G1 X65.532 Y218.719 E86.97445
G1 X65.363 Y218.469 E87.01459
G1 X65.296 Y218.387 E87.02868
G1 X65.088 Y218.179 E87.06782
G1 X65.006 Y218.112 E87.0819
G1 X64.72 Y217.92 E87.12773
G1 X63.171 Y217.003 E87.36722
G1 X61.612 Y215.999 E87.61392
G1 X60.092 Y214.939 E87.86045
G1 X58.712 Y213.9 E88.09027
G1 X57.134 Y212.635 E88.35934
G1 X55.481 Y211.231 E88.64787
G1 X53.922 Y209.832 E88.92655
G1 X52.382 Y208.37 E89.20906
G1 X50.9 Y206.882 E89.48846
G1 X49.442 Y205.335 E89.77127
G1 X48.036 Y203.756 E90.05255
G1 X46.673 Y202.14 E90.33381
G1 X45.366 Y200.497 E90.61312
G1 X44.088 Y198.797 E90.89607
G1 X42.874 Y197.084 E91.1754
G1 X41.695 Y195.319 E91.45778
G1 X40.582 Y193.548 E91.73607
G1 X39.506 Y191.725 E92.01769
G1 X38.455 Y189.827 E92.30633
G1 X37.513 Y188.008 E92.57886
G1 X35.087 Y182.931 E93.32746
G1 X32.698 Y177.825 E94.07744
G1 X30.351 Y172.698 E94.82761
G1 X28.048 Y167.556 E95.57719
G1 X25.786 Y162.387 E96.32784
G1 X23.452 Y156.926 E97.11795
G1 X21.222 Y151.584 E97.88809
G1 X19.15 Y146.504 E98.61799
G1 X17.118 Y141.406 E99.34812
G1 X15.023 Y136.01 E100.11822
G1 X12.351 Y128.923 E101.12586
G1 X13.321 Y128.553 E101.26398
G1 X19.269 Y144.118 E103.48081
G1 X19.969 Y145.884 E103.73354
G1 X20.703 Y147.61 E103.98307
G1 X21.479 Y149.32 E104.2329
G1 X22.31 Y151.032 E104.48608
G1 X23.11 Y152.593 E104.71944
G1 X23.953 Y154.145 E104.95441
G1 X24.864 Y155.731 E105.19774
G1 X25.846 Y157.351 E105.44977
G1 X26.847 Y158.916 E105.69693
G1 X27.893 Y160.467 E105.94582
G1 X28.984 Y162.002 E106.19636
G1 X30.12 Y163.52 E106.44861
G1 X31.301 Y165.018 E106.70239
G1 X32.525 Y166.496 E106.9577
G1 X33.794 Y167.95 E107.21445
G1 X35.106 Y169.381 E107.47274
G1 X36.46 Y170.785 E107.73223
G1 X37.856 Y172.16 E107.99292
G1 X39.292 Y173.505 E108.25468
G1 X40.739 Y174.793 E108.51241
G1 X42.213 Y176.039 E108.76919
G1 X43.722 Y177.252 E109.02676
G1 X45.266 Y178.429 E109.28506
G1 X46.844 Y179.571 E109.5442
G1 X48.453 Y180.675 E109.80381
G1 X50.095 Y181.741 E110.06426
G1 X51.766 Y182.766 E110.32506
G1 X53.464 Y183.749 E110.58609
G1 X55.189 Y184.69 E110.84751
G1 X56.94 Y185.588 E111.10931
G1 X58.713 Y186.44 E111.37102
G1 X60.509 Y187.248 E111.63303
G1 X62.323 Y188.01 E111.89479
G1 X64.156 Y188.723 E112.15645
G1 X66.005 Y189.391 E112.418
G1 X67.869 Y190.009 E112.67927
G1 X69.745 Y190.579 E112.94012
G1 X71.631 Y191.101 E113.20046
G1 X73.526 Y191.573 E113.46028
G1 X75.429 Y191.995 E113.71961
G1 X77.335 Y192.37 E113.97804
G1 X79.244 Y192.694 E114.23565
G1 X81.156 Y192.97 E114.49266
G1 X83.066 Y193.197 E114.74855
G1 X84.974 Y193.375 E115.0035
G1 X86.878 Y193.506 E115.25741
G1 X88.775 Y193.59 E115.51003
G1 X90.665 Y193.626 E115.76152
G1 X92.546 Y193.616 E116.01178
G1 X94.415 Y193.561 E116.26054
G1 X96.272 Y193.46 E116.50796
G1 X98.115 Y193.316 E116.7539
G1 X99.894 Y193.135 E116.9918
G1 X101.704 Y192.907 E117.23451
G1 X103.498 Y192.639 E117.47583
G1 X105.272 Y192.331 E117.71537
G1 X107.167 Y191.953 E117.97245
G1 X109 Y191.542 E118.22237
G1 X110.816 Y191.087 E118.47144
G1 X112.61 Y190.59 E118.71911
G1 X114.372 Y190.057 E118.96401
G1 X116.172 Y189.463 E119.21619
G1 X117.811 Y188.882 E119.44754
G1 X118.665 Y188.563 E119.56882
G1 X120.469 Y187.846 E119.82709
G1 X122.158 Y187.129 E120.0712
G1 X123.891 Y186.342 E120.32442
G1 X125.562 Y185.534 E120.57136
G1 X127.121 Y184.734 E120.80448
G1 X128.716 Y183.869 E121.04588
G1 X130.303 Y182.958 E121.28933
G1 X131.922 Y181.976 E121.54125
G1 X133.488 Y180.975 E121.78851
G1 X135.038 Y179.928 E122.03736
G1 X136.573 Y178.837 E122.28791
G1 X138.09 Y177.701 E122.54005
G1 X139.589 Y176.521 E122.79385
G1 X141.067 Y175.296 E123.04924
G1 X142.522 Y174.028 E123.30601
G1 X143.953 Y172.716 E123.5643
G1 X145.356 Y171.362 E123.8237
