;FLAVOR:Marlin
;TIME:8740
;Filament used: 26.4966m
;Layer height: 0.5
;MINX:2.684
;MINY:2.564
;MINZ:0.32
;MAXX:231.688
;MAXY:239.389
;MAXZ:11.82
;Generated with Cura_SteamEngine 4.5.0
M140 S60
M105
M190 S60
M104 S220
M105
M109 S220
M82 ;absolute extrusion mode
; Ender 3 Custom Start G-code
G92 E0 ; Reset Extruder
G28 ; Home all axes
G1 Z2.0 F3000 ; Move Z Axis up little to prevent scratching of Heat Bed
G1 X0.1 Y20 Z0.3 F5000.0 ; Move to start position
G1 X0.1 Y200.0 Z0.3 F1500.0 E15 ; Draw the first line
G1 X0.4 Y200.0 Z0.3 F5000.0 ; Move to side a little
G1 X0.4 Y20 Z0.3 F1500.0 E30 ; Draw the second line
G92 E0 ; Reset Extruder
G1 Z2.0 F3000 ; Move Z Axis up little to prevent scratching of Heat Bed
G1 X5 Y20 Z0.3 F5000.0 ; Move over to prevent blob squish
G92 E0
G92 E0
G1 F2700 E-5
;LAYER_COUNT:24
;LAYER:0
M107
;MESH:FSR12-x3.stl
G0 F6000 X116.361 Y230.706 Z0.32
;TYPE:WALL-INNER
G1 F2700 E0
G1 F1200 X114.619 Y231.015 E0.23537
G1 X112.878 Y231.287 E0.46981
G1 X111.136 Y231.523 E0.70368
G1 X109.331 Y231.728 E0.94536
G1 X107.374 Y231.908 E1.20682
G1 X103.633 Y232.15 E1.70557
G1 X103.626 Y232.131 E1.70826
G1 X101.995 Y232.168 E1.92531
G1 X100.334 Y232.179 E2.14629
G1 X98.452 Y232.152 E2.3967
G1 X96.622 Y232.087 E2.64032
G1 X94.816 Y231.984 E2.88098
G1 X93.013 Y231.843 E3.12158
G1 X91.212 Y231.662 E3.3624
G1 X89.406 Y231.443 E3.60443
G1 X87.611 Y231.185 E3.84569
G1 X85.79 Y230.885 E4.09122
G1 X84.015 Y230.552 E4.33149
G1 X82.218 Y230.176 E4.57574
G1 X80.452 Y229.766 E4.81694
G1 X78.651 Y229.307 E5.0642
G1 X76.907 Y228.823 E5.305
G1 X75.142 Y228.291 E5.55025
G1 X73.388 Y227.721 E5.79561
G1 X71.686 Y227.128 E6.0354
G1 X69.94 Y226.477 E6.28331
G1 X68.265 Y225.811 E6.52312
G1 X66.552 Y225.087 E6.77054
G1 X64.912 Y224.351 E7.00969
G1 X63.233 Y223.555 E7.2569
G1 X62.208 Y223.042 E7.40939
G1 X62.124 Y223 E7.42188
G1 X61.908 Y222.891 E7.45407
G1 X61.592 Y222.732 E7.50113
G1 X62.098 Y222.51 E7.53145
G1 X62.515 Y222.219 E7.58375
G1 X62.586 Y222.158 E7.59554
G1 X62.67 Y222.085 E7.61035
G1 X62.936 Y221.81 E7.66125
G1 X63.057 Y221.658 E7.6871
G1 X63.26 Y221.351 E7.73606
G1 X63.351 Y221.181 E7.76172
G1 X63.499 Y220.832 E7.81215
G1 X63.565 Y220.627 E7.8408
G1 X63.667 Y220.11 E7.91091
G1 X63.679 Y219.576 E7.98197
G1 X63.568 Y218.936 E8.06839
G1 X63.378 Y218.451 E8.13769
G1 X63.278 Y218.259 E8.16649
G1 X63.058 Y217.923 E8.21992
G1 X62.925 Y217.758 E8.24812
G1 X62.57 Y217.401 E8.3151
G1 X62.237 Y217.162 E8.36963
G1 X60.674 Y216.205 E8.61345
G1 X59.105 Y215.159 E8.86433
G1 X57.663 Y214.118 E9.10094
G1 X56.273 Y213.038 E9.33513
G1 X54.763 Y211.786 E9.59609
G1 X53.151 Y210.373 E9.88128
G1 X51.629 Y208.962 E10.15739
G1 X50.144 Y207.506 E10.43408
G1 X48.684 Y205.991 E10.714
G1 X47.303 Y204.479 E10.98643
G1 X45.934 Y202.892 E11.26527
G1 X44.607 Y201.266 E11.54449
G1 X43.342 Y199.623 E11.82036
G1 X42.1 Y197.914 E12.10142
G1 X40.922 Y196.194 E12.37878
G1 X39.802 Y194.457 E12.65374
G1 X38.732 Y192.691 E12.92845
G1 X37.698 Y190.877 E13.20624
G1 X36.696 Y188.991 E13.49037
G1 X35.794 Y187.182 E13.7593
G1 X33.455 Y182.079 E14.50612
G1 X31.153 Y176.949 E15.25419
G1 X28.89 Y171.785 E16.00428
G1 X26.672 Y166.611 E16.75321
G1 X24.772 Y162.079 E17.407
G1 X24.499 Y161.427 E17.50104
G1 X24.22 Y160.744 E17.59919
G1 X23.517 Y159.022 E17.84664
G1 X22.815 Y157.304 E18.09355
G1 X22.692 Y157.003 E18.13681
G1 X22.857 Y157.286 E18.13799
G1 X23.847 Y158.887 E18.19033
G1 X24.88 Y160.474 E18.32666
G1 X25.202 Y160.943 E18.38363
G1 X25.603 Y161.526 E18.47093
G1 X25.961 Y162.047 E18.55503
G1 X27.087 Y163.602 E18.81045
G1 X28.258 Y165.14 E19.06763
G1 X29.475 Y166.657 E19.32637
G1 X30.736 Y168.15 E19.58637
G1 X32.041 Y169.62 E19.84788
G1 X33.39 Y171.064 E20.11078
G1 X34.782 Y172.479 E20.37486
G1 X36.215 Y173.865 E20.64009
G1 X37.66 Y175.193 E20.90119
G1 X39.133 Y176.479 E21.16133
G1 X40.641 Y177.731 E21.42209
G1 X42.186 Y178.95 E21.68391
G1 X43.765 Y180.131 E21.94624
G1 X45.379 Y181.276 E22.20952
G1 X47.023 Y182.382 E22.47312
G1 X48.698 Y183.447 E22.7372
G1 X50.403 Y184.471 E23.0018
G1 X52.135 Y185.451 E23.26655
G1 X53.894 Y186.389 E23.53176
G1 X55.677 Y187.282 E23.79706
G1 X57.481 Y188.129 E24.06221
G1 X59.307 Y188.93 E24.32748
G1 X61.152 Y189.682 E24.59255
G1 X63.015 Y190.388 E24.8576
G1 X64.892 Y191.044 E25.12213
G1 X66.782 Y191.652 E25.38627
G1 X68.684 Y192.211 E25.65002
G1 X70.596 Y192.721 E25.91328
G1 X72.517 Y193.18 E26.17605
G1 X74.441 Y193.589 E26.43774
G1 X76.371 Y193.949 E26.69893
G1 X78.302 Y194.259 E26.95912
G1 X80.232 Y194.52 E27.21823
G1 X82.162 Y194.732 E27.47654
G1 X84.088 Y194.896 E27.73371
G1 X86.009 Y195.009 E27.98972
G1 X87.923 Y195.077 E28.24452
G1 X89.827 Y195.097 E28.49784
G1 X91.722 Y195.072 E28.74998
G1 X93.604 Y195 E29.00054
G1 X95.473 Y194.884 E29.24967
G1 X97.328 Y194.725 E29.49737
G1 X99.115 Y194.528 E29.73655
G1 X100.935 Y194.286 E29.98082
G1 X102.739 Y194.002 E30.22378
G1 X104.664 Y193.651 E30.4841
G1 X106.526 Y193.263 E30.73715
G1 X108.374 Y192.832 E30.9896
G1 X110.199 Y192.358 E31.24046
G1 X111.992 Y191.846 E31.48853
G1 X113.824 Y191.275 E31.74383
G1 X115.492 Y190.713 E31.978
G1 X116.368 Y190.401 E32.10171
G1 X118.203 Y189.706 E32.36277
G1 X119.926 Y189.007 E32.61014
G1 X121.694 Y188.238 E32.86664
G1 X123.399 Y187.447 E33.1167
G1 X124.991 Y186.662 E33.35285
G1 X126.62 Y185.81 E33.59742
G1 X128.243 Y184.915 E33.844
G1 X129.899 Y183.947 E34.0992
G1 X131.5 Y182.957 E34.34963
G1 X133.088 Y181.923 E34.60173
G1 X134.661 Y180.842 E34.85566
G1 X136.216 Y179.716 E35.11108
G1 X137.753 Y178.545 E35.36815
G1 X139.27 Y177.328 E35.62689
G1 X140.764 Y176.067 E35.88699
G1 X142.233 Y174.762 E36.14841
G1 X143.677 Y173.414 E36.41122
G1 X145.093 Y172.022 E36.67538
G1 X146.479 Y170.589 E36.94062
G1 X147.806 Y169.143 E37.20172
G1 X149.092 Y167.672 E37.46167
G1 X150.345 Y166.163 E37.72261
G1 X151.564 Y164.618 E37.98444
G1 X152.745 Y163.038 E38.24687
G1 X153.889 Y161.425 E38.50996
G1 X154.995 Y159.78 E38.77368
G1 X156.061 Y158.105 E39.03782
G1 X157.085 Y156.4 E39.30242
G1 X158.065 Y154.668 E39.56718
G1 X159.002 Y152.91 E39.83221
G1 X159.896 Y151.127 E40.09757
G1 X160.742 Y149.322 E40.36277
G1 X161.542 Y147.497 E40.62788
G1 X162.296 Y145.651 E40.89317
G1 X163.002 Y143.789 E41.1581
G1 X163.658 Y141.912 E41.42263
G1 X164.266 Y140.021 E41.68689
G1 X164.825 Y138.12 E41.95051
G1 X165.334 Y136.208 E42.21374
G1 X165.794 Y134.287 E42.47654
G1 X166.202 Y132.363 E42.7382
G1 X166.562 Y130.434 E42.99926
G1 X166.873 Y128.502 E43.25961
G1 X167.133 Y126.571 E43.51883
G1 X167.345 Y124.641 E43.77714
G1 X167.508 Y122.715 E44.03429
G1 X167.623 Y120.795 E44.29019
G1 X167.691 Y118.881 E44.54499
G1 X167.711 Y116.977 E44.79831
G1 X167.686 Y115.082 E45.05044
G1 X167.614 Y113.199 E45.30114
G1 X167.498 Y111.33 E45.55027
G1 X167.385 Y110.022 E45.72494
G1 X167.343 Y109.526 E45.79116
G1 X167.314 Y109.253 E45.82769
G1 X167.142 Y107.688 E46.03715
G1 X166.899 Y105.868 E46.28143
G1 X166.694 Y104.569 E46.45639
G1 X167.089 Y105.807 E46.47313
G1 X167.64 Y107.528 E46.56277
G1 X168.163 Y109.16 E46.72311
G1 X168.194 Y109.261 E46.73396
G1 X168.341 Y109.736 E46.79655
G1 X169.833 Y114.529 E47.4644
G1 X171.459 Y119.915 E48.2129
G1 X173.039 Y125.311 E48.96092
G1 X174.615 Y130.866 E49.72913
G1 X176.056 Y136.111 E50.45279
G1 X176.528 Y138.064 E50.72009
G1 X176.965 Y140.131 E51.00117
G1 X177.347 Y142.217 E51.28331
G1 X177.66 Y144.235 E51.55499
G1 X177.921 Y146.305 E51.83257
G1 X178.124 Y148.378 E52.10968
G1 X178.272 Y150.487 E52.39095
G1 X178.36 Y152.558 E52.66673
G1 X178.391 Y154.63 E52.94242
G1 X178.363 Y156.739 E53.22302
G1 X178.279 Y158.797 E53.49705
G1 X178.133 Y160.902 E53.77777
G1 X177.935 Y162.957 E54.05244
G1 X177.68 Y165 E54.32635
G1 X177.353 Y167.118 E54.61147
G1 X176.993 Y169.1 E54.87947
G1 X176.607 Y170.889 E55.12295
G1 X176.167 Y172.613 E55.35967
G1 X175.666 Y174.319 E55.59622
G1 X175.07 Y176.109 E55.84722
G1 X174.955 Y176.604 E55.91482
G1 X174.932 Y177.05 E55.97424
G1 X174.938 Y177.246 E56.00033
G1 X175.002 Y177.723 E56.06436
G1 X175.211 Y178.34 E56.15102
G1 X175.473 Y178.787 E56.21996
G1 X175.599 Y178.959 E56.24832
G1 X175.908 Y179.301 E56.30964
G1 X176.391 Y179.678 E56.39116
G1 X176.866 Y179.917 E56.4619
G1 X177.449 Y180.096 E56.54304
G1 X177.951 Y180.144 E56.61013
G1 X178.068 Y180.144 E56.62569
G1 X178.157 Y180.144 E56.63753
G1 X178.63 Y180.097 E56.70077
G1 X179.146 Y179.944 E56.77238
G1 X179.015 Y180.258 E56.77566
G1 X178.927 Y180.466 E56.77787
G1 X178.814 Y180.735 E56.79728
G1 X178.778 Y180.816 E56.80907
G1 X178.059 Y182.432 E57.04438
G1 X177.297 Y184.054 E57.2828
G1 X176.476 Y185.703 E57.52787
G1 X175.622 Y187.335 E57.77293
G1 X174.742 Y188.929 E58.01516
G1 X173.817 Y190.524 E58.26046
G1 X172.87 Y192.081 E58.50291
G1 X171.888 Y193.617 E58.74546
G1 X170.868 Y195.14 E58.98932
G1 X169.817 Y196.639 E59.23289
G1 X168.722 Y198.131 E59.4791
G1 X167.621 Y199.566 E59.71974
G1 X166.471 Y200.999 E59.96418
G1 X165.307 Y202.389 E60.20539
G1 X164.094 Y203.775 E60.45042
G1 X162.882 Y205.101 E60.68942
G1 X161.619 Y206.427 E60.93305
G1 X160.355 Y207.697 E61.17144
G1 X159.037 Y208.968 E61.41504
G1 X157.737 Y210.168 E61.65041
G1 X156.207 Y211.515 E61.92161
G1 X153.095 Y214.103 E62.46009
G1 X150.833 Y215.786 E62.83518
G1 X149.383 Y216.821 E63.0722
G1 X147.958 Y217.794 E63.30176
G1 X146.522 Y218.735 E63.53017
G1 X145.039 Y219.662 E63.76284
G1 X143.544 Y220.555 E63.99452
G1 X142.067 Y221.399 E64.22084
G1 X140.563 Y222.217 E64.44861
G1 X139.041 Y223.006 E64.67669
G1 X137.517 Y223.758 E64.90278
G1 X135.909 Y224.511 E65.13901
G1 X134.303 Y225.223 E65.37273
G1 X132.542 Y225.958 E65.6266
G1 X131.042 Y226.55 E65.84114
G1 X129.76 Y227.029 E66.02321
G1 X128.113 Y227.609 E66.25552
G1 X126.479 Y228.149 E66.48447
G1 X124.826 Y228.657 E66.71454
G1 X123.105 Y229.148 E66.95264
G1 X121.45 Y229.583 E67.1803
G1 X119.771 Y229.99 E67.41014
G1 X118.054 Y230.369 E67.64407
G1 X116.361 Y230.706 E67.87373
G0 F6000 X116.418 Y231.104
G0 X116.536 Y231.691
;TYPE:WALL-OUTER
G1 F1200 X114.794 Y232 E68.1091
G1 X113.018 Y232.277 E68.34824
G1 X111.249 Y232.517 E68.58575
G1 X109.445 Y232.722 E68.8273
G1 X107.453 Y232.905 E69.09343
G1 X104.349 Y233.106 E69.50725
G1 X105.819 Y237.149 E70.07958
G1 X104.557 Y237.608 E70.25824
G1 X102.932 Y233.147 E70.88988
G1 X102.018 Y233.168 E71.01152
G1 X100.327 Y233.179 E71.23649
G1 X98.438 Y233.152 E71.48783
G1 X96.575 Y233.086 E71.73584
G1 X94.738 Y232.981 E71.98064
G1 X92.926 Y232.839 E72.22244
G1 X91.092 Y232.655 E72.46767
G1 X89.279 Y232.435 E72.71064
G1 X87.447 Y232.172 E72.95687
G1 X85.627 Y231.872 E73.20227
G1 X83.813 Y231.532 E73.44781
G1 X82.013 Y231.155 E73.69248
G1 X80.21 Y230.736 E73.93874
G1 X78.404 Y230.276 E74.18668
G1 X76.619 Y229.78 E74.43316
G1 X74.854 Y229.249 E74.67837
G1 X73.079 Y228.672 E74.92668
G1 X71.338 Y228.065 E75.17198
G1 X69.591 Y227.414 E75.42001
G1 X67.878 Y226.733 E75.66526
G1 X66.163 Y226.008 E75.91297
G1 X64.484 Y225.255 E76.15779
G1 X62.805 Y224.459 E76.40499
G1 X61.156 Y223.633 E76.65036
G1 X59.536 Y222.778 E76.89406
G1 X57.92 Y221.88 E77.14002
G1 X56.335 Y220.955 E77.38417
G1 X54.784 Y220.004 E77.62622
G1 X53.28 Y219.039 E77.86396
G1 X51.728 Y217.996 E78.11273
G1 X50.244 Y216.952 E78.35412
G1 X48.786 Y215.88 E78.59488
G1 X47.404 Y214.818 E78.82676
G1 X46.002 Y213.694 E79.06583
G1 X44.621 Y212.54 E79.30526
G1 X43.276 Y211.369 E79.54252
G1 X41.971 Y210.183 E79.77712
G1 X40.68 Y208.962 E80.01353
G1 X39.313 Y207.61 E80.26932
G1 X37.493 Y205.719 E80.61849
G1 X32.965 Y207.367 E81.25956
G1 X32.504 Y206.105 E81.4383
G1 X36.512 Y204.646 E82.00576
G1 X35.753 Y203.787 E82.15826
G1 X34.706 Y202.57 E82.37185
G1 X33.651 Y201.294 E82.59212
G1 X32.441 Y199.768 E82.85121
G1 X31.366 Y198.351 E83.08784
G1 X30.547 Y197.22 E83.27362
G1 X31.381 Y196.67 E83.40653
G1 X32.435 Y198.113 E83.64427
G1 X34.037 Y200.181 E83.99229
G1 X35.662 Y202.151 E84.33204
G1 X37.371 Y204.101 E84.677
G1 X39.138 Y205.997 E85.02181
G1 X40.962 Y207.84 E85.36678
G1 X42.843 Y209.627 E85.71196
G1 X44.777 Y211.357 E86.05718
G1 X46.763 Y213.026 E86.40231
G1 X48.796 Y214.632 E86.74699
G1 X50.874 Y216.173 E87.09117
G1 X52.995 Y217.648 E87.43488
G1 X55.153 Y219.054 E87.77754
G1 X57.407 Y220.428 E88.12874
G1 X59.631 Y221.691 E88.469
G1 X59.942 Y221.811 E88.51335
G1 X60.049 Y221.842 E88.52817
G1 X60.429 Y221.903 E88.57937
G1 X60.779 Y221.897 E88.62594
G1 X61.221 Y221.803 E88.68606
G1 X61.606 Y221.634 E88.742
G1 X61.9 Y221.429 E88.78968
G1 X61.982 Y221.358 E88.80411
G1 X62.184 Y221.149 E88.84278
G1 X62.248 Y221.069 E88.85641
G1 X62.4 Y220.839 E88.89309
G1 X62.448 Y220.749 E88.90666
G1 X62.561 Y220.483 E88.94511
G1 X62.595 Y220.377 E88.95992
G1 X62.669 Y220.001 E89.01091
G1 X62.677 Y219.651 E89.05748
G1 X62.6 Y219.207 E89.11743
G1 X62.466 Y218.865 E89.1663
G1 X62.414 Y218.765 E89.1813
G1 X62.248 Y218.512 E89.22155
G1 X62.179 Y218.426 E89.23622
G1 X61.919 Y218.165 E89.28524
G1 X61.683 Y217.995 E89.32393
G1 X60.134 Y217.047 E89.56554
G1 X58.538 Y215.983 E89.82073
G1 X57.05 Y214.909 E90.06488
G1 X55.659 Y213.828 E90.29925
G1 X54.125 Y212.556 E90.56437
G1 X52.483 Y211.117 E90.85484
G1 X50.938 Y209.684 E91.13519
G1 X49.431 Y208.207 E91.41592
G1 X47.964 Y206.685 E91.69715
G1 X46.549 Y205.136 E91.97627
G1 X45.161 Y203.526 E92.25908
G1 X43.832 Y201.898 E92.53867
G1 X42.533 Y200.211 E92.82194
G1 X41.291 Y198.502 E93.10301
G1 X40.097 Y196.759 E93.38409
G1 X38.962 Y194.999 E93.66271
G1 X37.863 Y193.186 E93.94476
G1 X36.829 Y191.372 E94.22255
G1 X35.804 Y189.444 E94.51305
G1 X34.89 Y187.61 E94.78567
G1 X32.546 Y182.496 E95.5341
G1 X30.238 Y177.351 E96.28431
G1 X27.974 Y172.187 E97.03446
G1 X25.753 Y167.005 E97.78453
G1 X23.574 Y161.805 E98.53462
G1 X21.327 Y156.308 E99.32469
G1 X19.185 Y150.934 E100.09435
G1 X17.192 Y145.816 E100.82505
G1 X15.245 Y140.691 E101.55443
G1 X13.234 Y135.258 E102.32517
G1 X10.676 Y128.131 E103.33257
G1 X11.652 Y127.777 E103.4707
G1 X17.351 Y143.434 E105.68741
G1 X18.022 Y145.212 E105.94024
G1 X18.729 Y146.948 E106.18962
G1 X19.478 Y148.67 E106.43945
G1 X20.28 Y150.397 E106.69277
G1 X21.056 Y151.968 E106.92589
G1 X21.874 Y153.534 E107.16094
G1 X22.759 Y155.136 E107.40443
G1 X23.714 Y156.771 E107.65634
G1 X24.691 Y158.351 E107.90348
G1 X25.711 Y159.918 E108.15223
G1 X26.778 Y161.47 E108.4028
G1 X27.89 Y163.006 E108.65508
G1 X29.046 Y164.524 E108.90893
G1 X30.247 Y166.021 E109.16427
G1 X31.492 Y167.495 E109.42096
G1 X32.78 Y168.947 E109.67918
G1 X34.112 Y170.372 E109.93869
G1 X35.486 Y171.769 E110.19938
G1 X36.901 Y173.137 E110.46122
G1 X38.327 Y174.448 E110.71893
G1 X39.781 Y175.718 E110.97577
G1 X41.27 Y176.954 E111.23323
G1 X42.795 Y178.157 E111.49164
G1 X44.354 Y179.323 E111.75064
G1 X45.947 Y180.453 E112.01048
G1 X47.57 Y181.545 E112.27073
G1 X49.224 Y182.596 E112.53145
G1 X50.907 Y183.607 E112.79265
G1 X52.617 Y184.575 E113.05407
G1 X54.353 Y185.501 E113.31583
G1 X56.113 Y186.382 E113.57768
G1 X57.894 Y187.218 E113.83943
G1 X59.697 Y188.009 E114.10137
G1 X61.518 Y188.751 E114.36298
G1 X63.357 Y189.448 E114.62462
G1 X65.21 Y190.096 E114.88579
G1 X67.076 Y190.696 E115.14656
G1 X68.954 Y191.248 E115.40698
G1 X70.841 Y191.751 E115.66679
G1 X72.737 Y192.204 E115.92614
G1 X74.637 Y192.608 E116.18456
G1 X76.542 Y192.964 E116.44239
G1 X78.448 Y193.27 E116.69922
G1 X80.354 Y193.527 E116.95509
G1 X82.259 Y193.737 E117.21006
G1 X84.16 Y193.898 E117.46388
G1 X86.056 Y194.01 E117.71656
G1 X87.946 Y194.077 E117.96817
G1 X89.826 Y194.097 E118.2183
G1 X91.696 Y194.072 E118.46711
G1 X93.554 Y194.001 E118.71448
G1 X95.399 Y193.887 E118.96041
G1 X97.23 Y193.73 E119.2049
G1 X98.994 Y193.535 E119.44101
G1 X100.791 Y193.296 E119.68219
G1 X102.571 Y193.016 E119.92191
G1 X104.472 Y192.669 E120.179
G1 X106.311 Y192.286 E120.42891
G1 X108.135 Y191.861 E120.67808
G1 X109.936 Y191.393 E120.92564
G1 X111.706 Y190.888 E121.17052
G1 X113.515 Y190.324 E121.42262
G1 X115.164 Y189.768 E121.65414
G1 X116.023 Y189.462 E121.77545
G1 X117.838 Y188.775 E122.03364
G1 X119.539 Y188.085 E122.27785
G1 X121.284 Y187.326 E122.53102
G1 X122.967 Y186.545 E122.77786
G1 X124.538 Y185.77 E123.01091
G1 X126.147 Y184.929 E123.25245
G1 X127.749 Y184.045 E123.49588
G1 X129.384 Y183.09 E123.74779
G1 X130.964 Y182.113 E123.99493
