;FLAVOR:Marlin
;TIME:5810
;Filament used: 17.6721m
;Layer height: 0.5
;MINX:19.224
;MINY:11.252
;MINZ:0.32
;MAXX:215.776
;MAXY:230.748
;MAXZ:11.82
;Generated with Cura_SteamEngine 4.5.0
M140 S55
M105
M190 S55
M104 S220
M105
M109 S220
M82 ;absolute extrusion mode
; Ender 3 Custom Start G-code
G92 E0 ; Reset Extruder
G28 ; Home all axes
G1 Z2.0 F3000 ; Move Z Axis up little to prevent scratching of Heat Bed
G1 X0.1 Y20 Z0.3 F5000.0 ; Move to start position
G1 X0.1 Y200.0 Z0.3 F1500.0 E15 ; Draw the first line
G1 X0.4 Y200.0 Z0.3 F5000.0 ; Move to side a little
G1 X0.4 Y20 Z0.3 F1500.0 E30 ; Draw the second line
G92 E0 ; Reset Extruder
G1 Z2.0 F3000 ; Move Z Axis up little to prevent scratching of Heat Bed
G1 X5 Y20 Z0.3 F5000.0 ; Move over to prevent blob squish
G92 E0
G92 E0
G1 F2700 E-5
;LAYER_COUNT:24
;LAYER:0
M107
;MESH:FSR12-x2.stl
G0 F6000 X133.288 Y217.227 Z0.32
;TYPE:WALL-INNER
G1 F2700 E0
G1 F1200 X131.219 Y217.216 E0.27526
G1 X129.075 Y217.142 E0.56067
G1 X127.097 Y217.02 E0.82433
G1 X121.479 Y216.492 E1.57504
G1 X115.882 Y215.919 E2.32356
G1 X110.282 Y215.299 E3.07314
G1 X104.705 Y214.634 E3.82037
G1 X99.823 Y214.011 E4.47514
G1 X99.117 Y213.921 E4.56982
G1 X98.386 Y213.822 E4.66796
G1 X96.542 Y213.571 E4.91555
G1 X94.702 Y213.32 E5.16261
G1 X94.376 Y213.275 E5.2064
G1 X94.708 Y213.273 E5.20776
G1 X96.59 Y213.217 E5.26038
G1 X98.482 Y213.115 E5.39692
G1 X99.05 Y213.071 E5.45395
G1 X99.759 Y213.016 E5.54163
G1 X100.383 Y212.966 E5.62491
G1 X102.295 Y212.768 E5.88065
G1 X104.212 Y212.522 E6.13778
G1 X106.132 Y212.227 E6.39621
G1 X108.057 Y211.882 E6.6564
G1 X109.982 Y211.487 E6.91784
G1 X111.907 Y211.041 E7.18072
G1 X113.828 Y210.543 E7.44474
G1 X115.745 Y209.995 E7.71
G1 X117.618 Y209.406 E7.97121
G1 X119.468 Y208.775 E8.23126
G1 X121.307 Y208.095 E8.49211
G1 X123.134 Y207.366 E8.75381
G1 X124.948 Y206.589 E9.01635
G1 X126.746 Y205.765 E9.27948
G1 X128.525 Y204.892 E9.54313
G1 X130.286 Y203.974 E9.80733
G1 X132.024 Y203.01 E10.07174
G1 X133.74 Y202 E10.33665
G1 X135.432 Y200.947 E10.60179
G1 X137.096 Y199.849 E10.86702
G1 X138.731 Y198.71 E11.13212
G1 X140.338 Y197.528 E11.39752
G1 X141.912 Y196.307 E11.66254
G1 X143.454 Y195.047 E11.92747
G1 X144.962 Y193.75 E12.19209
G1 X146.433 Y192.415 E12.45637
G1 X147.868 Y191.048 E12.72005
G1 X149.265 Y189.647 E12.98327
G1 X150.623 Y188.214 E13.24592
G1 X151.94 Y186.752 E13.50771
G1 X153.216 Y185.261 E13.76879
G1 X154.451 Y183.744 E14.02904
G1 X155.642 Y182.202 E14.28826
G1 X156.791 Y180.637 E14.54656
G1 X157.895 Y179.05 E14.80375
G1 X158.954 Y177.445 E15.05958
G1 X159.97 Y175.821 E15.31443
G1 X160.939 Y174.181 E15.56786
G1 X161.864 Y172.528 E15.81987
G1 X162.744 Y170.862 E16.07053
G1 X163.578 Y169.184 E16.31983
G1 X164.366 Y167.5 E16.56718
G1 X165.09 Y165.853 E16.80654
G1 X165.79 Y164.154 E17.05101
G1 X166.444 Y162.452 E17.29358
G1 X167.105 Y160.61 E17.55394
G1 X167.701 Y158.801 E17.80734
G1 X168.25 Y156.986 E18.05961
G1 X168.753 Y155.169 E18.31044
G1 X169.193 Y153.409 E18.5518
G1 X169.627 Y151.489 E18.81368
G1 X169.975 Y149.762 E19.04806
G1 X170.141 Y148.847 E19.17178
G1 X170.458 Y146.913 E19.43251
G1 X170.714 Y145.069 E19.68019
G1 X170.932 Y143.155 E19.93648
G1 X171.1 Y141.281 E20.18679
G1 X171.215 Y139.51 E20.42291
G1 X171.293 Y137.673 E20.66752
G1 X171.327 Y135.82 E20.91409
G1 X171.318 Y133.903 E21.16913
G1 X171.263 Y132.021 E21.41962
G1 X171.16 Y130.129 E21.6717
G1 X171.011 Y128.228 E21.92539
G1 X170.813 Y126.316 E22.18112
G1 X170.567 Y124.399 E22.43825
G1 X170.273 Y122.479 E22.69667
G1 X169.927 Y120.553 E22.95701
G1 X169.532 Y118.629 E23.21831
G1 X169.086 Y116.704 E23.4812
G1 X168.588 Y114.782 E23.74535
G1 X168.04 Y112.865 E24.0106
G1 X167.452 Y110.993 E24.27165
G1 X166.82 Y109.143 E24.53174
G1 X166.141 Y107.304 E24.79255
G1 X165.411 Y105.476 E25.05442
G1 X164.634 Y103.662 E25.31696
G1 X163.81 Y101.865 E25.57997
G1 X162.938 Y100.085 E25.84368
G1 X162.02 Y98.325 E26.10776
G1 X161.055 Y96.586 E26.37236
G1 X160.046 Y94.871 E26.63708
G1 X158.992 Y93.179 E26.90229
G1 X157.895 Y91.515 E27.16745
G1 X156.755 Y89.879 E27.43273
G1 X155.573 Y88.273 E27.69803
G1 X154.352 Y86.699 E27.96305
G1 X153.092 Y85.157 E28.22798
G1 X151.795 Y83.649 E28.4926
G1 X150.462 Y82.178 E28.7567
G1 X149.093 Y80.742 E29.02065
G1 X147.692 Y79.346 E29.28378
G1 X146.259 Y77.988 E29.54643
G1 X144.797 Y76.671 E29.80822
G1 X143.306 Y75.394 E30.06939
G1 X141.789 Y74.16 E30.32956
G1 X140.247 Y72.969 E30.58877
G1 X138.682 Y71.821 E30.84699
G1 X137.096 Y70.716 E31.10416
G1 X135.489 Y69.656 E31.36028
G1 X133.866 Y68.641 E31.61495
G1 X132.226 Y67.672 E31.86837
G1 X130.574 Y66.747 E32.12027
G1 X128.907 Y65.867 E32.37105
G1 X127.23 Y65.033 E32.62023
G1 X126.034 Y64.473 E32.79592
G1 X125.545 Y64.244 E32.86776
G1 X125.351 Y64.159 E32.89594
G1 X123.897 Y63.521 E33.10718
G1 X122.199 Y62.822 E33.35148
G1 X120.966 Y62.346 E33.52731
G1 X122.242 Y62.623 E33.54443
G1 X124.008 Y63.007 E33.63474
G1 X125.695 Y63.374 E33.79679
G1 X125.739 Y63.383 E33.80052
G1 X126.265 Y63.502 E33.86809
G1 X131.169 Y64.61 E34.53697
G1 X136.653 Y65.898 E35.28641
G1 X142.109 Y67.226 E36.03347
G1 X147.707 Y68.639 E36.80159
G1 X153 Y70.021 E37.52939
G1 X154.895 Y70.58 E37.79224
G1 X156.913 Y71.236 E38.07454
G1 X158.904 Y71.945 E38.35572
G1 X160.817 Y72.688 E38.62875
G1 X162.743 Y73.497 E38.90667
G1 X164.666 Y74.369 E39.18758
G1 X166.529 Y75.278 E39.46337
G1 X168.353 Y76.232 E39.73722
G1 X170.21 Y77.269 E40.02019
G1 X171.979 Y78.321 E40.29401
G1 X173.729 Y79.431 E40.56971
G1 X175.479 Y80.608 E40.85029
G1 X177.168 Y81.816 E41.12656
G1 X178.812 Y83.06 E41.40084
G1 X180.502 Y84.417 E41.68919
G1 X182.008 Y85.693 E41.95179
G1 X183.367 Y86.926 E42.19592
G1 X184.647 Y88.174 E42.43376
G1 X185.858 Y89.445 E42.66732
G1 X187.084 Y90.828 E42.9132
G1 X187.362 Y91.103 E42.96522
G1 X187.534 Y91.245 E42.9949
G1 X187.995 Y91.533 E43.06721
G1 X188.484 Y91.73 E43.13735
G1 X189.112 Y91.857 E43.22259
G1 X189.654 Y91.856 E43.2947
G1 X189.865 Y91.827 E43.32304
G1 X190.3 Y91.736 E43.38216
G1 X190.866 Y91.506 E43.46344
G1 X191.314 Y91.214 E43.53459
G1 X191.759 Y90.798 E43.61563
G1 X192.052 Y90.388 E43.68267
G1 X192.115 Y90.278 E43.69954
G1 X192.157 Y90.204 E43.71086
G1 X192.348 Y89.774 E43.77346
G1 X192.474 Y89.254 E43.84464
G1 X192.678 Y89.522 E43.84766
G1 X192.815 Y89.702 E43.84999
G1 X193.013 Y89.962 E43.87403
G1 X193.063 Y90.03 E43.88526
G1 X194.074 Y91.419 E44.11382
G1 X195.124 Y92.928 E44.3584
G1 X196.123 Y94.435 E44.59894
G1 X197.103 Y95.982 E44.84258
G1 X198.05 Y97.549 E45.08616
G1 X198.964 Y99.139 E45.33016
G1 X199.843 Y100.746 E45.57385
G1 X200.696 Y102.393 E45.82061
G1 X201.501 Y104.029 E46.06318
G1 X202.27 Y105.679 E46.30537
G1 X203.007 Y107.355 E46.54895
G1 X203.706 Y109.044 E46.79214
G1 X204.376 Y110.766 E47.03797
G1 X204.998 Y112.47 E47.2793
G1 X205.588 Y114.204 E47.52298
G1 X206.131 Y115.916 E47.76193
G1 X206.642 Y117.655 E48.00307
G1 X207.118 Y119.412 E48.24525
G1 X207.554 Y121.174 E48.48673
G1 X207.946 Y122.905 E48.72286
G1 X208.342 Y124.874 E48.99006
G1 X209.036 Y128.925 E49.53686
G1 X209.358 Y131.693 E49.9076
G1 X209.529 Y133.455 E50.14312
G1 X209.659 Y135.169 E50.3718
G1 X209.756 Y136.903 E50.60286
G1 X209.818 Y138.639 E50.83396
G1 X209.844 Y140.372 E51.06455
G1 X209.837 Y142.091 E51.29325
G1 X209.794 Y143.814 E51.52255
G1 X209.718 Y145.505 E51.74774
G1 X209.606 Y147.215 E51.97573
G1 X209.457 Y148.96 E52.20873
G1 X209.269 Y150.716 E52.44369
G1 X209.026 Y152.598 E52.69615
G1 X208.782 Y154.231 E52.91581
G1 X208.563 Y155.548 E53.09343
G1 X208.243 Y157.264 E53.32567
G1 X207.889 Y158.967 E53.55708
G1 X207.504 Y160.652 E53.78703
G1 X207.074 Y162.367 E54.02226
G1 X206.615 Y164.047 E54.25396
G1 X206.133 Y165.686 E54.48124
G1 X205.608 Y167.344 E54.71262
G1 X205.048 Y168.998 E54.94494
G1 X204.445 Y170.66 E55.18015
G1 X203.814 Y172.297 E55.41356
G1 X203.131 Y173.959 E55.65262
G1 X202.43 Y175.574 E55.88685
G1 X201.601 Y177.369 E56.14989
G1 X199.935 Y180.752 E56.65158
G1 X199.915 Y180.749 E56.65427
G1 X199.138 Y182.157 E56.86823
G1 X198.3 Y183.632 E57.09392
G1 X197.348 Y185.23 E57.34139
G1 X196.37 Y186.792 E57.58657
G1 X195.385 Y188.295 E57.82564
G1 X194.361 Y189.784 E58.06606
G1 X193.291 Y191.273 E58.31
G1 X192.215 Y192.707 E58.54852
G1 X191.09 Y194.138 E58.79069
G1 X189.935 Y195.547 E59.03307
G1 X188.747 Y196.932 E59.27584
G1 X187.521 Y198.301 E59.52033
G1 X186.264 Y199.647 E59.76534
G1 X185.001 Y200.942 E60.006
G1 X183.694 Y202.226 E60.24976
G1 X182.343 Y203.496 E60.49644
G1 X180.989 Y204.716 E60.73892
G1 X179.601 Y205.913 E60.98276
G1 X178.196 Y207.074 E61.22525
G1 X176.747 Y208.218 E61.47086
G1 X175.282 Y209.326 E61.71523
G1 X173.809 Y210.391 E61.95706
G1 X172.302 Y211.432 E62.20073
G1 X171.331 Y212.071 E62.35538
G1 X171.256 Y212.12 E62.3673
G1 X171.047 Y212.258 E62.40062
G1 X170.755 Y212.451 E62.44718
G1 X170.814 Y211.906 E62.47723
G1 X170.773 Y211.388 E62.53057
G1 X170.755 Y211.3 E62.5419
G1 X170.731 Y211.186 E62.5574
G1 X170.626 Y210.816 E62.60857
G1 X170.552 Y210.638 E62.63422
G1 X170.39 Y210.309 E62.68301
G1 X170.286 Y210.147 E62.70862
G1 X170.064 Y209.852 E62.75774
G1 X169.927 Y209.699 E62.78506
G1 X169.632 Y209.433 E62.83791
G1 X169.468 Y209.311 E62.8651
G1 X169.064 Y209.068 E62.92782
G1 X168.444 Y208.837 E63.01585
G1 X167.795 Y208.752 E63.10293
G1 X167.317 Y208.775 E63.16659
G1 X167.113 Y208.809 E63.19411
G1 X166.748 Y208.901 E63.24419
G1 X166.571 Y208.964 E63.26918
G1 X166.248 Y209.109 E63.31629
G1 X166.129 Y209.175 E63.33439
G1 X164.585 Y210.011 E63.56798
G1 X162.962 Y210.813 E63.80883
G1 X161.287 Y211.566 E64.05316
G1 X159.732 Y212.198 E64.27647
G1 X157.873 Y212.888 E64.54028
G1 X155.855 Y213.574 E64.82384
G1 X153.845 Y214.193 E65.10365
G1 X151.844 Y214.751 E65.38002
G1 X149.828 Y215.253 E65.65642
G1 X147.779 Y215.703 E65.93551
G1 X145.753 Y216.089 E66.2099
G1 X143.671 Y216.425 E66.49048
G1 X141.594 Y216.702 E66.76925
G1 X139.555 Y216.918 E67.04204
G1 X137.46 Y217.079 E67.32158
G1 X135.383 Y217.182 E67.59824
G1 X133.288 Y217.227 E67.87703
G1 F2700 E62.87703
G0 F6000 X133.187 Y217.707
G0 X133.179 Y219.392
G0 X133.901 Y224.324
G0 X133.973 Y224.984
G0 X133.138 Y226.582
;TYPE:WALL-OUTER
G1 F2700 E67.87703
G1 F1200 X133.078 Y225.583 E68.01017
G1 X134.855 Y225.391 E68.24796
G1 X137.447 Y225.038 E68.59599
G1 X139.965 Y224.617 E68.93563
G1 X142.509 Y224.112 E69.28069
G1 X145.035 Y223.531 E69.62553
G1 X147.543 Y222.872 E69.97052
G1 X150.031 Y222.136 E70.3157
G1 X152.495 Y221.326 E70.66077
G1 X154.934 Y220.44 E71.00601
G1 X157.342 Y219.483 E71.35074
G1 X159.716 Y218.454 E71.69497
G1 X162.053 Y217.355 E72.03855
G1 X164.351 Y216.188 E72.38144
G1 X166.666 Y214.922 E72.73248
G1 X168.871 Y213.629 E73.07255
G1 X169.133 Y213.42 E73.11714
G1 X169.211 Y213.344 E73.13162
G1 X169.402 Y213.114 E73.1714
G1 X169.463 Y213.026 E73.18564
G1 X169.623 Y212.737 E73.22959
G1 X169.764 Y212.309 E73.28954
G1 X169.81 Y211.891 E73.34549
G1 X169.781 Y211.53 E73.39367
G1 X169.759 Y211.424 E73.40808
G1 X169.68 Y211.145 E73.44665
G1 X169.641 Y211.051 E73.46019
G1 X169.518 Y210.802 E73.49714
G1 X169.464 Y210.718 E73.51043
G1 X169.291 Y210.487 E73.54882
G1 X169.219 Y210.407 E73.56314
G1 X168.997 Y210.207 E73.60289
G1 X168.911 Y210.143 E73.61716
G1 X168.628 Y209.973 E73.66108
G1 X168.201 Y209.814 E73.7217
G1 X167.754 Y209.755 E73.78168
G1 X167.425 Y209.771 E73.8255
G1 X167.318 Y209.789 E73.83994
G1 X167.039 Y209.859 E73.87821
G1 X166.944 Y209.893 E73.89163
G1 X166.696 Y210.004 E73.92778
G1 X166.615 Y210.049 E73.94011
G1 X165.046 Y210.898 E74.17745
G1 X163.379 Y211.722 E74.42484
G1 X161.693 Y212.48 E74.67077
G1 X160.091 Y213.131 E74.90083
G1 X158.195 Y213.835 E75.1699
G1 X156.155 Y214.528 E75.45654
G1 X154.14 Y215.149 E75.73706
G1 X152.094 Y215.719 E76.01962
G1 X150.043 Y216.23 E76.30083
G1 X147.994 Y216.68 E76.57993
G1 X145.918 Y217.075 E76.86108
G1 X143.822 Y217.414 E77.14355
G1 X141.721 Y217.694 E77.42554
G1 X139.632 Y217.915 E77.70501
G1 X137.513 Y218.078 E77.98776
G1 X135.42 Y218.182 E78.26656
G1 X133.304 Y218.227 E78.54813
G1 X131.213 Y218.216 E78.82633
G1 X129.018 Y218.14 E79.11853
G1 X127.002 Y218.016 E79.38724
G1 X121.385 Y217.488 E80.13782
G1 X115.78 Y216.914 E80.88742
G1 X110.172 Y216.293 E81.63807
G1 X104.578 Y215.626 E82.38757
G1 X98.98 Y214.912 E83.13836
G1 X93.101 Y214.11 E83.92775
G1 X87.368 Y213.277 E84.69848
G1 X81.948 Y212.446 E85.42799
G1 X76.528 Y211.567 E86.15849
G1 X70.821 Y210.594 E86.92871
G1 X63.369 Y209.245 E87.93624
G1 X63.549 Y208.222 E88.07443
G1 X79.959 Y211.116 E90.29132
G1 X81.834 Y211.422 E90.54407
G1 X83.691 Y211.68 E90.7935
G1 X85.558 Y211.892 E91.04348
G1 X87.454 Y212.061 E91.29673
G1 X89.203 Y212.174 E91.5299
G1 X90.968 Y212.248 E91.76492
G1 X92.798 Y212.282 E92.00843
G1 X94.691 Y212.273 E92.26028
G1 X96.548 Y212.218 E92.50744
G1 X98.416 Y212.117 E92.75632
G1 X100.293 Y211.97 E93.00681
G1 X102.18 Y211.775 E93.25919
G1 X104.072 Y211.532 E93.51297
G1 X105.968 Y211.24 E93.76819
G1 X107.868 Y210.9 E94.02498
G1 X109.769 Y210.51 E94.28316
G1 X111.669 Y210.07 E94.54263
G1 X113.565 Y209.578 E94.80322
G1 X115.458 Y209.037 E95.06515
G1 X117.307 Y208.456 E95.323
G1 X119.133 Y207.833 E95.57969
G1 X120.948 Y207.161 E95.83717
G1 X122.752 Y206.442 E96.09554
G1 X124.543 Y205.675 E96.35474
G1 X126.317 Y204.861 E96.61442
G1 X128.074 Y204 E96.87473
G1 X129.812 Y203.093 E97.13555
G1 X131.528 Y202.142 E97.39656
G1 X133.222 Y201.145 E97.65806
G1 X134.892 Y200.105 E97.9198
G1 X136.535 Y199.021 E98.18168
G1 X138.149 Y197.897 E98.44334
G1 X139.735 Y196.73 E98.70531
G1 X141.289 Y195.525 E98.96693
G1 X142.811 Y194.281 E99.22845
G1 X144.3 Y193 E99.48977
G1 X145.752 Y191.683 E99.75057
G1 X147.169 Y190.333 E100.01095
G1 X148.548 Y188.95 E100.27078
G1 X149.888 Y187.535 E100.53005
G1 X151.189 Y186.092 E100.78853
G1 X152.448 Y184.62 E101.04623
G1 X153.667 Y183.123 E101.30307
G1 X154.843 Y181.6 E101.55906
G1 X155.977 Y180.055 E101.81403
G1 X157.067 Y178.489 E102.06788
G1 X158.113 Y176.904 E102.32052
G1 X159.115 Y175.301 E102.57202
G1 X160.072 Y173.682 E102.82223
G1 X160.985 Y172.05 E103.07102
G1 X161.854 Y170.406 E103.31842
G1 X162.677 Y168.75 E103.56444
G1 X163.455 Y167.087 E103.8087
G1 X164.17 Y165.461 E104.04501
G1 X164.861 Y163.784 E104.28632
G1 X165.507 Y162.104 E104.52578
G1 X166.159 Y160.285 E104.78286
G1 X166.747 Y158.5 E105.03289
G1 X167.289 Y156.708 E105.28197
G1 X167.786 Y154.914 E105.52963
G1 X168.22 Y153.177 E105.76783
G1 X168.649 Y151.28 E106.02658
G1 X168.993 Y149.574 E106.25811
G1 X169.156 Y148.677 E106.3794
G1 X169.469 Y146.763 E106.63743
G1 X169.722 Y144.944 E106.88176
G1 X169.937 Y143.054 E107.13482
G1 X170.103 Y141.204 E107.38194
G1 X170.216 Y139.457 E107.61485
G1 X170.293 Y137.643 E107.8564
G1 X170.327 Y135.813 E108.09991
G1 X170.318 Y133.92 E108.35175
G1 X170.264 Y132.063 E108.59891
G1 X170.162 Y130.195 E108.8478
G1 X170.015 Y128.318 E109.09829
G1 X169.82 Y126.431 E109.35067
G1 X169.577 Y124.539 E109.60445
G1 X169.286 Y122.643 E109.85965
G1 X168.945 Y120.742 E110.1166
G1 X168.555 Y118.842 E110.37464
G1 X168.115 Y116.942 E110.63411
G1 X167.623 Y115.045 E110.89484
G1 X167.082 Y113.152 E111.15677
G1 X166.502 Y111.304 E111.41445
G1 X165.878 Y109.478 E111.67118
G1 X165.207 Y107.663 E111.92862
G1 X164.487 Y105.858 E112.18716
G1 X163.72 Y104.068 E112.44624
G1 X162.906 Y102.294 E112.70591
G1 X162.045 Y100.536 E112.96634
G1 X161.139 Y98.799 E113.22698
G1 X160.187 Y97.082 E113.48817
G1 X159.191 Y95.389 E113.7495
G1 X158.15 Y93.719 E114.01131
G1 X157.067 Y92.076 E114.27311
G1 X155.942 Y90.461 E114.53496
G1 X154.775 Y88.876 E114.79682
G1 X153.57 Y87.322 E115.05844
G1 X152.326 Y85.8 E115.31996
G1 X151.045 Y84.311 E115.58127
G1 X149.729 Y82.859 E115.84199
G1 X148.378 Y81.441 E116.10255
G1 X146.995 Y80.063 E116.36229
G1 X145.58 Y78.723 E116.62156
G1 X144.137 Y77.422 E116.88004
G1 X142.665 Y76.162 E117.13783
G1 X141.168 Y74.944 E117.39458
G1 X139.645 Y73.768 E117.65058
G1 X138.1 Y72.634 E117.90555
G1 X136.535 Y71.544 E118.15928
G1 X134.949 Y70.498 E118.41204
G1 X133.346 Y69.496 E118.66354
G1 X131.727 Y68.539 E118.91375
G1 X130.096 Y67.626 E119.16242
G1 X128.451 Y66.757 E119.40994
G1 X126.795 Y65.934 E119.65596
G1 X125.132 Y65.155 E119.90028
