;FLAVOR:Marlin
;TIME:8716
;Filament used: 26.4927m
;Layer height: 0.5
;MINX:3.121
;MINY:3.99
;MINZ:0.32
;MAXX:231.895
;MAXY:238.601
;MAXZ:11.82
;Generated with Cura_SteamEngine 4.5.0
M140 S60
M105
M190 S60
M104 S220
M105
M109 S220
M82 ;absolute extrusion mode
; Ender 3 Custom Start G-code
G92 E0 ; Reset Extruder
G28 ; Home all axes
G1 Z2.0 F3000 ; Move Z Axis up little to prevent scratching of Heat Bed
G1 X0.1 Y20 Z0.3 F5000.0 ; Move to start position
G1 X0.1 Y200.0 Z0.3 F1500.0 E15 ; Draw the first line
G1 X0.4 Y200.0 Z0.3 F5000.0 ; Move to side a little
G1 X0.4 Y20 Z0.3 F1500.0 E30 ; Draw the second line
G92 E0 ; Reset Extruder
G1 Z2.0 F3000 ; Move Z Axis up little to prevent scratching of Heat Bed
G1 X5 Y20 Z0.3 F5000.0 ; Move over to prevent blob squish
G92 E0
G92 E0
G1 F2700 E-5
;LAYER_COUNT:24
;LAYER:0
M107
;MESH:FSR12-x3.stl
G0 F6000 X105.222 Y231.377 Z0.32
;TYPE:WALL-INNER
G1 F2700 E0
G1 F1200 X105.215 Y231.359 E0.00257
G1 X103.601 Y231.411 E0.21741
G1 X101.908 Y231.439 E0.44268
G1 X100.063 Y231.433 E0.68814
G1 X98.199 Y231.386 E0.9362
G1 X96.415 Y231.304 E1.1738
G1 X94.58 Y231.178 E1.4185
G1 X92.804 Y231.02 E1.65572
G1 X90.982 Y230.817 E1.89962
G1 X89.178 Y230.578 E2.14172
G1 X87.387 Y230.302 E2.38281
G1 X85.585 Y229.985 E2.62623
G1 X83.788 Y229.628 E2.86997
G1 X82.022 Y229.238 E3.11058
G1 X80.211 Y228.796 E3.35859
G1 X78.462 Y228.331 E3.59936
G1 X76.68 Y227.814 E3.84622
G1 X74.962 Y227.276 E4.08573
G1 X73.203 Y226.683 E4.33269
G1 X71.48 Y226.062 E4.57635
G1 X69.77 Y225.402 E4.8202
G1 X68.08 Y224.709 E5.06321
G1 X66.392 Y223.973 E5.3082
G1 X64.743 Y223.213 E5.54977
G1 X63.703 Y222.705 E5.70375
G1 X63.615 Y222.662 E5.71678
G1 X63.401 Y222.557 E5.7485
G1 X63.084 Y222.402 E5.79544
G1 X63.588 Y222.173 E5.82595
G1 X63.996 Y221.882 E5.87743
G1 X64.069 Y221.818 E5.88963
G1 X64.159 Y221.74 E5.90548
G1 X64.515 Y221.351 E5.97563
G1 X64.812 Y220.872 E6.05061
G1 X65.018 Y220.343 E6.12614
G1 X65.111 Y219.898 E6.18662
G1 X65.132 Y219.691 E6.2143
G1 X65.135 Y219.222 E6.2767
G1 X65.02 Y218.589 E6.36229
G1 X64.821 Y218.094 E6.43327
G1 X64.717 Y217.905 E6.46197
G1 X64.504 Y217.587 E6.51289
G1 X64.38 Y217.431 E6.5394
G1 X64.096 Y217.141 E6.59341
G1 X63.936 Y217.012 E6.62075
G1 X63.594 Y216.779 E6.67581
G1 X62.049 Y215.854 E6.91538
G1 X60.522 Y214.858 E7.15792
G1 X59.022 Y213.799 E7.40221
G1 X57.697 Y212.792 E7.62362
G1 X56.138 Y211.527 E7.89072
G1 X54.502 Y210.124 E8.17745
G1 X52.994 Y208.754 E8.4485
G1 X51.461 Y207.283 E8.73116
G1 X50.01 Y205.808 E9.00643
G1 X48.587 Y204.283 E9.28393
G1 X47.227 Y202.738 E9.55777
G1 X45.864 Y201.104 E9.84085
G1 X44.575 Y199.465 E10.11826
G1 X43.338 Y197.801 E10.39411
G1 X42.136 Y196.083 E10.67306
G1 X41.012 Y194.381 E10.94442
G1 X39.904 Y192.596 E11.22393
G1 X38.848 Y190.786 E11.50272
G1 X37.816 Y188.896 E11.78921
G1 X36.917 Y187.137 E12.05202
G1 X34.519 Y182.048 E12.80046
G1 X32.162 Y176.938 E13.54913
G1 X29.846 Y171.803 E14.29857
G1 X27.573 Y166.652 E15.04762
G1 X25.627 Y162.142 E15.7011
G1 X25.347 Y161.491 E15.79538
G1 X25.061 Y160.811 E15.89353
G1 X24.339 Y159.095 E16.14121
G1 X23.619 Y157.385 E16.38805
G1 X23.496 Y157.092 E16.43033
G1 X23.66 Y157.367 E16.43153
G1 X24.666 Y158.957 E16.48341
G1 X25.718 Y160.534 E16.61965
G1 X26.045 Y161 E16.67669
G1 X26.452 Y161.58 E16.76411
G1 X26.814 Y162.095 E16.84786
G1 X27.958 Y163.639 E17.10351
G1 X29.144 Y165.163 E17.36043
G1 X30.377 Y166.668 E17.61927
G1 X31.653 Y168.148 E17.87924
G1 X32.975 Y169.604 E18.14089
G1 X34.338 Y171.034 E18.40371
G1 X35.745 Y172.435 E18.66787
G1 X37.193 Y173.805 E18.93307
G1 X38.652 Y175.117 E19.19412
G1 X40.138 Y176.387 E19.45418
G1 X41.66 Y177.624 E19.71511
G1 X43.216 Y178.826 E19.97669
G1 X44.809 Y179.991 E20.23926
G1 X46.433 Y181.119 E20.50232
G1 X48.091 Y182.207 E20.76615
G1 X49.777 Y183.254 E21.03019
G1 X51.492 Y184.261 E21.29478
G1 X53.235 Y185.223 E21.55964
G1 X55.002 Y186.142 E21.82462
G1 X56.794 Y187.015 E22.08981
G1 X58.607 Y187.844 E22.35504
G1 X60.442 Y188.625 E22.62036
G1 X62.295 Y189.358 E22.88547
G1 X64.165 Y190.044 E23.15047
G1 X66.049 Y190.681 E23.41505
G1 X67.945 Y191.269 E23.67915
G1 X69.854 Y191.807 E23.94302
G1 X71.771 Y192.296 E24.20622
G1 X73.695 Y192.735 E24.46877
G1 X75.624 Y193.124 E24.73057
G1 X77.557 Y193.464 E24.99169
G1 X79.491 Y193.754 E25.25187
G1 X81.426 Y193.994 E25.51127
G1 X83.358 Y194.185 E25.76956
G1 X85.284 Y194.328 E26.0265
G1 X87.207 Y194.423 E26.28265
G1 X89.121 Y194.47 E26.53737
G1 X91.025 Y194.471 E26.79068
G1 X92.919 Y194.425 E27.04273
G1 X94.802 Y194.333 E27.29354
G1 X96.668 Y194.198 E27.54244
G1 X98.471 Y194.024 E27.78343
G1 X100.306 Y193.804 E28.02931
G1 X102.124 Y193.542 E28.27368
G1 X103.925 Y193.239 E28.51665
G1 X105.845 Y192.867 E28.77684
G1 X107.705 Y192.46 E29.03015
G1 X109.547 Y192.009 E29.28245
G1 X111.367 Y191.517 E29.53327
G1 X113.155 Y190.987 E29.78138
G1 X114.981 Y190.396 E30.03672
G1 X116.642 Y189.816 E30.27078
G1 X117.514 Y189.496 E30.39436
G1 X119.344 Y188.781 E30.65575
G1 X121.059 Y188.063 E30.9031
G1 X122.818 Y187.276 E31.15947
G1 X124.515 Y186.467 E31.40959
G1 X126.098 Y185.666 E31.64562
G1 X127.72 Y184.797 E31.89043
G1 X129.333 Y183.883 E32.13708
G1 X130.977 Y182.898 E32.39205
G1 X132.568 Y181.892 E32.64248
G1 X134.145 Y180.841 E32.89461
G1 X135.706 Y179.744 E33.14844
G1 X137.25 Y178.602 E33.40394
G1 X138.774 Y177.414 E33.66102
G1 X140.279 Y176.181 E33.91986
G1 X141.759 Y174.905 E34.17984
G1 X143.215 Y173.584 E34.44139
G1 X144.645 Y172.22 E34.7043
G1 X146.045 Y170.814 E34.96827
G1 X147.416 Y169.366 E35.23357
G1 X148.728 Y167.907 E35.49461
G1 X149.998 Y166.421 E35.75468
G1 X151.235 Y164.899 E36.01561
G1 X152.437 Y163.341 E36.2774
G1 X153.603 Y161.749 E36.53993
G1 X154.729 Y160.125 E36.80284
G1 X155.818 Y158.469 E37.06653
G1 X156.865 Y156.782 E37.33068
G1 X157.871 Y155.066 E37.59532
G1 X158.834 Y153.324 E37.86013
G1 X159.753 Y151.556 E38.12522
G1 X160.626 Y149.764 E38.39042
G1 X161.455 Y147.951 E38.65564
G1 X162.236 Y146.116 E38.92096
G1 X162.968 Y144.263 E39.18602
G1 X163.655 Y142.393 E39.45107
G1 X164.291 Y140.51 E39.71549
G1 X164.879 Y138.613 E39.97971
G1 X165.418 Y136.706 E40.24336
G1 X165.907 Y134.787 E40.50682
G1 X166.346 Y132.863 E40.76937
G1 X166.735 Y130.935 E41.03104
G1 X167.075 Y129.001 E41.29229
G1 X167.364 Y127.067 E41.55244
G1 X167.605 Y125.133 E41.81173
G1 X167.796 Y123.201 E42.07002
G1 X167.939 Y121.274 E42.32709
G1 X168.034 Y119.352 E42.58311
G1 X168.081 Y117.437 E42.83796
G1 X168.082 Y115.533 E43.09127
G1 X168.036 Y113.638 E43.34346
G1 X167.944 Y111.757 E43.594
G1 X167.809 Y109.89 E43.84304
G1 X167.682 Y108.582 E44.01787
G1 X167.635 Y108.087 E44.08403
G1 X167.603 Y107.813 E44.12073
G1 X167.415 Y106.252 E44.3299
G1 X167.153 Y104.434 E44.57427
G1 X166.935 Y103.137 E44.74924
G1 X167.343 Y104.37 E44.76594
G1 X167.912 Y106.087 E44.8557
G1 X168.451 Y107.711 E45.01582
G1 X168.483 Y107.813 E45.0268
G1 X168.635 Y108.286 E45.08934
G1 X170.18 Y113.072 E45.75843
G1 X171.861 Y118.435 E46.50615
G1 X173.497 Y123.811 E47.25376
G1 X175.13 Y129.35 E48.02203
G1 X176.631 Y134.594 E48.74771
G1 X177.119 Y136.526 E49.01282
G1 X177.58 Y138.588 E49.29392
G1 X177.979 Y140.643 E49.57243
G1 X178.316 Y142.685 E49.84777
G1 X178.603 Y144.779 E50.12896
G1 X178.827 Y146.838 E50.40451
G1 X178.995 Y148.902 E50.68001
G1 X179.105 Y150.985 E50.95752
G1 X179.157 Y153.1 E51.23899
G1 X179.153 Y155.157 E51.51265
G1 X179.088 Y157.282 E51.7955
G1 X178.97 Y159.319 E52.06695
G1 X178.79 Y161.389 E52.34339
G1 X178.551 Y163.477 E52.62299
G1 X178.252 Y165.569 E52.90414
G1 X177.908 Y167.577 E53.17518
G1 X177.553 Y169.317 E53.41144
G1 X177.113 Y171.124 E53.65886
G1 X176.655 Y172.745 E53.88297
G1 X176.064 Y174.584 E54.13995
G1 X175.955 Y175.073 E54.2066
G1 X175.932 Y175.539 E54.26868
G1 X175.946 Y175.743 E54.29588
G1 X176.012 Y176.201 E54.35744
G1 X176.227 Y176.814 E54.44387
G1 X176.496 Y177.26 E54.51316
G1 X176.623 Y177.429 E54.54128
G1 X176.935 Y177.769 E54.60268
G1 X177.422 Y178.138 E54.68397
G1 X177.899 Y178.374 E54.75477
G1 X178.485 Y178.546 E54.83602
G1 X178.979 Y178.588 E54.90198
G1 X179.101 Y178.588 E54.91821
G1 X179.183 Y178.588 E54.92912
G1 X179.667 Y178.536 E54.99388
G1 X180.18 Y178.374 E55.06545
G1 X180.051 Y178.692 E55.06885
G1 X179.964 Y178.905 E55.07162
G1 X179.856 Y179.171 E55.09066
G1 X179.824 Y179.246 E55.10151
G1 X179.133 Y180.846 E55.33337
G1 X178.373 Y182.507 E55.57639
G1 X177.571 Y184.164 E55.8213
G1 X176.744 Y185.785 E56.0634
G1 X175.866 Y187.418 E56.31007
G1 X174.963 Y189.012 E56.5538
G1 X174.031 Y190.579 E56.79636
G1 X173.066 Y192.125 E57.03882
G1 X172.063 Y193.658 E57.28255
G1 X171.015 Y195.186 E57.52905
G1 X169.959 Y196.657 E57.76996
G1 X168.863 Y198.118 E58.01295
G1 X167.734 Y199.556 E58.25618
G1 X166.577 Y200.967 E58.49894
G1 X165.394 Y202.349 E58.74096
G1 X164.168 Y203.719 E58.98556
G1 X162.941 Y205.034 E59.22484
G1 X161.683 Y206.326 E59.46474
G1 X160.382 Y207.606 E59.70756
G1 X159.083 Y208.832 E59.94519
G1 X157.595 Y210.169 E60.21133
G1 X154.515 Y212.787 E60.74912
G1 X152.246 Y214.514 E61.12848
G1 X150.798 Y215.571 E61.36699
G1 X149.418 Y216.537 E61.5911
G1 X147.944 Y217.523 E61.82703
G1 X146.502 Y218.447 E62.05488
G1 X145.018 Y219.355 E62.28634
G1 X143.522 Y220.228 E62.51678
G1 X142.035 Y221.058 E62.74334
G1 X140.522 Y221.863 E62.97135
G1 X139.029 Y222.619 E63.19399
G1 X137.423 Y223.392 E63.43112
G1 X135.826 Y224.121 E63.66467
G1 X134.055 Y224.883 E63.92117
G1 X132.565 Y225.49 E64.13522
G1 X131.3 Y225.976 E64.31551
G1 X129.659 Y226.575 E64.54792
G1 X128.024 Y227.134 E64.7778
G1 X126.367 Y227.662 E65.00917
G1 X124.659 Y228.169 E65.2462
G1 X123.022 Y228.619 E65.47207
G1 X121.316 Y229.05 E65.70617
G1 X119.641 Y229.438 E65.93491
G1 X117.922 Y229.799 E66.1686
G1 X116.194 Y230.124 E66.40252
G1 X114.473 Y230.412 E66.63467
G1 X112.687 Y230.672 E66.87478
G1 X110.937 Y230.891 E67.10942
G1 X108.956 Y231.095 E67.37437
G1 X105.222 Y231.377 E67.87255
G1 F2700 E62.87255
G0 F6000 X105.212 Y231.809
G0 X106.725 Y236.017
G0 X107.46 Y236.351
;TYPE:WALL-OUTER
G1 F2700 E67.87255
G1 F1200 X106.201 Y236.824 E68.05148
G1 X104.531 Y232.381 E68.68296
G1 X103.618 Y232.41 E68.80449
G1 X101.922 Y232.439 E69.03016
G1 X100.038 Y232.433 E69.28081
G1 X98.174 Y232.386 E69.52887
G1 X96.346 Y232.302 E69.77233
G1 X94.511 Y232.176 E70.01703
G1 X92.695 Y232.014 E70.25959
G1 X90.871 Y231.811 E70.50376
G1 X89.036 Y231.568 E70.75002
G1 X87.214 Y231.287 E70.99528
G1 X85.396 Y230.967 E71.24087
G1 X83.593 Y230.609 E71.48542
G1 X81.785 Y230.209 E71.73178
G1 X79.974 Y229.768 E71.97975
G1 X78.184 Y229.291 E72.22621
G1 X76.402 Y228.775 E72.47302
G1 X74.643 Y228.224 E72.71826
G1 X72.875 Y227.628 E72.96648
G1 X71.141 Y227.003 E73.2117
G1 X69.402 Y226.332 E73.45968
G1 X67.689 Y225.629 E73.70602
G1 X65.993 Y224.89 E73.95215
G1 X64.314 Y224.116 E74.19812
G1 X62.666 Y223.312 E74.44207
G1 X61.019 Y222.463 E74.68858
G1 X59.402 Y221.588 E74.93319
G1 X57.818 Y220.685 E75.17576
G1 X56.247 Y219.745 E75.41933
G1 X54.734 Y218.796 E75.65694
G1 X53.169 Y217.77 E75.9059
G1 X51.683 Y216.747 E76.14592
G1 X50.246 Y215.713 E76.38144
G1 X48.764 Y214.601 E76.62794
G1 X47.399 Y213.529 E76.85885
G1 X46.006 Y212.389 E77.09833
G1 X44.657 Y211.239 E77.33416
G1 X43.324 Y210.053 E77.57154
G1 X42.028 Y208.851 E77.8067
G1 X40.656 Y207.523 E78.06073
G1 X38.808 Y205.644 E78.41136
G1 X34.295 Y207.34 E79.05277
G1 X33.821 Y206.081 E79.23174
G1 X37.814 Y204.58 E79.79927
G1 X37.046 Y203.729 E79.95177
G1 X35.993 Y202.531 E80.16397
G1 X34.912 Y201.251 E80.38687
G1 X33.691 Y199.745 E80.6448
G1 X32.597 Y198.333 E80.88244
G1 X31.77 Y197.219 E81.06703
G1 X32.598 Y196.66 E81.19994
G1 X33.669 Y198.091 E81.43773
G1 X35.293 Y200.142 E81.78578
G1 X36.937 Y202.095 E82.12541
G1 X38.668 Y204.026 E82.47042
G1 X40.453 Y205.904 E82.81513
G1 X42.298 Y207.728 E83.16029
G1 X44.198 Y209.495 E83.50549
G1 X46.15 Y211.203 E83.85056
G1 X48.152 Y212.852 E84.19563
G1 X50.203 Y214.436 E84.54039
G1 X52.297 Y215.956 E84.88464
G1 X54.433 Y217.409 E85.22833
G1 X56.607 Y218.793 E85.5712
G1 X58.876 Y220.142 E85.92239
G1 X61.115 Y221.383 E86.26296
G1 X61.511 Y221.525 E86.31893
G1 X61.913 Y221.585 E86.373
G1 X62.262 Y221.574 E86.41946
G1 X62.703 Y221.477 E86.47953
G1 X63.086 Y221.303 E86.5355
G1 X63.376 Y221.096 E86.5829
G1 X63.46 Y221.023 E86.59771
G1 X63.714 Y220.745 E86.6478
G1 X63.914 Y220.423 E86.69823
G1 X64.056 Y220.058 E86.75034
G1 X64.121 Y219.745 E86.79287
G1 X64.132 Y219.637 E86.80731
G1 X64.134 Y219.309 E86.85095
G1 X64.054 Y218.867 E86.91071
G1 X63.916 Y218.523 E86.96002
G1 X63.862 Y218.425 E86.97491
G1 X63.696 Y218.177 E87.01461
G1 X63.63 Y218.094 E87.02872
G1 X63.423 Y217.883 E87.06804
G1 X63.34 Y217.816 E87.08223
G1 X63.055 Y217.622 E87.1281
G1 X61.519 Y216.702 E87.3663
G1 X59.96 Y215.685 E87.61394
G1 X58.445 Y214.616 E87.86062
G1 X57.067 Y213.569 E88.09087
G1 X55.508 Y212.304 E88.35797
G1 X53.851 Y210.883 E88.64838
G1 X52.302 Y209.476 E88.92678
G1 X50.769 Y208.005 E89.20944
G1 X49.297 Y206.509 E89.48866
G1 X47.847 Y204.955 E89.77143
G1 X46.459 Y203.379 E90.05082
G1 X45.096 Y201.745 E90.33391
G1 X43.789 Y200.083 E90.61521
G1 X42.536 Y198.398 E90.89457
G1 X41.317 Y196.656 E91.17743
G1 X40.162 Y194.908 E91.45617
G1 X39.044 Y193.107 E91.73819
G1 X37.984 Y191.29 E92.01805
G1 X36.938 Y189.375 E92.30835
G1 X36.012 Y187.563 E92.57907
G1 X33.614 Y182.474 E93.32752
G1 X31.254 Y177.357 E94.0772
G1 X28.934 Y172.214 E94.82783
G1 X26.658 Y167.056 E95.57789
G1 X24.425 Y161.879 E96.32798
G1 X22.121 Y156.405 E97.11812
G1 X19.92 Y151.051 E97.88826
G1 X17.875 Y145.959 E98.61829
G1 X15.873 Y140.851 E99.34819
G1 X13.808 Y135.447 E100.11785
G1 X11.173 Y128.342 E101.12601
G1 X12.145 Y127.977 E101.26415
G1 X18.009 Y143.575 E103.48111
G1 X18.698 Y145.343 E103.73356
G1 X19.423 Y147.074 E103.98324
G1 X20.19 Y148.788 E104.23306
G1 X21.011 Y150.506 E104.48638
G1 X21.804 Y152.069 E104.71955
G1 X22.637 Y153.626 E104.95448
G1 X23.539 Y155.218 E105.19791
G1 X24.512 Y156.843 E105.4499
G1 X25.505 Y158.412 E105.69693
G1 X26.543 Y159.969 E105.94589
G1 X27.625 Y161.51 E106.19639
G1 X28.754 Y163.034 E106.44872
G1 X29.925 Y164.539 E106.70242
G1 X31.142 Y166.024 E106.95785
G1 X32.402 Y167.485 E107.21452
G1 X33.707 Y168.923 E107.47287
G1 X35.053 Y170.334 E107.73231
G1 X36.442 Y171.717 E107.99308
G1 X37.871 Y173.07 E108.25489
G1 X39.311 Y174.365 E108.51254
G1 X40.778 Y175.619 E108.7693
G1 X42.281 Y176.84 E109.02693
G1 X43.817 Y178.027 E109.28519
G1 X45.389 Y179.177 E109.54431
G1 X46.993 Y180.29 E109.80405
G1 X48.629 Y181.364 E110.06442
G1 X50.294 Y182.398 E110.32517
G1 X51.987 Y183.392 E110.58636
G1 X53.707 Y184.342 E110.84777
G1 X55.452 Y185.249 E111.10942
G1 X57.221 Y186.111 E111.37122
G1 X59.011 Y186.929 E111.63305
G1 X60.822 Y187.7 E111.89491
G1 X62.651 Y188.424 E112.15661
G1 X64.497 Y189.101 E112.4182
G1 X66.357 Y189.73 E112.67942
G1 X68.229 Y190.31 E112.94015
G1 X70.113 Y190.841 E113.20057
G1 X72.006 Y191.324 E113.46048
G1 X73.905 Y191.757 E113.71961
G1 X75.81 Y192.141 E113.97815
G1 X77.718 Y192.477 E114.2359
G1 X79.627 Y192.763 E114.49271
G1 X81.537 Y193 E114.74876
G1 X83.444 Y193.189 E115.00371
G1 X85.346 Y193.33 E115.25745
G1 X87.244 Y193.424 E115.51027
G1 X89.133 Y193.47 E115.76166
G1 X91.013 Y193.471 E116.01178
G1 X92.883 Y193.426 E116.26063
G1 X94.741 Y193.335 E116.50812
G1 X96.584 Y193.201 E116.75396
G1 X98.364 Y193.03 E116.99186
G1 X100.175 Y192.813 E117.23452
G1 X101.97 Y192.554 E117.4758
G1 X103.747 Y192.255 E117.71554
G1 X105.643 Y191.888 E117.97247
G1 X107.479 Y191.486 E118.22252
G1 X109.298 Y191.041 E118.47165
G1 X111.094 Y190.555 E118.71919
G1 X112.859 Y190.032 E118.9641
G1 X114.662 Y189.448 E119.21624
G1 X116.305 Y188.875 E119.44774
G1 X117.159 Y188.561 E119.56879
G1 X118.969 Y187.854 E119.82731
G1 X120.662 Y187.145 E120.0715
G1 X122.399 Y186.368 E120.32466
G1 X124.074 Y185.569 E120.57156
G1 X125.636 Y184.779 E120.80443
G1 X127.237 Y183.921 E121.04609
G1 X128.829 Y183.019 E121.28952
G1 X130.453 Y182.046 E121.54139
G1 X132.023 Y181.053 E121.78854
G1 X133.58 Y180.016 E122.03742
G1 X135.121 Y178.933 E122.288
G1 X136.645 Y177.805 E122.54025
G1 X138.15 Y176.633 E122.79403
G1 X139.635 Y175.416 E123.04946
G1 X141.096 Y174.156 E123.30614
G1 X142.534 Y172.852 E123.5644
